<?xml version="1.0" encoding="UTF-8"?>
<map version="1.10" tiledversion="1.11.2" orientation="orthogonal" renderorder="right-down" width="200" height="100" tilewidth="16" tileheight="16" infinite="0" nextlayerid="10" nextobjectid="304">
 <editorsettings>
  <export target="map01.json" format="json"/>
 </editorsettings>
 <tileset firstgid="1" name="FloorTileset" tilewidth="16" tileheight="16" tilecount="650" columns="25">
  <image source="../resources/Pixel Crawler - Free Pack/Environment/Tilesets/Floors_Tiles.png" width="400" height="416"/>
 </tileset>
 <tileset firstgid="651" name="WallTileset" tilewidth="16" tileheight="16" tilecount="625" columns="25">
  <image source="../resources/Pixel Crawler - Free Pack/Environment/Tilesets/Wall_Tiles.png" width="400" height="400"/>
  <tile id="0">
   <properties>
    <property name="collision" type="bool" value="false"/>
   </properties>
  </tile>
  <tile id="1">
   <properties>
    <property name="collision" type="bool" value="true"/>
   </properties>
  </tile>
  <tile id="2">
   <properties>
    <property name="collision" type="bool" value="true"/>
   </properties>
  </tile>
  <tile id="3">
   <properties>
    <property name="collision" type="bool" value="true"/>
   </properties>
  </tile>
  <tile id="4">
   <properties>
    <property name="collision" type="bool" value="true"/>
   </properties>
  </tile>
  <tile id="5">
   <properties>
    <property name="collision" type="bool" value="false"/>
   </properties>
  </tile>
  <tile id="6">
   <properties>
    <property name="collision" type="bool" value="false"/>
   </properties>
  </tile>
  <tile id="7">
   <properties>
    <property name="collision" type="bool" value="true"/>
   </properties>
  </tile>
  <tile id="8">
   <properties>
    <property name="collision" type="bool" value="true"/>
   </properties>
  </tile>
  <tile id="9">
   <properties>
    <property name="collision" type="bool" value="true"/>
   </properties>
  </tile>
  <tile id="10">
   <properties>
    <property name="collision" type="bool" value="true"/>
   </properties>
  </tile>
  <tile id="11">
   <properties>
    <property name="collision" type="bool" value="false"/>
   </properties>
  </tile>
  <tile id="12">
   <properties>
    <property name="collision" type="bool" value="false"/>
   </properties>
  </tile>
  <tile id="13">
   <properties>
    <property name="collision" type="bool" value="false"/>
   </properties>
  </tile>
  <tile id="14">
   <properties>
    <property name="collision" type="bool" value="false"/>
   </properties>
  </tile>
  <tile id="15">
   <properties>
    <property name="collision" type="bool" value="false"/>
   </properties>
  </tile>
  <tile id="16">
   <properties>
    <property name="collision" type="bool" value="false"/>
   </properties>
  </tile>
  <tile id="17">
   <properties>
    <property name="collision" type="bool" value="false"/>
   </properties>
  </tile>
  <tile id="25">
   <properties>
    <property name="collision" type="bool" value="true"/>
   </properties>
  </tile>
  <tile id="26">
   <properties>
    <property name="collision" type="bool" value="false"/>
   </properties>
  </tile>
  <tile id="27">
   <properties>
    <property name="collision" type="bool" value="false"/>
   </properties>
  </tile>
  <tile id="28">
   <properties>
    <property name="collision" type="bool" value="false"/>
   </properties>
  </tile>
  <tile id="29">
   <properties>
    <property name="collision" type="bool" value="false"/>
   </properties>
  </tile>
  <tile id="30">
   <properties>
    <property name="collision" type="bool" value="true"/>
   </properties>
  </tile>
  <tile id="31">
   <properties>
    <property name="collision" type="bool" value="true"/>
   </properties>
  </tile>
  <tile id="32">
   <properties>
    <property name="collision" type="bool" value="false"/>
   </properties>
  </tile>
  <tile id="33">
   <properties>
    <property name="collision" type="bool" value="false"/>
   </properties>
  </tile>
  <tile id="34">
   <properties>
    <property name="collision" type="bool" value="false"/>
   </properties>
  </tile>
  <tile id="35">
   <properties>
    <property name="collision" type="bool" value="false"/>
   </properties>
  </tile>
  <tile id="36">
   <properties>
    <property name="collision" type="bool" value="true"/>
   </properties>
  </tile>
  <tile id="37">
   <properties>
    <property name="collision" type="bool" value="true"/>
   </properties>
  </tile>
  <tile id="38">
   <properties>
    <property name="collision" type="bool" value="false"/>
   </properties>
  </tile>
  <tile id="39">
   <properties>
    <property name="collision" type="bool" value="false"/>
   </properties>
  </tile>
  <tile id="40">
   <properties>
    <property name="collision" type="bool" value="false"/>
   </properties>
  </tile>
  <tile id="41">
   <properties>
    <property name="collision" type="bool" value="false"/>
   </properties>
  </tile>
  <tile id="42">
   <properties>
    <property name="collision" type="bool" value="true"/>
   </properties>
  </tile>
  <tile id="50">
   <properties>
    <property name="collision" type="bool" value="true"/>
   </properties>
  </tile>
  <tile id="51">
   <properties>
    <property name="collision" type="bool" value="false"/>
   </properties>
  </tile>
  <tile id="52">
   <properties>
    <property name="collision" type="bool" value="false"/>
   </properties>
  </tile>
  <tile id="53">
   <properties>
    <property name="collision" type="bool" value="false"/>
   </properties>
  </tile>
  <tile id="54">
   <properties>
    <property name="collision" type="bool" value="false"/>
   </properties>
  </tile>
  <tile id="55">
   <properties>
    <property name="collision" type="bool" value="true"/>
   </properties>
  </tile>
  <tile id="56">
   <properties>
    <property name="collision" type="bool" value="true"/>
   </properties>
  </tile>
  <tile id="57">
   <properties>
    <property name="collision" type="bool" value="false"/>
   </properties>
  </tile>
  <tile id="58">
   <properties>
    <property name="collision" type="bool" value="false"/>
   </properties>
  </tile>
  <tile id="59">
   <properties>
    <property name="collision" type="bool" value="false"/>
   </properties>
  </tile>
  <tile id="60">
   <properties>
    <property name="collision" type="bool" value="false"/>
   </properties>
  </tile>
  <tile id="61">
   <properties>
    <property name="collision" type="bool" value="true"/>
   </properties>
  </tile>
  <tile id="62">
   <properties>
    <property name="collision" type="bool" value="true"/>
   </properties>
  </tile>
  <tile id="63">
   <properties>
    <property name="collision" type="bool" value="false"/>
   </properties>
  </tile>
  <tile id="64">
   <properties>
    <property name="collision" type="bool" value="false"/>
   </properties>
  </tile>
  <tile id="65">
   <properties>
    <property name="collision" type="bool" value="false"/>
   </properties>
  </tile>
  <tile id="66">
   <properties>
    <property name="collision" type="bool" value="false"/>
   </properties>
  </tile>
  <tile id="67">
   <properties>
    <property name="collision" type="bool" value="true"/>
   </properties>
  </tile>
  <tile id="75">
   <properties>
    <property name="collision" type="bool" value="true"/>
   </properties>
  </tile>
  <tile id="76">
   <properties>
    <property name="collision" type="bool" value="false"/>
   </properties>
  </tile>
  <tile id="77">
   <properties>
    <property name="collision" type="bool" value="false"/>
   </properties>
  </tile>
  <tile id="78">
   <properties>
    <property name="collision" type="bool" value="false"/>
   </properties>
  </tile>
  <tile id="79">
   <properties>
    <property name="collision" type="bool" value="false"/>
   </properties>
  </tile>
  <tile id="80">
   <properties>
    <property name="collision" type="bool" value="true"/>
   </properties>
  </tile>
  <tile id="81">
   <properties>
    <property name="collision" type="bool" value="true"/>
   </properties>
  </tile>
  <tile id="82">
   <properties>
    <property name="collision" type="bool" value="false"/>
   </properties>
  </tile>
  <tile id="83">
   <properties>
    <property name="collision" type="bool" value="false"/>
   </properties>
  </tile>
  <tile id="84">
   <properties>
    <property name="collision" type="bool" value="false"/>
   </properties>
  </tile>
  <tile id="85">
   <properties>
    <property name="collision" type="bool" value="false"/>
   </properties>
  </tile>
  <tile id="86">
   <properties>
    <property name="collision" type="bool" value="true"/>
   </properties>
  </tile>
  <tile id="87">
   <properties>
    <property name="collision" type="bool" value="true"/>
   </properties>
  </tile>
  <tile id="88">
   <properties>
    <property name="collision" type="bool" value="false"/>
   </properties>
  </tile>
  <tile id="89">
   <properties>
    <property name="collision" type="bool" value="false"/>
   </properties>
  </tile>
  <tile id="90">
   <properties>
    <property name="collision" type="bool" value="false"/>
   </properties>
  </tile>
  <tile id="91">
   <properties>
    <property name="collision" type="bool" value="false"/>
   </properties>
  </tile>
  <tile id="92">
   <properties>
    <property name="collision" type="bool" value="true"/>
   </properties>
  </tile>
  <tile id="100">
   <properties>
    <property name="collision" type="bool" value="true"/>
   </properties>
  </tile>
  <tile id="101">
   <properties>
    <property name="collision" type="bool" value="false"/>
   </properties>
  </tile>
  <tile id="102">
   <properties>
    <property name="collision" type="bool" value="false"/>
   </properties>
  </tile>
  <tile id="103">
   <properties>
    <property name="collision" type="bool" value="false"/>
   </properties>
  </tile>
  <tile id="104">
   <properties>
    <property name="collision" type="bool" value="false"/>
   </properties>
  </tile>
  <tile id="105">
   <properties>
    <property name="collision" type="bool" value="true"/>
   </properties>
  </tile>
  <tile id="106">
   <properties>
    <property name="collision" type="bool" value="true"/>
   </properties>
  </tile>
  <tile id="107">
   <properties>
    <property name="collision" type="bool" value="false"/>
   </properties>
  </tile>
  <tile id="108">
   <properties>
    <property name="collision" type="bool" value="false"/>
   </properties>
  </tile>
  <tile id="109">
   <properties>
    <property name="collision" type="bool" value="false"/>
   </properties>
  </tile>
  <tile id="110">
   <properties>
    <property name="collision" type="bool" value="false"/>
   </properties>
  </tile>
  <tile id="111">
   <properties>
    <property name="collision" type="bool" value="true"/>
   </properties>
  </tile>
  <tile id="112">
   <properties>
    <property name="collision" type="bool" value="true"/>
   </properties>
  </tile>
  <tile id="113">
   <properties>
    <property name="collision" type="bool" value="false"/>
   </properties>
  </tile>
  <tile id="114">
   <properties>
    <property name="collision" type="bool" value="false"/>
   </properties>
  </tile>
  <tile id="115">
   <properties>
    <property name="collision" type="bool" value="false"/>
   </properties>
  </tile>
  <tile id="116">
   <properties>
    <property name="collision" type="bool" value="false"/>
   </properties>
  </tile>
  <tile id="117">
   <properties>
    <property name="collision" type="bool" value="true"/>
   </properties>
  </tile>
  <tile id="125">
   <properties>
    <property name="collision" type="bool" value="true"/>
   </properties>
  </tile>
  <tile id="126">
   <properties>
    <property name="collision" type="bool" value="true"/>
   </properties>
  </tile>
  <tile id="127">
   <properties>
    <property name="collision" type="bool" value="true"/>
   </properties>
  </tile>
  <tile id="128">
   <properties>
    <property name="collision" type="bool" value="true"/>
   </properties>
  </tile>
  <tile id="129">
   <properties>
    <property name="collision" type="bool" value="true"/>
   </properties>
  </tile>
  <tile id="130">
   <properties>
    <property name="collision" type="bool" value="true"/>
   </properties>
  </tile>
  <tile id="131">
   <properties>
    <property name="collision" type="bool" value="true"/>
   </properties>
  </tile>
  <tile id="132">
   <properties>
    <property name="collision" type="bool" value="true"/>
   </properties>
  </tile>
  <tile id="133">
   <properties>
    <property name="collision" type="bool" value="true"/>
   </properties>
  </tile>
  <tile id="134">
   <properties>
    <property name="collision" type="bool" value="true"/>
   </properties>
  </tile>
  <tile id="135">
   <properties>
    <property name="collision" type="bool" value="true"/>
   </properties>
  </tile>
  <tile id="136">
   <properties>
    <property name="collision" type="bool" value="true"/>
   </properties>
  </tile>
  <tile id="137">
   <properties>
    <property name="collision" type="bool" value="true"/>
   </properties>
  </tile>
  <tile id="138">
   <properties>
    <property name="collision" type="bool" value="true"/>
   </properties>
  </tile>
  <tile id="139">
   <properties>
    <property name="collision" type="bool" value="true"/>
   </properties>
  </tile>
  <tile id="140">
   <properties>
    <property name="collision" type="bool" value="true"/>
   </properties>
  </tile>
  <tile id="141">
   <properties>
    <property name="collision" type="bool" value="true"/>
   </properties>
  </tile>
  <tile id="142">
   <properties>
    <property name="collision" type="bool" value="true"/>
   </properties>
  </tile>
  <tile id="150">
   <properties>
    <property name="collision" type="bool" value="true"/>
   </properties>
  </tile>
  <tile id="151">
   <properties>
    <property name="collision" type="bool" value="true"/>
   </properties>
  </tile>
  <tile id="152">
   <properties>
    <property name="collision" type="bool" value="true"/>
   </properties>
  </tile>
  <tile id="153">
   <properties>
    <property name="collision" type="bool" value="true"/>
   </properties>
  </tile>
  <tile id="154">
   <properties>
    <property name="collision" type="bool" value="true"/>
   </properties>
  </tile>
  <tile id="155">
   <properties>
    <property name="collision" type="bool" value="true"/>
   </properties>
  </tile>
  <tile id="156">
   <properties>
    <property name="collision" type="bool" value="true"/>
   </properties>
  </tile>
  <tile id="157">
   <properties>
    <property name="collision" type="bool" value="true"/>
   </properties>
  </tile>
  <tile id="158">
   <properties>
    <property name="collision" type="bool" value="true"/>
   </properties>
  </tile>
  <tile id="159">
   <properties>
    <property name="collision" type="bool" value="true"/>
   </properties>
  </tile>
  <tile id="160">
   <properties>
    <property name="collision" type="bool" value="true"/>
   </properties>
  </tile>
  <tile id="161">
   <properties>
    <property name="collision" type="bool" value="true"/>
   </properties>
  </tile>
  <tile id="162">
   <properties>
    <property name="collision" type="bool" value="true"/>
   </properties>
  </tile>
  <tile id="163">
   <properties>
    <property name="collision" type="bool" value="true"/>
   </properties>
  </tile>
  <tile id="164">
   <properties>
    <property name="collision" type="bool" value="true"/>
   </properties>
  </tile>
  <tile id="165">
   <properties>
    <property name="collision" type="bool" value="true"/>
   </properties>
  </tile>
  <tile id="166">
   <properties>
    <property name="collision" type="bool" value="true"/>
   </properties>
  </tile>
  <tile id="167">
   <properties>
    <property name="collision" type="bool" value="true"/>
   </properties>
  </tile>
  <tile id="175">
   <properties>
    <property name="collision" type="bool" value="true"/>
   </properties>
  </tile>
  <tile id="176">
   <properties>
    <property name="collision" type="bool" value="true"/>
   </properties>
  </tile>
  <tile id="177">
   <properties>
    <property name="collision" type="bool" value="true"/>
   </properties>
  </tile>
  <tile id="178">
   <properties>
    <property name="collision" type="bool" value="true"/>
   </properties>
  </tile>
  <tile id="179">
   <properties>
    <property name="collision" type="bool" value="true"/>
   </properties>
  </tile>
  <tile id="180">
   <properties>
    <property name="collision" type="bool" value="true"/>
   </properties>
  </tile>
  <tile id="181">
   <properties>
    <property name="collision" type="bool" value="true"/>
   </properties>
  </tile>
  <tile id="182">
   <properties>
    <property name="collision" type="bool" value="true"/>
   </properties>
  </tile>
  <tile id="183">
   <properties>
    <property name="collision" type="bool" value="true"/>
   </properties>
  </tile>
  <tile id="184">
   <properties>
    <property name="collision" type="bool" value="true"/>
   </properties>
  </tile>
  <tile id="185">
   <properties>
    <property name="collision" type="bool" value="true"/>
   </properties>
  </tile>
  <tile id="186">
   <properties>
    <property name="collision" type="bool" value="true"/>
   </properties>
  </tile>
  <tile id="187">
   <properties>
    <property name="collision" type="bool" value="true"/>
   </properties>
  </tile>
  <tile id="188">
   <properties>
    <property name="collision" type="bool" value="true"/>
   </properties>
  </tile>
  <tile id="189">
   <properties>
    <property name="collision" type="bool" value="true"/>
   </properties>
  </tile>
  <tile id="190">
   <properties>
    <property name="collision" type="bool" value="true"/>
   </properties>
  </tile>
  <tile id="191">
   <properties>
    <property name="collision" type="bool" value="true"/>
   </properties>
  </tile>
  <tile id="192">
   <properties>
    <property name="collision" type="bool" value="true"/>
   </properties>
  </tile>
  <tile id="200">
   <properties>
    <property name="collision" type="bool" value="true"/>
   </properties>
  </tile>
  <tile id="201">
   <properties>
    <property name="collision" type="bool" value="true"/>
   </properties>
  </tile>
  <tile id="202">
   <properties>
    <property name="collision" type="bool" value="true"/>
   </properties>
  </tile>
  <tile id="203">
   <properties>
    <property name="collision" type="bool" value="true"/>
   </properties>
  </tile>
  <tile id="204">
   <properties>
    <property name="collision" type="bool" value="true"/>
   </properties>
  </tile>
  <tile id="205">
   <properties>
    <property name="collision" type="bool" value="true"/>
   </properties>
  </tile>
  <tile id="206">
   <properties>
    <property name="collision" type="bool" value="true"/>
   </properties>
  </tile>
  <tile id="207">
   <properties>
    <property name="collision" type="bool" value="true"/>
   </properties>
  </tile>
  <tile id="208">
   <properties>
    <property name="collision" type="bool" value="true"/>
   </properties>
  </tile>
  <tile id="209">
   <properties>
    <property name="collision" type="bool" value="true"/>
   </properties>
  </tile>
  <tile id="210">
   <properties>
    <property name="collision" type="bool" value="true"/>
   </properties>
  </tile>
  <tile id="211">
   <properties>
    <property name="collision" type="bool" value="true"/>
   </properties>
  </tile>
  <tile id="212">
   <properties>
    <property name="collision" type="bool" value="true"/>
   </properties>
  </tile>
  <tile id="213">
   <properties>
    <property name="collision" type="bool" value="true"/>
   </properties>
  </tile>
  <tile id="214">
   <properties>
    <property name="collision" type="bool" value="true"/>
   </properties>
  </tile>
  <tile id="215">
   <properties>
    <property name="collision" type="bool" value="true"/>
   </properties>
  </tile>
  <tile id="216">
   <properties>
    <property name="collision" type="bool" value="true"/>
   </properties>
  </tile>
  <tile id="217">
   <properties>
    <property name="collision" type="bool" value="true"/>
   </properties>
  </tile>
  <tile id="225">
   <properties>
    <property name="collision" type="bool" value="false"/>
   </properties>
  </tile>
  <tile id="226">
   <properties>
    <property name="collision" type="bool" value="true"/>
   </properties>
  </tile>
  <tile id="227">
   <properties>
    <property name="collision" type="bool" value="true"/>
   </properties>
  </tile>
  <tile id="228">
   <properties>
    <property name="collision" type="bool" value="true"/>
   </properties>
  </tile>
  <tile id="229">
   <properties>
    <property name="collision" type="bool" value="true"/>
   </properties>
  </tile>
  <tile id="230">
   <properties>
    <property name="collision" type="bool" value="false"/>
   </properties>
  </tile>
  <tile id="231">
   <properties>
    <property name="collision" type="bool" value="false"/>
   </properties>
  </tile>
  <tile id="232">
   <properties>
    <property name="collision" type="bool" value="true"/>
   </properties>
  </tile>
  <tile id="233">
   <properties>
    <property name="collision" type="bool" value="true"/>
   </properties>
  </tile>
  <tile id="234">
   <properties>
    <property name="collision" type="bool" value="true"/>
   </properties>
  </tile>
  <tile id="235">
   <properties>
    <property name="collision" type="bool" value="true"/>
   </properties>
  </tile>
  <tile id="236">
   <properties>
    <property name="collision" type="bool" value="false"/>
   </properties>
  </tile>
  <tile id="237">
   <properties>
    <property name="collision" type="bool" value="false"/>
   </properties>
  </tile>
  <tile id="238">
   <properties>
    <property name="collision" type="bool" value="true"/>
   </properties>
  </tile>
  <tile id="239">
   <properties>
    <property name="collision" type="bool" value="true"/>
   </properties>
  </tile>
  <tile id="240">
   <properties>
    <property name="collision" type="bool" value="true"/>
   </properties>
  </tile>
  <tile id="241">
   <properties>
    <property name="collision" type="bool" value="true"/>
   </properties>
  </tile>
  <tile id="242">
   <properties>
    <property name="collision" type="bool" value="false"/>
   </properties>
  </tile>
  <tile id="250">
   <properties>
    <property name="collision" type="bool" value="false"/>
   </properties>
  </tile>
  <tile id="251">
   <properties>
    <property name="collision" type="bool" value="false"/>
   </properties>
  </tile>
  <tile id="252">
   <properties>
    <property name="collision" type="bool" value="false"/>
   </properties>
  </tile>
  <tile id="253">
   <properties>
    <property name="collision" type="bool" value="false"/>
   </properties>
  </tile>
  <tile id="254">
   <properties>
    <property name="collision" type="bool" value="false"/>
   </properties>
  </tile>
  <tile id="255">
   <properties>
    <property name="collision" type="bool" value="false"/>
   </properties>
  </tile>
  <tile id="256">
   <properties>
    <property name="collision" type="bool" value="false"/>
   </properties>
  </tile>
  <tile id="257">
   <properties>
    <property name="collision" type="bool" value="false"/>
   </properties>
  </tile>
  <tile id="258">
   <properties>
    <property name="collision" type="bool" value="false"/>
   </properties>
  </tile>
  <tile id="259">
   <properties>
    <property name="collision" type="bool" value="false"/>
   </properties>
  </tile>
  <tile id="260">
   <properties>
    <property name="collision" type="bool" value="false"/>
   </properties>
  </tile>
  <tile id="261">
   <properties>
    <property name="collision" type="bool" value="false"/>
   </properties>
  </tile>
  <tile id="262">
   <properties>
    <property name="collision" type="bool" value="false"/>
   </properties>
  </tile>
  <tile id="263">
   <properties>
    <property name="collision" type="bool" value="false"/>
   </properties>
  </tile>
  <tile id="264">
   <properties>
    <property name="collision" type="bool" value="false"/>
   </properties>
  </tile>
  <tile id="265">
   <properties>
    <property name="collision" type="bool" value="false"/>
   </properties>
  </tile>
  <tile id="266">
   <properties>
    <property name="collision" type="bool" value="false"/>
   </properties>
  </tile>
  <tile id="267">
   <properties>
    <property name="collision" type="bool" value="false"/>
   </properties>
  </tile>
  <tile id="275">
   <properties>
    <property name="collision" type="bool" value="false"/>
   </properties>
  </tile>
  <tile id="276">
   <properties>
    <property name="collision" type="bool" value="false"/>
   </properties>
  </tile>
  <tile id="277">
   <properties>
    <property name="collision" type="bool" value="false"/>
   </properties>
  </tile>
  <tile id="278">
   <properties>
    <property name="collision" type="bool" value="false"/>
   </properties>
  </tile>
  <tile id="279">
   <properties>
    <property name="collision" type="bool" value="false"/>
   </properties>
  </tile>
  <tile id="280">
   <properties>
    <property name="collision" type="bool" value="false"/>
   </properties>
  </tile>
  <tile id="281">
   <properties>
    <property name="collision" type="bool" value="false"/>
   </properties>
  </tile>
  <tile id="282">
   <properties>
    <property name="collision" type="bool" value="false"/>
   </properties>
  </tile>
  <tile id="283">
   <properties>
    <property name="collision" type="bool" value="false"/>
   </properties>
  </tile>
  <tile id="284">
   <properties>
    <property name="collision" type="bool" value="false"/>
   </properties>
  </tile>
  <tile id="285">
   <properties>
    <property name="collision" type="bool" value="false"/>
   </properties>
  </tile>
  <tile id="286">
   <properties>
    <property name="collision" type="bool" value="false"/>
   </properties>
  </tile>
  <tile id="287">
   <properties>
    <property name="collision" type="bool" value="false"/>
   </properties>
  </tile>
  <tile id="288">
   <properties>
    <property name="collision" type="bool" value="false"/>
   </properties>
  </tile>
  <tile id="289">
   <properties>
    <property name="collision" type="bool" value="false"/>
   </properties>
  </tile>
  <tile id="290">
   <properties>
    <property name="collision" type="bool" value="false"/>
   </properties>
  </tile>
  <tile id="291">
   <properties>
    <property name="collision" type="bool" value="false"/>
   </properties>
  </tile>
  <tile id="292">
   <properties>
    <property name="collision" type="bool" value="false"/>
   </properties>
  </tile>
  <tile id="300">
   <properties>
    <property name="collision" type="bool" value="false"/>
   </properties>
  </tile>
  <tile id="301">
   <properties>
    <property name="collision" type="bool" value="false"/>
   </properties>
  </tile>
  <tile id="302">
   <properties>
    <property name="collision" type="bool" value="false"/>
   </properties>
  </tile>
  <tile id="303">
   <properties>
    <property name="collision" type="bool" value="false"/>
   </properties>
  </tile>
  <tile id="304">
   <properties>
    <property name="collision" type="bool" value="false"/>
   </properties>
  </tile>
  <tile id="305">
   <properties>
    <property name="collision" type="bool" value="false"/>
   </properties>
  </tile>
  <tile id="306">
   <properties>
    <property name="collision" type="bool" value="false"/>
   </properties>
  </tile>
  <tile id="307">
   <properties>
    <property name="collision" type="bool" value="false"/>
   </properties>
  </tile>
  <tile id="308">
   <properties>
    <property name="collision" type="bool" value="false"/>
   </properties>
  </tile>
  <tile id="309">
   <properties>
    <property name="collision" type="bool" value="false"/>
   </properties>
  </tile>
  <tile id="310">
   <properties>
    <property name="collision" type="bool" value="false"/>
   </properties>
  </tile>
  <tile id="311">
   <properties>
    <property name="collision" type="bool" value="false"/>
   </properties>
  </tile>
  <tile id="312">
   <properties>
    <property name="collision" type="bool" value="false"/>
   </properties>
  </tile>
  <tile id="313">
   <properties>
    <property name="collision" type="bool" value="false"/>
   </properties>
  </tile>
  <tile id="314">
   <properties>
    <property name="collision" type="bool" value="false"/>
   </properties>
  </tile>
  <tile id="315">
   <properties>
    <property name="collision" type="bool" value="false"/>
   </properties>
  </tile>
  <tile id="316">
   <properties>
    <property name="collision" type="bool" value="false"/>
   </properties>
  </tile>
  <tile id="317">
   <properties>
    <property name="collision" type="bool" value="false"/>
   </properties>
  </tile>
  <tile id="325">
   <properties>
    <property name="collision" type="bool" value="false"/>
   </properties>
  </tile>
  <tile id="326">
   <properties>
    <property name="collision" type="bool" value="false"/>
   </properties>
  </tile>
  <tile id="327">
   <properties>
    <property name="collision" type="bool" value="false"/>
   </properties>
  </tile>
  <tile id="328">
   <properties>
    <property name="collision" type="bool" value="false"/>
   </properties>
  </tile>
  <tile id="329">
   <properties>
    <property name="collision" type="bool" value="false"/>
   </properties>
  </tile>
  <tile id="330">
   <properties>
    <property name="collision" type="bool" value="false"/>
   </properties>
  </tile>
  <tile id="331">
   <properties>
    <property name="collision" type="bool" value="false"/>
   </properties>
  </tile>
  <tile id="332">
   <properties>
    <property name="collision" type="bool" value="false"/>
   </properties>
  </tile>
  <tile id="333">
   <properties>
    <property name="collision" type="bool" value="false"/>
   </properties>
  </tile>
  <tile id="334">
   <properties>
    <property name="collision" type="bool" value="false"/>
   </properties>
  </tile>
  <tile id="335">
   <properties>
    <property name="collision" type="bool" value="false"/>
   </properties>
  </tile>
  <tile id="336">
   <properties>
    <property name="collision" type="bool" value="false"/>
   </properties>
  </tile>
  <tile id="337">
   <properties>
    <property name="collision" type="bool" value="false"/>
   </properties>
  </tile>
  <tile id="338">
   <properties>
    <property name="collision" type="bool" value="false"/>
   </properties>
  </tile>
  <tile id="339">
   <properties>
    <property name="collision" type="bool" value="false"/>
   </properties>
  </tile>
  <tile id="340">
   <properties>
    <property name="collision" type="bool" value="false"/>
   </properties>
  </tile>
  <tile id="341">
   <properties>
    <property name="collision" type="bool" value="false"/>
   </properties>
  </tile>
  <tile id="342">
   <properties>
    <property name="collision" type="bool" value="false"/>
   </properties>
  </tile>
  <tile id="350">
   <properties>
    <property name="collision" type="bool" value="false"/>
   </properties>
  </tile>
  <tile id="351">
   <properties>
    <property name="collision" type="bool" value="false"/>
   </properties>
  </tile>
  <tile id="352">
   <properties>
    <property name="collision" type="bool" value="false"/>
   </properties>
  </tile>
  <tile id="353">
   <properties>
    <property name="collision" type="bool" value="false"/>
   </properties>
  </tile>
  <tile id="354">
   <properties>
    <property name="collision" type="bool" value="false"/>
   </properties>
  </tile>
  <tile id="355">
   <properties>
    <property name="collision" type="bool" value="false"/>
   </properties>
  </tile>
  <tile id="356">
   <properties>
    <property name="collision" type="bool" value="false"/>
   </properties>
  </tile>
  <tile id="357">
   <properties>
    <property name="collision" type="bool" value="false"/>
   </properties>
  </tile>
  <tile id="358">
   <properties>
    <property name="collision" type="bool" value="false"/>
   </properties>
  </tile>
  <tile id="359">
   <properties>
    <property name="collision" type="bool" value="false"/>
   </properties>
  </tile>
  <tile id="360">
   <properties>
    <property name="collision" type="bool" value="false"/>
   </properties>
  </tile>
  <tile id="361">
   <properties>
    <property name="collision" type="bool" value="false"/>
   </properties>
  </tile>
  <tile id="362">
   <properties>
    <property name="collision" type="bool" value="false"/>
   </properties>
  </tile>
  <tile id="363">
   <properties>
    <property name="collision" type="bool" value="false"/>
   </properties>
  </tile>
  <tile id="364">
   <properties>
    <property name="collision" type="bool" value="false"/>
   </properties>
  </tile>
  <tile id="365">
   <properties>
    <property name="collision" type="bool" value="false"/>
   </properties>
  </tile>
  <tile id="366">
   <properties>
    <property name="collision" type="bool" value="false"/>
   </properties>
  </tile>
  <tile id="367">
   <properties>
    <property name="collision" type="bool" value="false"/>
   </properties>
  </tile>
  <tile id="375">
   <properties>
    <property name="collision" type="bool" value="false"/>
   </properties>
  </tile>
  <tile id="376">
   <properties>
    <property name="collision" type="bool" value="false"/>
   </properties>
  </tile>
  <tile id="377">
   <properties>
    <property name="collision" type="bool" value="false"/>
   </properties>
  </tile>
  <tile id="378">
   <properties>
    <property name="collision" type="bool" value="false"/>
   </properties>
  </tile>
  <tile id="379">
   <properties>
    <property name="collision" type="bool" value="false"/>
   </properties>
  </tile>
  <tile id="380">
   <properties>
    <property name="collision" type="bool" value="false"/>
   </properties>
  </tile>
  <tile id="381">
   <properties>
    <property name="collision" type="bool" value="false"/>
   </properties>
  </tile>
  <tile id="382">
   <properties>
    <property name="collision" type="bool" value="false"/>
   </properties>
  </tile>
  <tile id="383">
   <properties>
    <property name="collision" type="bool" value="false"/>
   </properties>
  </tile>
  <tile id="384">
   <properties>
    <property name="collision" type="bool" value="false"/>
   </properties>
  </tile>
  <tile id="385">
   <properties>
    <property name="collision" type="bool" value="false"/>
   </properties>
  </tile>
  <tile id="386">
   <properties>
    <property name="collision" type="bool" value="false"/>
   </properties>
  </tile>
  <tile id="387">
   <properties>
    <property name="collision" type="bool" value="false"/>
   </properties>
  </tile>
  <tile id="388">
   <properties>
    <property name="collision" type="bool" value="false"/>
   </properties>
  </tile>
  <tile id="389">
   <properties>
    <property name="collision" type="bool" value="false"/>
   </properties>
  </tile>
  <tile id="390">
   <properties>
    <property name="collision" type="bool" value="false"/>
   </properties>
  </tile>
  <tile id="391">
   <properties>
    <property name="collision" type="bool" value="false"/>
   </properties>
  </tile>
  <tile id="392">
   <properties>
    <property name="collision" type="bool" value="false"/>
   </properties>
  </tile>
  <tile id="400">
   <properties>
    <property name="collision" type="bool" value="false"/>
   </properties>
  </tile>
  <tile id="401">
   <properties>
    <property name="collision" type="bool" value="false"/>
   </properties>
  </tile>
  <tile id="402">
   <properties>
    <property name="collision" type="bool" value="false"/>
   </properties>
  </tile>
  <tile id="403">
   <properties>
    <property name="collision" type="bool" value="false"/>
   </properties>
  </tile>
  <tile id="404">
   <properties>
    <property name="collision" type="bool" value="false"/>
   </properties>
  </tile>
  <tile id="405">
   <properties>
    <property name="collision" type="bool" value="false"/>
   </properties>
  </tile>
  <tile id="406">
   <properties>
    <property name="collision" type="bool" value="false"/>
   </properties>
  </tile>
  <tile id="407">
   <properties>
    <property name="collision" type="bool" value="false"/>
   </properties>
  </tile>
  <tile id="408">
   <properties>
    <property name="collision" type="bool" value="false"/>
   </properties>
  </tile>
  <tile id="409">
   <properties>
    <property name="collision" type="bool" value="false"/>
   </properties>
  </tile>
  <tile id="410">
   <properties>
    <property name="collision" type="bool" value="false"/>
   </properties>
  </tile>
  <tile id="411">
   <properties>
    <property name="collision" type="bool" value="false"/>
   </properties>
  </tile>
  <tile id="412">
   <properties>
    <property name="collision" type="bool" value="false"/>
   </properties>
  </tile>
  <tile id="413">
   <properties>
    <property name="collision" type="bool" value="false"/>
   </properties>
  </tile>
  <tile id="414">
   <properties>
    <property name="collision" type="bool" value="false"/>
   </properties>
  </tile>
  <tile id="415">
   <properties>
    <property name="collision" type="bool" value="false"/>
   </properties>
  </tile>
  <tile id="416">
   <properties>
    <property name="collision" type="bool" value="false"/>
   </properties>
  </tile>
  <tile id="417">
   <properties>
    <property name="collision" type="bool" value="false"/>
   </properties>
  </tile>
  <tile id="425">
   <properties>
    <property name="collision" type="bool" value="false"/>
   </properties>
  </tile>
  <tile id="426">
   <properties>
    <property name="collision" type="bool" value="false"/>
   </properties>
  </tile>
  <tile id="427">
   <properties>
    <property name="collision" type="bool" value="false"/>
   </properties>
  </tile>
  <tile id="428">
   <properties>
    <property name="collision" type="bool" value="false"/>
   </properties>
  </tile>
  <tile id="429">
   <properties>
    <property name="collision" type="bool" value="false"/>
   </properties>
  </tile>
  <tile id="430">
   <properties>
    <property name="collision" type="bool" value="false"/>
   </properties>
  </tile>
  <tile id="431">
   <properties>
    <property name="collision" type="bool" value="false"/>
   </properties>
  </tile>
  <tile id="432">
   <properties>
    <property name="collision" type="bool" value="false"/>
   </properties>
  </tile>
  <tile id="433">
   <properties>
    <property name="collision" type="bool" value="false"/>
   </properties>
  </tile>
  <tile id="434">
   <properties>
    <property name="collision" type="bool" value="false"/>
   </properties>
  </tile>
  <tile id="435">
   <properties>
    <property name="collision" type="bool" value="false"/>
   </properties>
  </tile>
  <tile id="436">
   <properties>
    <property name="collision" type="bool" value="false"/>
   </properties>
  </tile>
  <tile id="437">
   <properties>
    <property name="collision" type="bool" value="false"/>
   </properties>
  </tile>
  <tile id="438">
   <properties>
    <property name="collision" type="bool" value="false"/>
   </properties>
  </tile>
  <tile id="439">
   <properties>
    <property name="collision" type="bool" value="false"/>
   </properties>
  </tile>
  <tile id="440">
   <properties>
    <property name="collision" type="bool" value="false"/>
   </properties>
  </tile>
  <tile id="441">
   <properties>
    <property name="collision" type="bool" value="false"/>
   </properties>
  </tile>
  <tile id="442">
   <properties>
    <property name="collision" type="bool" value="false"/>
   </properties>
  </tile>
  <tile id="450">
   <properties>
    <property name="collision" type="bool" value="false"/>
   </properties>
  </tile>
  <tile id="451">
   <properties>
    <property name="collision" type="bool" value="false"/>
   </properties>
  </tile>
  <tile id="452">
   <properties>
    <property name="collision" type="bool" value="false"/>
   </properties>
  </tile>
  <tile id="453">
   <properties>
    <property name="collision" type="bool" value="false"/>
   </properties>
  </tile>
  <tile id="454">
   <properties>
    <property name="collision" type="bool" value="false"/>
   </properties>
  </tile>
  <tile id="455">
   <properties>
    <property name="collision" type="bool" value="false"/>
   </properties>
  </tile>
  <tile id="456">
   <properties>
    <property name="collision" type="bool" value="false"/>
   </properties>
  </tile>
  <tile id="457">
   <properties>
    <property name="collision" type="bool" value="false"/>
   </properties>
  </tile>
  <tile id="458">
   <properties>
    <property name="collision" type="bool" value="false"/>
   </properties>
  </tile>
  <tile id="459">
   <properties>
    <property name="collision" type="bool" value="false"/>
   </properties>
  </tile>
  <tile id="460">
   <properties>
    <property name="collision" type="bool" value="false"/>
   </properties>
  </tile>
  <tile id="461">
   <properties>
    <property name="collision" type="bool" value="false"/>
   </properties>
  </tile>
  <tile id="462">
   <properties>
    <property name="collision" type="bool" value="false"/>
   </properties>
  </tile>
  <tile id="463">
   <properties>
    <property name="collision" type="bool" value="false"/>
   </properties>
  </tile>
  <tile id="464">
   <properties>
    <property name="collision" type="bool" value="false"/>
   </properties>
  </tile>
  <tile id="465">
   <properties>
    <property name="collision" type="bool" value="false"/>
   </properties>
  </tile>
  <tile id="466">
   <properties>
    <property name="collision" type="bool" value="false"/>
   </properties>
  </tile>
  <tile id="467">
   <properties>
    <property name="collision" type="bool" value="false"/>
   </properties>
  </tile>
  <tile id="475">
   <properties>
    <property name="collision" type="bool" value="false"/>
   </properties>
  </tile>
  <tile id="476">
   <properties>
    <property name="collision" type="bool" value="true"/>
   </properties>
  </tile>
  <tile id="477">
   <properties>
    <property name="collision" type="bool" value="true"/>
   </properties>
  </tile>
  <tile id="478">
   <properties>
    <property name="collision" type="bool" value="true"/>
   </properties>
  </tile>
  <tile id="479">
   <properties>
    <property name="collision" type="bool" value="true"/>
   </properties>
  </tile>
  <tile id="480">
   <properties>
    <property name="collision" type="bool" value="false"/>
   </properties>
  </tile>
  <tile id="481">
   <properties>
    <property name="collision" type="bool" value="false"/>
   </properties>
  </tile>
  <tile id="482">
   <properties>
    <property name="collision" type="bool" value="true"/>
   </properties>
  </tile>
  <tile id="483">
   <properties>
    <property name="collision" type="bool" value="true"/>
   </properties>
  </tile>
  <tile id="484">
   <properties>
    <property name="collision" type="bool" value="true"/>
   </properties>
  </tile>
  <tile id="485">
   <properties>
    <property name="collision" type="bool" value="true"/>
   </properties>
  </tile>
  <tile id="486">
   <properties>
    <property name="collision" type="bool" value="false"/>
   </properties>
  </tile>
  <tile id="487">
   <properties>
    <property name="collision" type="bool" value="false"/>
   </properties>
  </tile>
  <tile id="488">
   <properties>
    <property name="collision" type="bool" value="true"/>
   </properties>
  </tile>
  <tile id="489">
   <properties>
    <property name="collision" type="bool" value="true"/>
   </properties>
  </tile>
  <tile id="490">
   <properties>
    <property name="collision" type="bool" value="true"/>
   </properties>
  </tile>
  <tile id="491">
   <properties>
    <property name="collision" type="bool" value="true"/>
   </properties>
  </tile>
  <tile id="492">
   <properties>
    <property name="collision" type="bool" value="false"/>
   </properties>
  </tile>
  <tile id="500">
   <properties>
    <property name="collision" type="bool" value="true"/>
   </properties>
  </tile>
  <tile id="501">
   <properties>
    <property name="collision" type="bool" value="true"/>
   </properties>
  </tile>
  <tile id="502">
   <properties>
    <property name="collision" type="bool" value="true"/>
   </properties>
  </tile>
  <tile id="503">
   <properties>
    <property name="collision" type="bool" value="true"/>
   </properties>
  </tile>
  <tile id="504">
   <properties>
    <property name="collision" type="bool" value="true"/>
   </properties>
  </tile>
  <tile id="505">
   <properties>
    <property name="collision" type="bool" value="true"/>
   </properties>
  </tile>
  <tile id="506">
   <properties>
    <property name="collision" type="bool" value="true"/>
   </properties>
  </tile>
  <tile id="507">
   <properties>
    <property name="collision" type="bool" value="true"/>
   </properties>
  </tile>
  <tile id="508">
   <properties>
    <property name="collision" type="bool" value="true"/>
   </properties>
  </tile>
  <tile id="509">
   <properties>
    <property name="collision" type="bool" value="true"/>
   </properties>
  </tile>
  <tile id="510">
   <properties>
    <property name="collision" type="bool" value="true"/>
   </properties>
  </tile>
  <tile id="511">
   <properties>
    <property name="collision" type="bool" value="true"/>
   </properties>
  </tile>
  <tile id="512">
   <properties>
    <property name="collision" type="bool" value="true"/>
   </properties>
  </tile>
  <tile id="513">
   <properties>
    <property name="collision" type="bool" value="true"/>
   </properties>
  </tile>
  <tile id="514">
   <properties>
    <property name="collision" type="bool" value="true"/>
   </properties>
  </tile>
  <tile id="515">
   <properties>
    <property name="collision" type="bool" value="true"/>
   </properties>
  </tile>
  <tile id="516">
   <properties>
    <property name="collision" type="bool" value="true"/>
   </properties>
  </tile>
  <tile id="517">
   <properties>
    <property name="collision" type="bool" value="true"/>
   </properties>
  </tile>
  <tile id="525">
   <properties>
    <property name="collision" type="bool" value="true"/>
   </properties>
  </tile>
  <tile id="526">
   <properties>
    <property name="collision" type="bool" value="true"/>
   </properties>
  </tile>
  <tile id="527">
   <properties>
    <property name="collision" type="bool" value="true"/>
   </properties>
  </tile>
  <tile id="528">
   <properties>
    <property name="collision" type="bool" value="true"/>
   </properties>
  </tile>
  <tile id="529">
   <properties>
    <property name="collision" type="bool" value="true"/>
   </properties>
  </tile>
  <tile id="530">
   <properties>
    <property name="collision" type="bool" value="true"/>
   </properties>
  </tile>
  <tile id="531">
   <properties>
    <property name="collision" type="bool" value="true"/>
   </properties>
  </tile>
  <tile id="532">
   <properties>
    <property name="collision" type="bool" value="true"/>
   </properties>
  </tile>
  <tile id="533">
   <properties>
    <property name="collision" type="bool" value="true"/>
   </properties>
  </tile>
  <tile id="534">
   <properties>
    <property name="collision" type="bool" value="true"/>
   </properties>
  </tile>
  <tile id="535">
   <properties>
    <property name="collision" type="bool" value="true"/>
   </properties>
  </tile>
  <tile id="536">
   <properties>
    <property name="collision" type="bool" value="true"/>
   </properties>
  </tile>
  <tile id="537">
   <properties>
    <property name="collision" type="bool" value="true"/>
   </properties>
  </tile>
  <tile id="538">
   <properties>
    <property name="collision" type="bool" value="true"/>
   </properties>
  </tile>
  <tile id="539">
   <properties>
    <property name="collision" type="bool" value="true"/>
   </properties>
  </tile>
  <tile id="540">
   <properties>
    <property name="collision" type="bool" value="true"/>
   </properties>
  </tile>
  <tile id="541">
   <properties>
    <property name="collision" type="bool" value="true"/>
   </properties>
  </tile>
  <tile id="542">
   <properties>
    <property name="collision" type="bool" value="true"/>
   </properties>
  </tile>
  <tile id="550">
   <properties>
    <property name="collision" type="bool" value="true"/>
   </properties>
  </tile>
  <tile id="551">
   <properties>
    <property name="collision" type="bool" value="true"/>
   </properties>
  </tile>
  <tile id="552">
   <properties>
    <property name="collision" type="bool" value="true"/>
   </properties>
  </tile>
  <tile id="553">
   <properties>
    <property name="collision" type="bool" value="true"/>
   </properties>
  </tile>
  <tile id="554">
   <properties>
    <property name="collision" type="bool" value="true"/>
   </properties>
  </tile>
  <tile id="555">
   <properties>
    <property name="collision" type="bool" value="true"/>
   </properties>
  </tile>
  <tile id="556">
   <properties>
    <property name="collision" type="bool" value="true"/>
   </properties>
  </tile>
  <tile id="557">
   <properties>
    <property name="collision" type="bool" value="true"/>
   </properties>
  </tile>
  <tile id="558">
   <properties>
    <property name="collision" type="bool" value="true"/>
   </properties>
  </tile>
  <tile id="559">
   <properties>
    <property name="collision" type="bool" value="true"/>
   </properties>
  </tile>
  <tile id="560">
   <properties>
    <property name="collision" type="bool" value="true"/>
   </properties>
  </tile>
  <tile id="561">
   <properties>
    <property name="collision" type="bool" value="true"/>
   </properties>
  </tile>
  <tile id="562">
   <properties>
    <property name="collision" type="bool" value="true"/>
   </properties>
  </tile>
  <tile id="563">
   <properties>
    <property name="collision" type="bool" value="true"/>
   </properties>
  </tile>
  <tile id="564">
   <properties>
    <property name="collision" type="bool" value="true"/>
   </properties>
  </tile>
  <tile id="565">
   <properties>
    <property name="collision" type="bool" value="true"/>
   </properties>
  </tile>
  <tile id="566">
   <properties>
    <property name="collision" type="bool" value="true"/>
   </properties>
  </tile>
  <tile id="567">
   <properties>
    <property name="collision" type="bool" value="true"/>
   </properties>
  </tile>
  <tile id="575">
   <properties>
    <property name="collision" type="bool" value="true"/>
   </properties>
  </tile>
  <tile id="576">
   <properties>
    <property name="collision" type="bool" value="true"/>
   </properties>
  </tile>
  <tile id="577">
   <properties>
    <property name="collision" type="bool" value="true"/>
   </properties>
  </tile>
  <tile id="578">
   <properties>
    <property name="collision" type="bool" value="true"/>
   </properties>
  </tile>
  <tile id="579">
   <properties>
    <property name="collision" type="bool" value="true"/>
   </properties>
  </tile>
  <tile id="580">
   <properties>
    <property name="collision" type="bool" value="true"/>
   </properties>
  </tile>
  <tile id="581">
   <properties>
    <property name="collision" type="bool" value="true"/>
   </properties>
  </tile>
  <tile id="582">
   <properties>
    <property name="collision" type="bool" value="true"/>
   </properties>
  </tile>
  <tile id="583">
   <properties>
    <property name="collision" type="bool" value="true"/>
   </properties>
  </tile>
  <tile id="584">
   <properties>
    <property name="collision" type="bool" value="true"/>
   </properties>
  </tile>
  <tile id="585">
   <properties>
    <property name="collision" type="bool" value="true"/>
   </properties>
  </tile>
  <tile id="586">
   <properties>
    <property name="collision" type="bool" value="true"/>
   </properties>
  </tile>
  <tile id="587">
   <properties>
    <property name="collision" type="bool" value="true"/>
   </properties>
  </tile>
  <tile id="588">
   <properties>
    <property name="collision" type="bool" value="true"/>
   </properties>
  </tile>
  <tile id="589">
   <properties>
    <property name="collision" type="bool" value="true"/>
   </properties>
  </tile>
  <tile id="590">
   <properties>
    <property name="collision" type="bool" value="true"/>
   </properties>
  </tile>
  <tile id="591">
   <properties>
    <property name="collision" type="bool" value="true"/>
   </properties>
  </tile>
  <tile id="592">
   <properties>
    <property name="collision" type="bool" value="true"/>
   </properties>
  </tile>
  <tile id="600">
   <properties>
    <property name="collision" type="bool" value="false"/>
   </properties>
  </tile>
  <tile id="601">
   <properties>
    <property name="collision" type="bool" value="true"/>
   </properties>
  </tile>
  <tile id="602">
   <properties>
    <property name="collision" type="bool" value="true"/>
   </properties>
  </tile>
  <tile id="603">
   <properties>
    <property name="collision" type="bool" value="true"/>
   </properties>
  </tile>
  <tile id="604">
   <properties>
    <property name="collision" type="bool" value="true"/>
   </properties>
  </tile>
  <tile id="605">
   <properties>
    <property name="collision" type="bool" value="false"/>
   </properties>
  </tile>
  <tile id="606">
   <properties>
    <property name="collision" type="bool" value="false"/>
   </properties>
  </tile>
  <tile id="607">
   <properties>
    <property name="collision" type="bool" value="true"/>
   </properties>
  </tile>
  <tile id="608">
   <properties>
    <property name="collision" type="bool" value="true"/>
   </properties>
  </tile>
  <tile id="609">
   <properties>
    <property name="collision" type="bool" value="true"/>
   </properties>
  </tile>
  <tile id="610">
   <properties>
    <property name="collision" type="bool" value="true"/>
   </properties>
  </tile>
  <tile id="611">
   <properties>
    <property name="collision" type="bool" value="false"/>
   </properties>
  </tile>
  <tile id="612">
   <properties>
    <property name="collision" type="bool" value="false"/>
   </properties>
  </tile>
  <tile id="613">
   <properties>
    <property name="collision" type="bool" value="true"/>
   </properties>
  </tile>
  <tile id="614">
   <properties>
    <property name="collision" type="bool" value="true"/>
   </properties>
  </tile>
  <tile id="615">
   <properties>
    <property name="collision" type="bool" value="true"/>
   </properties>
  </tile>
  <tile id="616">
   <properties>
    <property name="collision" type="bool" value="true"/>
   </properties>
  </tile>
  <tile id="617">
   <properties>
    <property name="collision" type="bool" value="false"/>
   </properties>
  </tile>
 </tileset>
 <tileset firstgid="1276" name="Trees_02_03" tilewidth="48" tileheight="80" tilecount="6" columns="3">
  <image source="../resources/Pixel Crawler - Free Pack/Environment/Props/Static/Trees/Model_02/Size_03.png" width="144" height="160"/>
  <tile id="0">
   <properties>
    <property name="collider" type="object" value="0"/>
   </properties>
  </tile>
  <tile id="1">
   <properties>
    <property name="collider" type="object" value="0"/>
   </properties>
  </tile>
  <tile id="2">
   <properties>
    <property name="collider" type="object" value="0"/>
   </properties>
  </tile>
  <tile id="3">
   <properties>
    <property name="collider" type="object" value="0"/>
   </properties>
  </tile>
  <tile id="4">
   <properties>
    <property name="collider" type="object" value="0"/>
   </properties>
  </tile>
  <tile id="5">
   <properties>
    <property name="collider" type="object" value="0"/>
   </properties>
  </tile>
 </tileset>
 <tileset firstgid="1282" name="Trees_02_05" tilewidth="96" tileheight="160" tilecount="6" columns="3">
  <image source="../resources/Pixel Crawler - Free Pack/Environment/Props/Static/Trees/Model_02/Size_05.png" width="288" height="320"/>
  <tile id="0">
   <properties>
    <property name="collider" type="object" value="0"/>
   </properties>
  </tile>
  <tile id="1">
   <properties>
    <property name="collider" type="object" value="0"/>
   </properties>
  </tile>
  <tile id="2">
   <properties>
    <property name="collider" type="object" value="0"/>
   </properties>
  </tile>
  <tile id="3">
   <properties>
    <property name="collider" type="object" value="0"/>
   </properties>
  </tile>
  <tile id="4">
   <properties>
    <property name="collider" type="object" value="0"/>
   </properties>
  </tile>
  <tile id="5">
   <properties>
    <property name="collider" type="object" value="0"/>
   </properties>
  </tile>
 </tileset>
 <tileset firstgid="1288" name="WaterTileset" tilewidth="16" tileheight="16" tilecount="625" columns="25">
  <image source="../resources/Pixel Crawler - Free Pack/Environment/Tilesets/Water_tiles.png" width="400" height="400"/>
 </tileset>
 <layer id="1" name="Floor" width="200" height="100">
  <data encoding="csv">
253,253,253,253,253,253,253,253,253,253,253,253,253,253,253,253,253,253,253,253,253,253,253,253,253,253,253,253,253,253,253,253,253,253,253,253,253,253,253,253,253,253,253,253,253,253,253,253,253,253,253,253,253,253,253,253,253,253,253,253,253,253,253,253,253,253,253,253,253,253,253,253,253,253,253,253,253,253,253,253,253,253,253,253,253,253,253,253,253,253,253,253,253,253,253,253,253,253,253,253,253,253,253,253,253,253,253,253,253,253,253,253,253,253,253,253,253,253,253,253,253,253,253,253,253,253,253,253,253,253,253,253,253,253,253,253,253,253,253,253,253,253,253,253,253,253,253,253,253,253,253,253,253,253,253,253,253,253,253,253,253,253,253,253,253,253,253,253,253,253,253,253,253,253,253,253,253,253,253,253,253,253,253,253,253,253,253,253,253,253,253,253,253,253,253,253,253,253,253,253,
253,253,253,253,253,253,253,253,253,253,253,253,253,253,253,253,253,253,253,253,253,253,253,253,253,253,253,253,253,253,253,253,253,253,253,253,253,253,253,253,253,253,253,253,253,253,253,253,253,253,253,253,253,253,253,253,253,253,253,253,253,253,253,253,253,253,253,253,253,253,253,253,253,253,253,253,253,253,253,253,253,253,253,253,253,253,253,253,253,253,253,253,253,253,253,253,253,253,253,253,253,253,253,253,253,253,253,253,253,253,253,253,253,253,253,253,253,253,253,253,253,253,253,253,253,253,253,253,253,253,253,253,253,253,253,253,253,253,253,253,253,253,253,253,253,253,253,253,253,253,253,253,253,253,253,253,253,253,253,253,253,253,253,253,253,253,253,253,253,253,253,253,253,253,253,253,253,253,253,253,253,253,253,253,253,253,253,253,253,253,253,253,253,253,253,253,253,253,253,253,
253,253,253,253,253,253,253,253,253,253,253,253,253,253,253,253,253,253,253,253,253,253,253,253,253,253,253,253,253,253,253,253,253,253,253,253,253,253,253,253,253,253,253,253,253,253,253,253,253,253,253,253,253,253,253,253,253,253,253,253,253,253,253,253,253,253,253,253,253,253,253,253,253,253,253,253,253,253,253,253,253,253,253,253,253,253,253,253,253,253,253,253,253,253,253,253,253,253,253,253,253,253,253,253,253,253,253,253,253,253,253,253,253,253,253,253,253,253,253,253,253,253,253,253,253,253,253,253,253,253,253,253,253,253,253,253,253,253,253,253,253,253,253,253,253,253,253,253,253,253,253,253,253,253,253,253,253,253,253,253,253,253,253,253,253,253,253,253,253,253,253,253,253,253,253,253,253,253,253,253,253,253,253,253,253,253,253,253,253,253,253,253,253,253,253,253,253,253,253,253,
253,253,253,253,253,253,253,253,253,253,253,253,253,253,253,253,253,253,253,253,253,253,253,253,253,253,253,253,253,253,253,253,253,253,253,253,253,253,253,253,253,253,253,253,253,253,253,253,253,253,253,253,253,253,253,253,253,253,253,253,253,253,253,253,253,253,253,253,253,253,253,253,253,253,253,253,253,253,253,253,253,253,253,253,253,253,253,253,253,253,253,253,253,253,253,253,253,253,253,253,253,253,253,253,253,253,253,253,253,253,253,253,253,253,253,253,253,253,253,253,253,253,253,253,253,253,253,253,253,253,253,253,253,253,253,253,253,253,253,253,253,253,253,253,253,253,253,253,253,253,253,253,253,253,253,253,253,253,253,253,253,253,253,253,253,253,253,253,253,253,253,253,253,253,253,253,253,253,253,253,253,253,253,253,253,253,253,253,253,253,253,253,253,253,253,253,253,253,253,253,
253,253,253,253,253,253,253,253,253,253,253,253,253,253,253,253,253,253,253,253,253,253,253,253,253,253,253,253,253,253,253,253,253,253,253,253,253,253,253,253,253,253,253,253,253,253,253,253,253,253,253,253,253,253,253,253,253,253,253,253,253,253,253,253,253,253,253,253,253,253,253,253,253,253,253,253,253,253,253,253,253,253,253,253,253,253,253,253,253,253,253,253,253,253,253,253,253,253,253,253,253,253,253,253,253,253,253,253,253,253,253,253,253,253,253,253,253,253,253,253,253,253,253,253,253,253,253,253,253,253,253,253,253,253,253,253,253,253,253,253,253,253,253,253,253,253,253,253,253,253,253,253,253,253,253,253,253,253,253,253,253,253,253,253,253,253,253,253,253,253,253,253,253,253,253,253,253,253,253,253,253,253,253,253,253,253,253,253,253,253,253,253,253,253,253,253,253,253,253,253,
253,253,253,253,253,253,253,253,253,253,253,253,253,253,253,253,253,253,253,253,253,253,253,253,253,253,253,253,253,253,253,253,253,253,253,253,253,253,253,253,253,253,253,253,253,253,253,253,253,253,253,253,253,253,253,253,253,253,253,253,253,253,253,253,253,253,253,253,253,253,253,253,253,253,253,253,253,253,253,253,253,253,253,253,253,253,253,253,253,253,253,253,253,253,253,253,253,253,253,253,253,253,253,253,253,253,253,253,253,253,253,253,253,253,253,253,253,253,253,253,253,253,253,253,253,253,253,253,253,253,253,253,253,253,253,253,253,253,253,253,253,253,253,253,253,253,253,253,253,253,253,253,253,253,253,253,253,253,253,253,253,253,253,253,253,253,253,253,253,253,253,253,253,253,253,253,253,253,253,253,253,253,253,253,253,253,253,253,253,253,253,253,253,253,253,253,253,253,253,253,
253,253,253,253,253,253,253,253,253,253,253,253,253,253,253,253,253,253,253,253,253,253,253,253,253,253,253,253,253,253,253,253,253,253,253,253,253,253,253,253,253,253,253,253,253,253,253,253,253,253,253,253,253,253,253,253,253,253,253,253,253,253,253,253,253,253,253,253,253,253,253,253,253,253,253,253,253,253,253,253,253,253,253,253,253,253,253,253,253,253,253,253,253,253,253,253,253,253,253,253,253,253,253,253,253,253,253,253,253,253,253,253,253,253,253,253,253,253,253,253,253,253,253,253,253,253,253,253,253,253,253,253,253,253,253,253,253,253,253,253,253,253,253,253,253,253,253,253,253,253,253,253,253,253,253,253,253,253,253,253,253,253,253,253,253,253,253,253,253,253,253,253,253,253,253,253,253,253,253,253,253,253,253,253,253,253,253,253,253,253,253,253,253,253,253,253,253,253,253,253,
253,253,253,253,253,253,253,253,253,253,253,253,253,253,253,253,253,253,253,253,253,253,253,253,253,253,253,253,253,253,253,253,253,253,253,253,253,253,253,253,253,253,253,253,253,253,253,253,253,253,253,253,253,253,253,253,253,253,253,253,253,253,253,253,253,253,253,253,253,253,253,253,253,253,253,253,253,253,253,253,253,253,253,253,253,253,253,253,253,253,253,253,253,253,253,253,253,253,253,253,253,253,253,253,253,253,253,253,253,253,253,253,253,253,253,253,253,253,253,253,253,253,253,253,253,253,253,253,253,253,253,253,253,253,253,253,253,253,253,253,253,253,253,253,253,253,253,253,253,253,253,253,253,253,253,253,253,253,253,253,253,253,253,253,253,253,253,253,253,253,253,253,253,253,253,253,253,253,253,253,253,253,253,253,253,253,253,253,253,253,253,253,253,253,253,253,253,253,253,253,
253,253,253,253,253,253,253,253,253,253,253,253,253,253,253,253,253,253,253,253,253,253,253,253,253,253,253,253,253,253,253,253,253,253,253,253,253,253,253,253,253,253,253,253,253,253,253,253,253,253,253,253,253,253,253,253,253,253,253,253,253,253,253,253,253,253,253,253,253,253,253,253,253,253,253,253,253,253,253,253,253,253,253,253,253,253,253,253,253,253,253,253,253,253,253,253,253,253,253,253,253,253,253,253,253,253,253,253,253,253,253,253,253,253,253,253,253,253,253,253,253,253,253,253,253,253,253,253,253,253,253,253,253,253,253,253,253,253,253,253,253,253,253,253,253,253,253,253,253,253,253,253,253,253,253,253,253,253,253,253,253,253,253,253,253,253,253,253,253,253,253,253,253,253,253,253,253,253,253,253,253,253,253,253,253,253,253,253,253,253,253,253,253,253,253,253,253,253,253,253,
253,253,253,253,253,253,253,253,253,253,253,253,253,253,253,253,253,253,253,253,253,253,253,253,253,253,253,253,253,253,253,253,253,253,253,253,253,253,253,253,253,253,253,253,253,253,253,253,253,253,253,253,253,253,253,253,253,253,253,253,253,253,253,253,253,253,253,253,253,253,253,253,253,253,253,253,253,253,253,253,253,253,253,253,253,253,253,253,253,253,253,253,253,253,253,253,253,253,253,253,253,253,253,253,253,253,253,253,253,253,253,253,253,253,253,253,253,253,253,253,253,253,253,253,253,253,253,253,253,253,253,253,253,253,253,253,253,253,253,253,253,253,253,253,253,253,253,253,253,253,253,253,253,253,253,253,253,253,253,253,253,253,253,253,253,253,253,253,253,253,253,253,253,253,253,253,253,253,253,253,253,253,253,253,253,253,253,253,253,253,253,253,253,253,253,253,253,253,253,253,
253,253,253,253,253,253,253,253,253,253,253,253,253,253,253,253,253,253,253,253,253,253,253,253,253,253,253,253,253,253,253,253,253,253,253,253,253,253,253,253,253,253,253,253,253,253,253,253,253,253,253,253,253,253,253,253,253,253,253,253,253,253,253,253,253,253,253,253,253,253,253,253,253,253,253,253,253,253,253,253,253,253,253,253,253,253,253,253,253,253,253,253,253,253,253,253,253,253,253,253,253,253,253,253,253,253,253,253,253,253,253,253,253,253,253,253,253,253,253,253,253,253,253,253,253,253,253,253,253,253,253,253,253,253,253,253,253,253,253,253,253,253,253,253,253,253,253,253,253,253,253,253,253,253,253,253,253,253,253,253,253,253,253,253,253,253,253,253,253,253,253,253,253,253,253,253,253,253,253,253,253,253,253,253,253,253,253,253,253,253,253,253,253,253,253,253,253,253,253,253,
253,253,253,253,253,253,253,253,253,253,253,253,253,253,253,253,253,253,253,253,253,253,253,253,253,253,253,253,253,253,253,253,253,253,253,253,253,253,253,253,253,253,253,253,253,253,253,253,253,253,253,253,253,253,253,253,253,253,253,253,253,253,253,253,253,253,253,253,253,253,253,253,253,253,253,253,253,253,253,253,253,253,253,253,253,253,253,253,253,253,253,253,253,253,253,253,253,253,253,253,253,253,253,253,253,253,253,253,253,253,253,253,253,253,253,253,253,253,253,253,253,253,253,253,253,253,253,253,253,253,253,253,253,253,253,253,253,253,253,253,253,253,253,253,253,253,253,253,253,253,253,253,253,253,253,253,253,253,253,253,253,253,253,253,253,253,253,253,253,253,253,253,253,253,253,253,253,253,253,253,253,253,253,253,253,253,253,253,253,253,253,253,253,253,253,253,253,253,253,253,
253,253,253,253,253,253,253,253,253,253,253,253,253,253,253,253,253,253,253,253,253,253,253,253,253,253,253,253,253,253,253,253,253,253,253,253,253,253,253,253,253,253,253,253,253,253,253,253,253,253,253,253,253,253,253,253,253,253,253,253,253,253,253,253,253,253,253,253,253,253,253,253,253,253,253,253,253,253,253,253,253,253,253,253,253,253,253,253,253,253,253,253,253,253,253,253,253,253,253,253,253,253,253,253,253,253,253,253,253,253,253,253,253,253,253,253,253,253,253,253,253,253,253,253,253,253,253,253,253,253,253,253,253,253,253,253,253,253,253,253,253,253,253,253,253,253,253,253,253,253,253,253,253,253,253,253,253,253,253,253,253,253,253,253,253,253,253,253,253,253,253,253,253,253,253,253,253,253,253,253,253,253,253,253,253,253,253,253,253,253,253,253,253,253,253,253,253,253,253,253,
253,253,253,253,253,253,253,253,253,253,253,253,253,253,253,253,253,253,253,253,253,253,253,253,253,253,253,253,253,253,253,253,253,253,253,253,253,253,253,253,253,253,253,253,253,253,253,253,253,253,253,253,253,253,253,253,253,253,253,253,253,253,253,253,253,253,253,253,253,253,253,253,253,253,253,253,253,253,253,253,253,253,253,253,253,253,253,253,253,253,253,253,253,253,253,253,253,253,253,253,253,253,253,253,253,253,253,253,253,253,253,253,253,253,253,253,253,253,253,253,253,253,253,253,253,253,253,253,253,253,253,253,253,253,253,253,253,253,253,253,253,253,253,253,253,253,253,253,253,253,253,253,253,253,253,253,253,253,253,253,253,253,253,253,253,253,253,253,253,253,253,253,253,253,253,253,253,253,253,253,253,253,253,253,253,253,253,253,253,253,253,253,253,253,253,253,253,253,253,253,
253,253,253,253,253,253,253,253,253,253,253,253,253,253,253,253,253,253,253,253,253,253,253,253,253,253,253,253,253,253,253,253,253,253,253,253,253,253,253,253,253,253,253,253,253,253,253,253,253,253,253,253,253,253,253,253,253,253,253,253,253,253,253,253,253,253,253,253,253,253,253,253,253,253,253,253,253,253,253,253,253,253,253,253,253,253,253,253,253,253,253,253,253,253,253,253,253,253,253,253,253,253,253,253,253,253,253,253,253,253,253,253,253,253,253,253,253,253,253,253,253,253,253,253,253,253,253,253,253,253,253,253,253,253,253,253,253,253,253,253,253,253,253,253,253,253,253,253,253,253,253,253,253,253,253,253,253,253,253,253,253,253,253,253,253,253,253,253,253,253,253,253,253,253,253,253,253,253,253,253,253,253,253,253,253,253,253,253,253,253,253,253,253,253,253,253,253,253,253,253,
253,253,253,253,253,253,253,253,253,253,253,253,253,253,253,253,253,253,253,253,253,253,253,253,253,253,253,253,253,253,253,253,253,253,253,253,253,253,253,253,253,253,253,253,253,253,253,253,253,253,253,253,253,253,253,253,253,253,253,253,253,253,253,253,253,253,253,253,253,253,253,253,253,253,253,253,253,253,253,253,253,253,253,253,253,253,253,253,253,253,253,253,253,253,253,253,253,253,253,253,253,253,253,253,253,253,253,253,253,253,253,253,253,253,253,253,253,253,253,253,253,253,253,253,253,253,253,253,253,253,253,253,253,253,253,253,253,253,253,253,253,253,253,253,253,253,253,253,253,253,253,253,253,253,253,253,253,253,253,253,253,253,253,253,253,253,253,253,253,253,253,253,253,253,253,253,253,253,253,253,253,253,253,253,253,253,253,253,253,253,253,253,253,253,253,253,253,253,253,253,
253,253,253,253,253,253,253,253,253,253,253,253,253,253,253,253,253,253,253,253,253,253,253,253,253,253,253,253,253,253,253,253,253,253,253,253,253,253,253,253,253,253,253,253,253,253,253,253,253,253,253,253,253,253,253,253,253,253,253,253,253,253,253,253,253,253,253,253,253,253,253,253,253,253,253,253,253,253,253,253,253,253,253,253,253,253,253,253,253,253,253,253,253,253,253,253,253,253,253,253,253,253,253,253,253,253,253,253,253,253,253,253,253,253,253,253,253,253,253,253,253,253,253,253,253,253,253,253,253,253,253,253,253,253,253,253,253,253,253,253,253,253,253,253,253,253,253,253,253,253,253,253,253,253,253,253,253,253,253,253,253,253,253,253,253,253,253,253,253,253,253,253,253,253,253,253,253,253,253,253,253,253,253,253,253,253,253,253,253,253,253,253,253,253,253,253,253,253,253,253,
253,253,253,253,253,253,253,253,253,253,253,253,253,253,253,253,253,253,253,253,253,253,253,253,253,253,253,253,253,253,253,253,253,253,253,253,253,253,253,253,253,253,253,253,253,253,253,253,253,253,253,253,253,253,253,253,253,253,253,253,253,253,253,253,253,253,253,253,253,253,253,253,253,253,253,253,253,253,253,253,253,253,253,253,253,253,253,253,253,253,253,253,253,253,253,253,253,253,253,253,253,253,253,253,253,253,253,253,253,253,253,253,253,253,253,253,253,253,253,253,253,253,253,253,253,253,253,253,253,253,253,253,253,253,253,253,253,253,253,253,253,253,253,253,253,253,253,253,253,253,253,253,253,253,253,253,253,253,253,253,253,253,253,253,253,253,253,253,253,253,253,253,253,253,253,253,253,253,253,253,253,253,253,253,253,253,253,253,253,253,253,253,253,253,253,253,253,253,253,253,
253,253,253,253,253,253,253,253,253,253,253,253,253,253,253,253,253,253,253,253,253,253,253,253,253,253,253,253,253,253,253,253,253,253,253,253,253,253,253,253,253,253,253,253,253,253,253,253,253,253,253,253,253,253,253,253,253,253,253,253,253,253,253,253,253,253,253,253,253,253,253,253,253,253,253,253,253,253,253,253,253,253,253,253,253,253,253,253,253,253,253,253,253,253,253,253,253,253,253,253,253,253,253,253,253,253,253,253,253,253,253,253,253,253,253,253,253,253,253,253,253,253,253,253,253,253,253,253,253,253,253,253,253,253,253,253,253,253,253,253,253,253,253,253,253,253,253,253,253,253,253,253,253,253,253,253,253,253,253,253,253,253,253,253,253,253,253,253,253,253,253,253,253,253,253,253,253,253,253,253,253,253,253,253,253,253,253,253,253,253,253,253,253,253,253,253,253,253,253,253,
253,253,253,253,253,253,253,253,253,253,253,253,253,253,253,253,253,253,253,253,253,253,253,253,253,253,253,253,253,253,253,253,253,253,253,253,253,253,253,253,253,253,253,253,253,253,253,253,253,253,253,253,253,253,253,253,253,253,253,253,253,253,253,253,253,253,253,253,253,253,253,253,253,253,253,253,253,253,253,253,253,253,253,253,253,253,253,253,253,253,253,253,253,253,253,253,253,253,253,253,253,253,253,253,253,253,253,253,253,253,253,253,253,253,253,253,253,253,253,253,253,253,253,253,253,253,253,253,253,253,253,253,253,253,253,253,253,253,253,253,253,253,253,253,253,253,253,253,253,253,253,253,253,253,253,253,253,253,253,253,253,253,253,253,253,253,253,253,253,253,253,253,253,253,253,253,253,253,253,253,253,253,253,253,253,253,253,253,253,253,253,253,253,253,253,253,253,253,253,253,
253,253,253,253,253,253,253,253,253,253,253,253,253,253,253,253,253,253,253,253,253,253,253,253,253,253,253,253,253,253,253,253,253,253,253,253,253,253,253,253,253,253,253,253,253,253,253,253,253,253,253,253,253,253,253,253,253,253,253,253,253,253,253,253,253,253,253,253,253,253,253,253,253,253,253,253,253,253,253,253,253,253,253,253,253,253,253,253,253,253,253,253,253,253,253,253,253,253,253,253,253,253,253,253,253,253,253,253,253,253,253,253,253,253,253,253,253,253,253,253,253,253,253,253,253,253,253,253,253,253,253,253,253,253,253,253,253,253,253,253,253,253,253,253,253,253,253,253,253,253,253,253,253,253,253,253,253,253,253,253,253,253,253,253,253,253,253,253,253,253,253,253,253,253,253,253,253,253,253,253,253,253,253,253,253,253,253,253,253,253,253,253,253,253,253,253,253,253,253,253,
253,253,253,253,253,253,253,253,253,253,253,253,253,253,253,253,253,253,253,253,253,253,253,253,253,253,253,253,253,253,253,253,253,253,253,253,253,253,253,253,253,253,253,253,253,253,253,253,253,253,253,253,253,253,253,253,253,253,253,253,253,253,253,253,253,253,253,253,253,253,253,253,253,253,253,253,253,253,253,253,253,253,253,253,253,253,253,253,253,253,253,253,253,253,253,253,253,253,253,253,253,253,253,253,253,253,253,253,253,253,253,253,253,253,253,253,253,253,253,253,253,253,253,253,253,253,253,253,253,253,253,253,253,253,253,253,253,253,253,253,253,253,253,253,253,253,253,253,253,253,253,253,253,253,253,253,253,253,253,253,253,253,253,253,253,253,253,253,253,253,253,253,253,253,253,253,253,253,253,253,253,253,253,253,253,253,253,253,253,253,253,253,253,253,253,253,253,253,253,253,
253,253,253,253,253,253,253,253,253,253,253,253,253,253,253,253,253,253,253,253,253,253,253,253,253,253,253,253,253,253,253,253,253,253,253,253,253,253,253,253,253,253,253,253,253,253,253,253,253,253,253,253,253,253,253,253,253,253,253,253,253,253,253,253,253,253,253,253,253,253,253,253,253,253,253,253,253,253,253,253,253,253,253,253,253,253,253,253,253,253,253,253,253,253,253,253,253,253,253,253,253,253,253,253,253,253,253,253,253,253,253,253,253,253,253,253,253,253,253,253,253,253,253,253,253,253,253,253,253,253,253,253,253,253,253,253,253,253,253,253,253,253,253,253,253,253,253,253,253,253,253,253,253,253,253,253,253,253,253,253,253,253,253,253,253,253,253,253,253,253,253,253,253,253,253,253,253,253,253,253,253,253,253,253,253,253,253,253,253,253,253,253,253,253,253,253,253,253,253,253,
253,253,253,253,253,253,253,253,253,253,253,253,253,253,253,253,253,253,253,253,253,253,253,253,253,253,253,253,253,253,253,253,253,253,253,253,253,253,253,253,253,253,253,253,253,253,253,253,253,253,253,253,253,253,253,253,253,253,253,253,253,253,253,253,253,253,253,253,253,253,253,253,253,253,253,253,253,253,253,253,253,253,253,253,253,253,253,253,253,253,253,253,253,253,253,253,253,253,253,253,253,253,253,253,253,253,253,253,253,253,253,253,253,253,253,253,253,253,253,253,253,253,253,253,253,253,253,253,253,253,253,253,253,253,253,253,253,253,253,253,253,253,253,253,253,253,253,253,253,253,253,253,253,253,253,253,253,253,253,253,253,253,253,253,253,253,253,253,253,253,253,253,253,253,253,253,253,253,253,253,253,253,253,253,253,253,253,253,253,253,253,253,253,253,253,253,253,253,253,253,
253,253,253,253,253,253,253,253,253,253,253,253,253,253,253,253,253,253,253,253,253,253,253,253,253,253,253,253,253,253,253,253,253,253,253,253,253,253,253,253,253,253,253,253,253,253,253,253,253,253,253,253,253,253,253,253,253,253,253,253,253,253,253,253,253,253,253,253,253,253,253,253,253,253,253,253,253,253,253,253,253,253,253,253,253,253,253,253,253,253,253,253,253,253,253,253,253,253,253,253,253,253,253,253,253,253,253,253,253,253,253,253,253,253,253,253,253,253,253,253,253,253,253,253,253,253,253,253,253,253,253,253,253,253,253,253,253,253,253,253,253,253,253,253,253,253,253,253,253,253,253,253,253,253,253,253,253,253,253,253,253,253,253,253,253,253,253,253,253,253,253,253,253,253,253,253,253,253,253,253,253,253,253,253,253,253,253,253,253,253,253,253,253,253,253,253,253,253,253,253,
253,253,253,253,253,253,253,253,253,253,253,253,253,253,253,253,253,253,253,253,253,253,253,253,253,253,253,253,253,253,253,253,253,253,253,253,253,253,253,253,253,253,253,253,253,253,253,253,253,253,253,253,253,253,253,253,253,253,253,253,253,253,253,253,253,253,253,253,253,253,253,253,253,253,253,253,253,253,253,253,253,253,253,253,253,253,253,253,253,253,253,253,253,253,253,253,253,253,253,253,253,253,253,253,253,253,253,253,253,253,253,253,253,253,253,253,253,253,253,253,253,253,253,253,253,253,253,253,253,253,253,253,253,253,253,253,253,253,253,253,253,253,253,253,253,253,253,253,253,253,253,253,253,253,253,253,253,253,253,253,253,253,253,253,253,253,253,253,253,253,253,253,253,253,253,253,253,253,253,253,253,253,253,253,253,253,253,253,253,253,253,253,253,253,253,253,253,253,253,253,
253,253,253,253,253,253,253,253,253,253,253,253,253,253,253,253,253,253,253,253,253,253,253,253,253,253,253,253,253,253,253,253,253,253,253,253,253,253,253,253,253,253,253,253,253,253,253,253,253,253,253,253,253,253,253,253,253,253,253,253,253,253,253,253,253,253,253,253,253,253,253,253,253,253,253,253,253,253,253,253,253,253,253,253,253,253,253,253,253,253,253,253,253,253,253,253,253,253,253,253,253,253,253,253,253,253,253,253,253,253,253,253,253,253,253,253,253,253,253,253,253,253,253,253,253,253,253,253,253,253,253,253,253,253,253,253,253,253,253,253,253,253,253,253,253,253,253,253,253,253,253,253,253,253,253,253,253,253,253,253,253,253,253,253,253,253,253,253,253,253,253,253,253,253,253,253,253,253,253,253,253,253,253,253,253,253,253,253,253,253,253,253,253,253,253,253,253,253,253,253,
253,253,253,253,253,253,253,253,253,253,253,253,253,253,253,253,253,253,253,253,253,253,253,253,253,253,253,253,253,253,253,253,253,253,253,253,253,253,253,253,253,253,253,253,253,253,253,253,253,253,253,253,253,253,253,253,253,253,253,253,253,253,253,253,253,253,253,253,253,253,253,253,253,253,253,253,253,253,253,253,253,253,253,253,253,253,253,253,253,253,253,253,253,253,253,253,253,253,253,253,253,253,253,253,253,253,253,253,253,253,253,253,253,253,253,253,253,253,253,253,253,253,253,253,253,253,253,253,253,253,253,253,253,253,253,253,253,253,253,253,253,253,253,253,253,253,253,253,253,253,253,253,253,253,253,253,253,253,253,253,253,253,253,253,253,253,253,253,253,253,253,253,253,253,253,253,253,253,253,253,253,253,253,253,253,253,253,253,253,253,253,253,253,253,253,253,253,253,253,253,
253,253,253,253,253,253,253,253,253,253,253,253,253,253,253,253,253,253,253,253,253,253,253,253,253,253,253,253,253,253,253,253,253,253,253,253,253,253,253,253,253,253,253,253,253,253,253,253,253,253,253,253,253,253,253,253,253,253,253,253,253,253,253,253,253,253,253,253,253,253,253,253,253,253,253,253,253,253,253,253,253,253,253,253,253,253,253,253,253,253,253,253,253,253,253,253,253,253,253,253,253,253,253,253,253,253,253,253,253,253,253,253,253,253,253,253,253,253,253,253,253,253,253,253,253,253,253,253,253,253,253,253,253,253,253,253,253,253,253,253,253,253,253,253,253,253,253,253,253,253,253,253,253,253,253,253,253,253,253,253,253,253,253,253,253,253,253,253,253,253,253,253,253,253,253,253,253,253,253,253,253,253,253,253,253,253,253,253,253,253,253,253,253,253,253,253,253,253,253,253,
253,253,253,253,253,253,253,253,253,253,253,253,253,253,253,253,253,253,253,253,253,253,253,253,253,253,253,253,253,253,253,253,253,253,253,253,253,253,253,253,253,253,253,253,253,253,253,253,253,253,253,253,253,253,253,253,253,253,253,253,253,253,253,253,253,253,253,253,253,253,253,253,253,253,253,253,253,253,253,253,253,253,253,253,253,253,253,253,253,253,253,253,253,253,253,253,253,253,253,253,253,253,253,253,253,253,253,253,253,253,253,253,253,253,253,253,253,253,253,253,253,253,253,253,253,253,253,253,253,253,253,253,253,253,253,253,253,253,253,253,253,253,253,253,253,253,253,253,253,253,253,253,253,253,253,253,253,253,253,253,253,253,253,253,253,253,253,253,253,253,253,253,253,253,253,253,253,253,253,253,253,253,253,253,253,253,253,253,253,253,253,253,253,253,253,253,253,253,253,253,
253,253,253,253,253,253,253,253,253,253,253,253,253,253,253,253,253,253,253,253,253,253,253,253,253,253,253,253,253,253,253,253,253,253,253,253,253,253,253,253,253,253,253,253,253,253,253,253,253,253,253,253,253,253,253,253,253,253,253,253,253,253,253,253,253,253,253,253,253,253,253,253,253,253,253,253,253,253,253,253,253,253,253,253,253,253,253,253,253,253,253,253,253,253,253,253,253,253,253,253,253,253,253,253,253,253,253,253,253,253,253,253,253,253,253,253,253,253,253,253,253,253,253,253,253,253,253,253,253,253,253,253,253,253,253,253,253,253,253,253,253,253,253,253,253,253,253,253,253,253,253,253,253,253,253,253,253,253,253,253,253,253,253,253,253,253,253,253,253,253,253,253,253,253,253,253,253,253,253,253,253,253,253,253,253,253,253,253,253,253,253,253,253,253,253,253,253,253,253,253,
253,253,253,253,253,253,253,253,253,253,253,253,253,253,253,253,253,253,253,253,253,253,253,253,253,253,253,253,253,253,253,253,253,253,253,253,253,253,253,253,253,253,253,253,253,253,253,253,253,253,253,253,253,253,253,253,253,253,253,253,253,253,253,253,253,253,253,253,253,253,253,253,253,253,253,253,253,253,253,253,253,253,253,253,253,253,253,253,253,253,253,253,253,253,253,253,253,253,253,253,253,253,253,253,253,253,253,253,253,253,253,253,253,253,253,253,253,253,253,253,253,253,253,253,253,253,253,253,253,253,253,253,253,253,253,253,253,253,253,253,253,253,253,253,253,253,253,253,253,253,253,253,253,253,253,253,253,253,253,253,253,253,253,253,253,253,253,253,253,253,253,253,253,253,253,253,253,253,253,253,253,253,253,253,253,253,253,253,253,253,253,253,253,253,253,253,253,253,253,253,
253,253,253,253,253,253,253,253,253,253,253,253,253,253,253,253,253,253,253,253,253,253,253,253,253,253,253,253,253,253,253,253,253,253,253,253,253,253,253,253,253,253,253,253,253,253,253,253,253,253,253,253,253,253,253,253,253,253,253,253,253,253,253,253,253,253,253,253,253,253,253,253,253,253,253,253,253,253,253,253,253,253,253,253,253,253,253,253,253,253,253,253,253,253,253,253,253,253,253,253,253,253,253,253,253,253,253,253,253,253,253,253,253,253,253,253,253,253,253,253,253,253,253,253,253,253,253,253,253,253,253,253,253,253,253,253,253,253,253,253,253,253,253,253,253,253,253,253,253,253,253,253,253,253,253,253,253,253,253,253,253,253,253,253,253,253,253,253,253,253,253,253,253,253,253,253,253,253,253,253,253,253,253,253,253,253,253,253,253,253,253,253,253,253,253,253,253,253,253,253,
253,253,253,253,253,253,253,253,253,253,253,253,253,253,253,253,253,253,253,253,253,253,253,253,253,253,253,253,253,253,253,253,253,253,253,253,253,253,253,253,253,253,253,253,253,253,253,253,253,253,253,253,253,253,253,253,253,253,253,253,253,253,253,253,253,253,253,253,253,253,253,253,253,253,253,253,253,253,253,253,253,253,253,253,253,253,253,253,253,253,253,253,253,253,253,253,253,253,253,253,253,253,253,253,253,253,253,253,253,253,253,253,253,253,253,253,253,253,253,253,253,253,253,253,253,253,253,253,253,253,253,253,253,253,253,253,253,253,253,253,253,253,253,253,253,253,253,253,253,253,253,253,253,253,253,253,253,253,253,253,253,253,253,253,253,253,253,253,253,253,253,253,253,253,253,253,253,253,253,253,253,253,253,253,253,253,253,253,253,253,253,253,253,253,253,253,253,253,253,253,
253,253,253,253,253,253,253,253,253,253,253,253,253,253,253,253,253,253,253,253,253,253,253,253,253,253,253,253,253,253,253,253,253,253,253,253,253,253,253,253,253,253,253,253,253,253,253,253,253,253,253,253,253,253,253,253,253,253,253,253,253,253,253,253,253,253,253,253,253,253,253,253,253,253,253,253,253,253,253,253,253,253,253,253,253,253,253,253,253,253,253,253,253,253,253,253,253,253,253,253,253,253,253,253,253,253,253,253,253,253,253,253,253,253,253,253,253,253,253,253,253,253,253,253,253,253,253,253,253,253,253,253,253,253,253,253,253,253,253,253,253,253,253,253,253,253,253,253,253,253,253,253,253,253,253,253,253,253,253,253,253,253,253,253,253,253,253,253,253,253,253,253,253,253,253,253,253,253,253,253,253,253,253,253,253,253,253,253,253,253,253,253,253,253,253,253,253,253,253,253,
253,253,253,253,253,253,253,253,253,253,253,253,253,253,253,253,253,253,253,253,253,253,253,253,253,253,253,253,253,253,253,253,253,253,253,253,253,253,253,253,253,253,253,253,253,253,253,253,253,253,253,253,253,253,253,253,253,253,253,253,253,253,253,253,253,253,253,253,253,253,253,253,253,253,253,253,253,253,253,253,253,253,253,253,253,253,253,253,253,253,253,253,253,253,253,253,253,253,253,253,253,253,253,253,253,253,253,253,253,253,253,253,253,253,253,253,253,253,253,253,253,253,253,253,253,253,253,253,253,253,253,253,253,253,253,253,253,253,253,253,253,253,253,253,253,253,253,253,253,253,253,253,253,253,253,253,253,253,253,253,253,253,253,253,253,253,253,253,253,253,253,253,253,253,253,253,253,253,253,253,253,253,253,253,253,253,253,253,253,253,253,253,253,253,253,253,253,253,253,253,
253,253,253,253,253,253,253,253,253,253,253,253,253,253,253,253,253,253,253,253,253,253,253,253,253,253,253,253,253,253,253,253,253,253,253,253,253,253,253,253,253,253,253,253,253,253,253,253,253,253,253,253,253,253,253,253,253,253,253,253,253,253,253,253,253,253,253,253,253,253,253,253,253,253,253,253,253,253,253,253,253,253,253,253,253,253,253,253,253,253,253,253,253,253,253,253,253,253,253,253,253,253,253,253,253,253,253,253,253,253,253,253,253,253,253,253,253,253,253,253,253,253,253,253,253,253,253,253,253,253,253,253,253,253,253,253,253,253,253,253,253,253,253,253,253,253,253,253,253,253,253,253,253,253,253,253,253,253,253,253,253,253,253,253,253,253,253,253,253,253,253,253,253,253,253,253,253,253,253,253,253,253,253,253,253,253,253,253,253,253,253,253,253,253,253,253,253,253,253,253,
253,253,253,253,253,253,253,253,253,253,253,253,253,253,253,253,253,253,253,253,253,253,253,253,253,253,253,253,253,253,253,253,253,253,253,253,253,253,253,253,253,253,253,253,253,253,253,253,253,253,253,253,253,253,253,253,253,253,253,253,253,253,253,253,253,253,253,253,253,253,253,253,253,253,253,253,253,253,253,253,253,253,253,253,253,253,253,253,253,253,253,253,253,253,253,253,253,253,253,253,253,253,253,253,253,253,253,253,253,253,253,253,253,253,253,253,253,253,253,253,253,253,253,253,253,253,253,253,253,253,253,253,253,253,253,253,253,253,253,253,253,253,253,253,253,253,253,253,253,253,253,253,253,253,253,253,253,253,253,253,253,253,253,253,253,253,253,253,253,253,253,253,253,253,253,253,253,253,253,253,253,253,253,253,253,253,253,253,253,253,253,253,253,253,253,253,253,253,253,253,
253,253,253,253,253,253,253,253,253,253,253,253,253,253,253,253,253,253,253,253,253,253,253,253,253,253,253,253,253,253,253,253,253,253,253,253,253,253,253,253,253,253,253,253,253,253,253,253,253,253,253,253,253,253,253,253,253,253,253,253,253,253,253,253,253,253,253,253,253,253,253,253,253,253,253,253,253,253,253,253,253,253,253,253,253,253,253,253,253,253,253,253,253,253,253,253,253,253,253,253,253,253,253,253,253,253,253,253,253,253,253,253,253,253,253,253,253,253,253,253,253,253,253,253,253,253,253,253,253,253,253,253,253,253,253,253,253,253,253,253,253,253,253,253,253,253,253,253,253,253,253,253,253,253,253,253,253,253,253,253,253,253,253,253,253,253,253,253,253,253,253,253,253,253,253,253,253,253,253,253,253,253,253,253,253,253,253,253,253,253,253,253,253,253,253,253,253,253,253,253,
253,253,253,253,253,253,253,253,253,253,253,253,253,253,253,253,253,253,253,253,253,253,253,253,253,253,253,253,253,253,253,253,253,253,253,253,253,253,253,253,253,253,253,253,253,253,253,253,253,253,253,253,253,253,253,253,253,253,253,253,253,253,253,253,253,253,253,253,253,253,253,253,253,253,253,253,253,253,253,253,253,253,253,253,253,253,253,253,253,253,253,253,253,253,253,253,253,253,253,253,253,253,253,253,253,253,253,253,253,253,253,253,253,253,253,253,253,253,253,253,253,253,253,253,253,253,253,253,253,253,253,253,253,253,253,253,253,253,253,253,253,253,253,253,253,253,253,253,253,253,253,253,253,253,253,253,253,253,253,253,253,253,253,253,253,253,253,253,253,253,253,253,253,253,253,253,253,253,253,253,253,253,253,253,253,253,253,253,253,253,253,253,253,253,253,253,253,253,253,253,
253,253,253,253,253,253,253,253,253,253,253,253,253,253,253,253,253,253,253,253,253,253,253,253,253,253,253,253,253,253,253,253,253,253,253,253,253,253,253,253,253,253,253,253,253,253,253,253,253,253,253,253,253,253,253,253,253,253,253,253,253,253,253,253,253,253,253,253,253,253,253,253,253,253,253,253,253,253,253,253,253,253,253,253,253,253,253,253,253,253,253,253,253,253,253,253,253,253,253,253,253,253,253,253,253,253,253,253,253,253,253,253,253,253,253,253,253,253,253,253,253,253,253,253,253,253,253,253,253,253,253,253,253,253,253,253,253,253,253,253,253,253,253,253,253,253,253,253,253,253,253,253,253,253,253,253,253,253,253,253,253,253,253,253,253,253,253,253,253,253,253,253,253,253,253,253,253,253,253,253,253,253,253,253,253,253,253,253,253,253,253,253,253,253,253,253,253,253,253,253,
253,253,253,253,253,253,253,253,253,253,253,253,253,253,253,253,253,253,253,253,253,253,253,253,253,253,253,253,253,253,253,253,253,253,253,253,253,253,253,253,253,253,253,253,253,253,253,253,253,253,253,253,253,253,253,253,253,253,253,253,253,253,253,253,253,253,253,253,253,253,253,253,253,253,253,253,253,253,253,253,253,253,253,253,253,253,253,253,253,253,253,253,253,253,253,253,253,253,253,253,253,253,253,253,253,253,253,253,253,253,253,253,253,253,253,253,253,253,253,253,253,253,253,253,253,253,253,253,253,253,253,253,253,253,253,253,253,253,253,253,253,253,253,253,253,253,253,253,253,253,253,253,253,253,253,253,253,253,253,253,253,253,253,253,253,253,253,253,253,253,253,253,253,253,253,253,253,253,253,253,253,253,253,253,253,253,253,253,253,253,253,253,253,253,253,253,253,253,253,253,
253,253,253,253,253,253,253,253,253,253,253,253,253,253,253,253,253,253,253,253,253,253,253,253,253,253,253,253,253,253,253,253,253,253,253,253,253,253,253,253,253,253,253,253,253,253,253,253,253,253,253,253,253,253,253,253,253,253,253,253,253,253,253,253,253,253,253,253,253,253,253,253,253,253,253,253,253,253,253,253,253,253,253,253,253,253,253,253,253,253,253,253,253,253,253,253,253,253,253,253,253,253,253,253,253,253,253,253,253,253,253,253,253,253,253,253,253,253,253,253,253,253,253,253,253,253,253,253,253,253,253,253,253,253,253,253,253,253,253,253,253,253,253,253,253,253,253,253,253,253,253,253,253,253,253,253,253,253,253,253,253,253,253,253,253,253,253,253,253,253,253,253,253,253,253,253,253,253,253,253,253,253,253,253,253,253,253,253,253,253,253,253,253,253,253,253,253,253,253,253,
253,253,253,253,253,253,253,253,253,253,253,253,253,253,253,253,253,253,253,253,253,253,253,253,253,253,253,253,253,253,253,253,253,253,253,253,253,253,253,253,253,253,253,253,253,253,253,253,253,253,253,253,253,253,253,253,253,253,253,253,253,253,253,253,253,253,253,253,253,253,253,253,253,253,253,253,253,253,253,253,253,253,253,253,253,253,253,253,253,253,253,253,253,253,253,253,253,253,253,253,253,253,253,253,253,253,253,253,253,253,253,253,253,253,253,253,253,253,253,253,253,253,253,253,253,253,253,253,253,253,253,253,253,253,253,253,253,253,253,253,253,253,253,253,253,253,253,253,253,253,253,253,253,253,253,253,253,253,253,253,253,253,253,253,253,253,253,253,253,253,253,253,253,253,253,253,253,253,253,253,253,253,253,253,253,253,253,253,253,253,253,253,253,253,253,253,253,253,253,253,
253,253,253,253,253,253,253,253,253,253,253,253,253,253,253,253,253,253,253,253,253,253,253,253,253,253,253,253,253,253,253,253,253,253,253,253,253,253,253,253,253,253,253,253,253,253,253,253,253,253,253,253,253,253,253,253,253,253,253,253,253,253,253,253,253,253,253,253,253,253,253,253,253,253,253,253,253,253,253,253,253,253,253,253,253,253,253,253,253,253,253,253,253,253,253,253,253,253,253,253,253,253,253,253,253,253,253,253,253,253,253,253,253,253,253,253,253,253,253,253,253,253,253,253,253,253,253,253,253,253,253,253,253,253,253,253,253,253,253,253,253,253,253,253,253,253,253,253,253,253,253,253,253,253,253,253,253,253,253,253,253,253,253,253,253,253,253,253,253,253,253,253,253,253,253,253,253,253,253,253,253,253,253,253,253,253,253,253,253,253,253,253,253,253,253,253,253,253,253,253,
253,253,253,253,253,253,253,253,253,253,253,253,253,253,253,253,253,253,253,253,253,253,253,253,253,253,253,253,253,253,253,253,253,253,253,253,253,253,253,253,253,253,253,253,253,253,253,253,253,253,253,253,253,253,253,253,253,253,253,253,253,253,253,253,253,253,253,253,253,253,253,253,253,253,253,253,253,253,253,253,253,253,253,253,253,253,253,253,253,253,253,253,253,253,253,253,253,253,253,253,253,253,253,253,253,253,253,253,253,253,253,253,253,253,253,253,253,253,253,253,253,253,253,253,253,253,253,253,253,253,253,253,253,253,253,253,253,253,253,253,253,253,253,253,253,253,253,253,253,253,253,253,253,253,253,253,253,253,253,253,253,253,253,253,253,253,253,253,253,253,253,253,253,253,253,253,253,253,253,253,253,253,253,253,253,253,253,253,253,253,253,253,253,253,253,253,253,253,253,253,
253,253,253,253,253,253,253,253,253,253,253,253,253,253,253,253,253,253,253,253,253,253,253,253,253,253,253,253,253,253,253,253,253,253,253,253,253,253,253,253,253,253,253,253,253,253,253,253,253,253,253,253,253,253,253,253,253,253,253,253,253,253,253,253,253,253,253,253,253,253,253,253,253,253,253,253,253,253,253,253,253,253,253,253,253,253,253,253,253,253,253,253,253,253,253,253,253,253,253,253,253,253,253,253,253,253,253,253,253,253,253,253,253,253,253,253,253,253,253,253,253,253,253,253,253,253,253,253,253,253,253,253,253,253,253,253,253,253,253,253,253,253,253,253,253,253,253,253,253,253,253,253,253,253,253,253,253,253,253,253,253,253,253,253,253,253,253,253,253,253,253,253,253,253,253,253,253,253,253,253,253,253,253,253,253,253,253,253,253,253,253,253,253,253,253,253,253,253,253,253,
253,253,253,253,253,253,253,253,253,253,253,253,253,253,253,253,253,253,253,253,253,253,253,253,253,253,253,253,253,253,253,253,253,253,253,253,253,253,253,253,253,253,253,253,253,253,253,253,253,253,253,253,253,253,253,253,253,253,253,253,253,253,253,253,253,253,253,253,253,253,253,253,253,253,253,253,253,253,253,253,253,253,253,253,253,253,253,253,253,253,253,253,253,253,253,253,253,253,253,253,253,253,253,253,253,253,253,253,253,253,253,253,253,253,253,253,253,253,253,253,253,253,253,253,253,253,253,253,253,253,253,253,253,253,253,253,253,253,253,253,253,253,253,253,253,253,253,253,253,253,253,253,253,253,253,253,253,253,253,253,253,253,253,253,253,253,253,253,253,253,253,253,253,253,253,253,253,253,253,253,253,253,253,253,253,253,253,253,253,253,253,253,253,253,253,253,253,253,253,253,
253,253,253,253,253,253,253,253,253,253,253,253,253,253,253,253,253,253,253,253,253,253,253,253,253,253,253,253,253,253,253,253,253,253,253,253,253,253,253,253,253,253,253,253,253,253,253,253,253,253,253,253,253,253,253,253,253,253,253,253,253,253,253,253,253,253,253,253,253,253,253,253,253,253,253,253,253,253,253,253,253,253,253,253,253,253,253,253,253,253,253,253,253,253,253,253,253,253,253,253,253,253,253,253,253,253,253,253,253,253,253,253,253,253,253,253,253,253,253,253,253,253,253,253,253,253,253,253,253,253,253,253,253,253,253,253,253,253,253,253,253,253,253,253,253,253,253,253,253,253,253,253,253,253,253,253,253,253,253,253,253,253,253,253,253,253,253,253,253,253,253,253,253,253,253,253,253,253,253,253,253,253,253,253,253,253,253,253,253,253,253,253,253,253,253,253,253,253,253,253,
253,253,253,253,253,253,253,253,253,253,253,253,253,253,253,253,253,253,253,253,253,253,253,253,253,253,253,253,253,253,253,253,253,253,253,253,253,253,253,253,253,253,253,253,253,253,253,253,253,253,253,253,253,253,253,253,253,253,253,253,253,253,253,253,253,253,253,253,253,253,253,253,253,253,253,253,253,253,253,253,253,253,253,253,253,253,253,253,253,253,253,253,253,253,253,253,253,253,253,253,253,253,253,253,253,253,253,253,253,253,253,253,253,253,253,253,253,253,253,253,253,253,253,253,253,253,253,253,253,253,253,253,253,253,253,253,253,253,253,253,253,253,253,253,253,253,253,253,253,253,253,253,253,253,253,253,253,253,253,253,253,253,253,253,253,253,253,253,253,253,253,253,253,253,253,253,253,253,253,253,253,253,253,253,253,253,253,253,253,253,253,253,253,253,253,253,253,253,253,253,
253,253,253,253,253,253,253,253,253,253,253,253,253,253,253,253,253,253,253,253,253,253,253,253,253,253,253,253,253,253,253,253,253,253,253,253,253,253,253,253,253,253,253,253,253,253,253,253,253,253,253,253,253,253,253,253,253,253,253,253,253,253,253,253,253,253,253,253,253,253,253,253,253,253,253,253,253,253,253,253,253,253,253,253,253,253,253,253,253,253,253,253,253,253,253,253,253,253,253,253,253,253,253,253,253,253,253,253,253,253,253,253,253,253,253,253,253,253,253,253,253,253,253,253,253,253,253,253,253,253,253,253,253,253,253,253,253,253,253,253,253,253,253,253,253,253,253,253,253,253,253,253,253,253,253,253,253,253,253,253,253,253,253,253,253,253,253,253,253,253,253,253,253,253,253,253,253,253,253,253,253,253,253,253,253,253,253,253,253,253,253,253,253,253,253,253,253,253,253,253,
253,253,253,253,253,253,253,253,253,253,253,253,253,253,253,253,253,253,253,253,253,253,253,253,253,253,253,253,253,253,253,253,253,253,253,253,253,253,253,253,253,253,253,253,253,253,253,253,253,253,253,253,253,253,253,253,253,253,253,253,253,253,253,253,253,253,253,253,253,253,253,253,253,253,253,253,253,253,253,253,253,253,253,253,253,253,253,253,253,253,253,253,253,253,253,253,253,253,253,253,253,253,253,253,253,253,253,253,253,253,253,253,253,253,253,253,253,253,253,253,253,253,253,253,253,253,253,253,253,253,253,253,253,253,253,253,253,253,253,253,253,253,253,253,253,253,253,253,253,253,253,253,253,253,253,253,253,253,253,253,253,253,253,253,253,253,253,253,253,253,253,253,253,253,253,253,253,253,253,253,253,253,253,253,253,253,253,253,253,253,253,253,253,253,253,253,253,253,253,253,
253,253,253,253,253,253,253,253,253,253,253,253,253,253,253,253,253,253,253,253,253,253,253,253,253,253,253,253,253,253,253,253,253,253,253,253,253,253,253,253,253,253,253,253,253,253,253,253,253,253,253,253,253,253,253,253,253,253,253,253,253,253,253,253,253,253,253,253,253,253,253,253,253,253,253,253,253,253,253,253,253,253,253,253,253,253,253,253,253,253,253,253,253,253,253,253,253,253,253,253,253,253,253,253,253,253,253,253,253,253,253,253,253,253,253,253,253,253,253,253,253,253,253,253,253,253,253,253,253,253,253,253,253,253,253,253,253,253,253,253,253,253,253,253,253,253,253,253,253,253,253,253,253,253,253,253,253,253,253,253,253,253,253,253,253,253,253,253,253,253,253,253,253,253,253,253,253,253,253,253,253,253,253,253,253,253,253,253,253,253,253,253,253,253,253,253,253,253,253,253,
253,253,253,253,253,253,253,253,253,253,253,253,253,253,253,253,253,253,253,253,253,253,253,253,253,253,253,253,253,253,253,253,253,253,253,253,253,253,253,253,253,253,253,253,253,253,253,253,253,253,253,253,253,253,253,253,253,253,253,253,253,253,253,253,253,253,253,253,253,253,253,253,253,253,253,253,253,253,253,253,253,253,253,253,253,253,253,253,253,253,253,253,253,253,253,253,253,253,253,253,253,253,253,253,253,253,253,253,253,253,253,253,253,253,253,253,253,253,253,253,253,253,253,253,253,253,253,253,253,253,253,253,253,253,253,253,253,253,253,253,253,253,253,253,253,253,253,253,253,253,253,253,253,253,253,253,253,253,253,253,253,253,253,253,253,253,253,253,253,253,253,253,253,253,253,253,253,253,253,253,253,253,253,253,253,253,253,253,253,253,253,253,253,253,253,253,253,253,253,253,
253,253,253,253,253,253,253,253,253,253,253,253,253,253,253,253,253,253,253,253,253,253,253,253,253,253,253,253,253,253,253,253,253,253,253,253,253,253,253,253,253,253,253,253,253,253,253,253,253,253,253,253,253,253,253,253,253,253,253,253,253,253,253,253,253,253,253,253,253,253,253,253,253,253,253,253,253,253,253,253,253,253,253,253,253,253,253,253,253,253,253,253,253,253,253,253,253,253,253,253,253,253,253,253,253,253,253,253,253,253,253,253,253,253,253,253,253,253,253,253,253,253,253,253,253,253,253,253,253,253,253,253,253,253,253,253,253,253,253,253,253,253,253,253,253,253,253,253,253,253,253,253,253,253,253,253,253,253,253,253,253,253,253,253,253,253,253,253,253,253,253,253,253,253,253,253,253,253,253,253,253,253,253,253,253,253,253,253,253,253,253,253,253,253,253,253,253,253,253,253,
253,253,253,253,253,253,253,253,253,253,253,253,253,253,253,253,253,253,253,253,253,253,253,253,253,253,253,253,253,253,253,253,253,253,253,253,253,253,253,253,253,253,253,253,253,253,253,253,253,253,253,253,253,253,253,253,253,253,253,253,253,253,253,253,253,253,253,253,253,253,253,253,253,253,253,253,253,253,253,253,253,253,253,253,253,253,253,253,253,253,253,253,253,253,253,253,253,253,253,253,253,253,253,253,253,253,253,253,253,253,253,253,253,253,253,253,253,253,253,253,253,253,253,253,253,253,253,253,253,253,253,253,253,253,253,253,253,253,253,253,253,253,253,253,253,253,253,253,253,253,253,253,253,253,253,253,253,253,253,253,253,253,253,253,253,253,253,253,253,253,253,253,253,253,253,253,253,253,253,253,253,253,253,253,253,253,253,253,253,253,253,253,253,253,253,253,253,253,253,253,
253,253,253,253,253,253,253,253,253,253,253,253,253,253,253,253,253,253,253,253,253,253,253,253,253,253,253,253,253,253,253,253,253,253,253,253,253,253,253,253,253,253,253,253,253,253,253,253,253,253,253,253,253,253,253,253,253,253,253,253,253,253,253,253,253,253,253,253,253,253,253,253,253,253,253,253,253,253,253,253,253,253,253,253,253,253,253,253,253,253,253,253,253,253,253,253,253,253,253,253,253,253,253,253,253,253,253,253,253,253,253,253,253,253,253,253,253,253,253,253,253,253,253,253,253,253,253,253,253,253,253,253,253,253,253,253,253,253,253,253,253,253,253,253,253,253,253,253,253,253,253,253,253,253,253,253,253,253,253,253,253,253,253,253,253,253,253,253,253,253,253,253,253,253,253,253,253,253,253,253,253,253,253,253,253,253,253,253,253,253,253,253,253,253,253,253,253,253,253,253,
253,253,253,253,253,253,253,253,253,253,253,253,253,253,253,253,253,253,253,253,253,253,253,253,253,253,253,253,253,253,253,253,253,253,253,253,253,253,253,253,253,253,253,253,253,253,253,253,253,253,253,253,253,253,253,253,253,253,253,253,253,253,253,253,253,253,253,253,253,253,253,253,253,253,253,253,253,253,253,253,253,253,253,253,253,253,253,253,253,253,253,253,253,253,253,253,253,253,253,253,253,253,253,253,253,253,253,253,253,253,253,253,253,253,253,253,253,253,253,253,253,253,253,253,253,253,253,253,253,253,253,253,253,253,253,253,253,253,253,253,253,253,253,253,253,253,253,253,253,253,253,253,253,253,253,253,253,253,253,253,253,253,253,253,253,253,253,253,253,253,253,253,253,253,253,253,253,253,253,253,253,253,253,253,253,253,253,253,253,253,253,253,253,253,253,253,253,253,253,253,
253,253,253,253,253,253,253,253,253,253,253,253,253,253,253,253,253,253,253,253,253,253,253,253,253,253,253,253,253,253,253,253,253,253,253,253,253,253,253,253,253,253,253,253,253,253,253,253,253,253,253,253,253,253,253,253,253,253,253,253,253,253,253,253,253,253,253,253,253,253,253,253,253,253,253,253,253,253,253,253,253,253,253,253,253,253,253,253,253,253,253,253,253,253,253,253,253,253,253,253,253,253,253,253,253,253,253,253,253,253,253,253,253,253,253,253,253,253,253,253,253,253,253,253,253,253,253,253,253,253,253,253,253,253,253,253,253,253,253,253,253,253,253,253,253,253,253,253,253,253,253,253,253,253,253,253,253,253,253,253,253,253,253,253,253,253,253,253,253,253,253,253,253,253,253,253,253,253,253,253,253,253,253,253,253,253,253,253,253,253,253,253,253,253,253,253,253,253,253,253,
253,253,253,253,253,253,253,253,253,253,253,253,253,253,253,253,253,253,253,253,253,253,253,253,253,253,253,253,253,253,253,253,253,253,253,253,253,253,253,253,253,253,253,253,253,253,253,253,253,253,253,253,253,253,253,253,253,253,253,253,253,253,253,253,253,253,253,253,253,253,253,253,253,253,253,253,253,253,253,253,253,253,253,253,253,253,253,253,253,253,253,253,253,253,253,253,253,253,253,253,253,253,253,253,253,253,253,253,253,253,253,253,253,253,253,253,253,253,253,253,253,253,253,253,253,253,253,253,253,253,253,253,253,253,253,253,253,253,253,253,253,253,253,253,253,253,253,253,253,253,253,253,253,253,253,253,253,253,253,253,253,253,253,253,253,253,253,253,253,253,253,253,253,253,253,253,253,253,253,253,253,253,253,253,253,253,253,253,253,253,253,253,253,253,253,253,253,253,253,253,
253,253,253,253,253,253,253,253,253,253,253,253,253,253,253,253,253,253,253,253,253,253,253,253,253,253,253,253,253,253,253,253,253,253,253,253,253,253,253,253,253,253,253,253,253,253,253,253,253,253,253,253,253,253,253,253,253,253,253,253,253,253,253,253,253,253,253,253,253,253,253,253,253,253,253,253,253,253,253,253,253,253,253,253,253,253,253,253,253,253,253,253,253,253,253,253,253,253,253,253,253,253,253,253,253,253,253,253,253,253,253,253,253,253,253,253,253,253,253,253,253,253,253,253,253,253,253,253,253,253,253,253,253,253,253,253,253,253,253,253,253,253,253,253,253,253,253,253,253,253,253,253,253,253,253,253,253,253,253,253,253,253,253,253,253,253,253,253,253,253,253,253,253,253,253,253,253,253,253,253,253,253,253,253,253,253,253,253,253,253,253,253,253,253,253,253,253,253,253,253,
253,253,253,253,253,253,253,253,253,253,253,253,253,253,253,253,253,253,253,253,253,253,253,253,253,253,253,253,253,253,253,253,253,253,253,253,253,253,253,253,253,253,253,253,253,253,253,253,253,253,253,253,253,253,253,253,253,253,253,253,253,253,253,253,253,253,253,253,253,253,253,253,253,253,253,253,253,253,253,253,253,253,253,253,253,253,253,253,253,253,253,253,253,253,253,253,253,253,253,253,253,253,253,253,253,253,253,253,253,253,253,253,253,253,253,253,253,253,253,253,253,253,253,253,253,253,253,253,253,253,253,253,253,253,253,253,253,253,253,253,253,253,253,253,253,253,253,253,253,253,253,253,253,253,253,253,253,253,253,253,253,253,253,253,253,253,253,253,253,253,253,253,253,253,253,253,253,253,253,253,253,253,253,253,253,253,253,253,253,253,253,253,253,253,253,253,253,253,253,253,
253,253,253,253,253,253,253,253,253,253,253,253,253,253,253,253,253,253,253,253,253,253,253,253,253,253,253,253,253,253,253,253,253,253,253,253,253,253,253,253,253,253,253,253,253,253,253,253,253,253,253,253,253,253,253,253,253,253,253,253,253,253,253,253,253,253,253,253,253,253,253,253,253,253,253,253,253,253,253,253,253,253,253,253,253,253,253,253,253,253,253,253,253,253,253,253,253,253,253,253,253,253,253,253,253,253,253,253,253,253,253,253,253,253,253,253,253,253,253,253,253,253,253,253,253,253,253,253,253,253,253,253,253,253,253,253,253,253,253,253,253,253,253,253,253,253,253,253,253,253,253,253,253,253,253,253,253,253,253,253,253,253,253,253,253,253,253,253,253,253,253,253,253,253,253,253,253,253,253,253,253,253,253,253,253,253,253,253,253,253,253,253,253,253,253,253,253,253,253,253,
253,253,253,253,253,253,253,253,253,253,253,253,253,253,253,253,253,253,253,253,253,253,253,253,253,253,253,253,253,253,253,253,253,253,253,253,253,253,253,253,253,253,253,253,253,253,253,253,253,253,253,253,253,253,253,253,253,253,253,253,253,253,253,253,253,253,253,253,253,253,253,253,253,253,253,253,253,253,253,253,253,253,253,253,253,253,253,253,253,253,253,253,253,253,253,253,253,253,253,253,253,253,253,253,253,253,253,253,253,253,253,253,253,253,253,253,253,253,253,253,253,253,253,253,253,253,253,253,253,253,253,253,253,253,253,253,253,253,253,253,253,253,253,253,253,253,253,253,253,253,253,253,253,253,253,253,253,253,253,253,253,253,253,253,253,253,253,253,253,253,253,253,253,253,253,253,253,253,253,253,253,253,253,253,253,253,253,253,253,253,253,253,253,253,253,253,253,253,253,253,
253,253,253,253,253,253,253,253,253,253,253,253,253,253,253,253,253,253,253,253,253,253,253,253,253,253,253,253,253,253,253,253,253,253,253,253,253,253,253,253,253,253,253,253,253,253,253,253,253,253,253,253,253,253,253,253,253,253,253,253,253,253,253,253,253,253,253,253,253,253,253,253,253,253,253,253,253,253,253,253,253,253,253,253,253,253,253,253,253,253,253,253,253,253,253,253,253,253,253,253,253,253,253,253,253,253,253,253,253,253,253,253,253,253,253,253,253,253,253,253,253,253,253,253,253,253,253,253,253,253,253,253,253,253,253,253,253,253,253,253,253,253,253,253,253,253,253,253,253,253,253,253,253,253,253,253,253,253,253,253,253,253,253,253,253,253,253,253,253,253,253,253,253,253,253,253,253,253,253,253,253,253,253,253,253,253,253,253,253,253,253,253,253,253,253,253,253,253,253,253,
253,253,253,253,253,253,253,253,253,253,253,253,253,253,253,253,253,253,253,253,253,253,253,253,253,253,253,253,253,253,253,253,253,253,253,253,253,253,253,253,253,253,253,253,253,253,253,253,253,253,253,253,253,253,253,253,253,253,253,253,253,253,253,253,253,253,253,253,253,253,253,253,253,253,253,253,253,253,253,253,253,253,253,253,253,253,253,253,253,253,253,253,253,253,253,253,253,253,253,253,253,253,253,253,253,253,253,253,253,253,253,253,253,253,253,253,253,253,253,253,253,253,253,253,253,253,253,253,253,253,253,253,253,253,253,253,253,253,253,253,253,253,253,253,253,253,253,253,253,253,253,253,253,253,253,253,253,253,253,253,253,253,253,253,253,253,253,253,253,253,253,253,253,253,253,253,253,253,253,253,253,253,253,253,253,253,253,253,253,253,253,253,253,253,253,253,253,253,253,253,
253,253,253,253,253,253,253,253,253,253,253,253,253,253,253,253,253,253,253,253,253,253,253,253,253,253,253,253,253,253,253,253,253,253,253,253,253,253,253,253,253,253,253,253,253,253,253,253,253,253,253,253,253,253,253,253,253,253,253,253,253,253,253,253,253,253,253,253,253,253,253,253,253,253,253,253,253,253,253,253,253,253,253,253,253,253,253,253,253,253,253,253,253,253,253,253,253,253,253,253,253,253,253,253,253,253,253,253,253,253,253,253,253,253,253,253,253,253,253,253,253,253,253,253,253,253,253,253,253,253,253,253,253,253,253,253,253,253,253,253,253,253,253,253,253,253,253,253,253,253,253,253,253,253,253,253,253,253,253,253,253,253,253,253,253,253,253,253,253,253,253,253,253,253,253,253,253,253,253,253,253,253,253,253,253,253,253,253,253,253,253,253,253,253,253,253,253,253,253,253,
253,253,253,253,253,253,253,253,253,253,253,253,253,253,253,253,253,253,253,253,253,253,253,253,253,253,253,253,253,253,253,253,253,253,253,253,253,253,253,253,253,253,253,253,253,253,253,253,253,253,253,253,253,253,253,253,253,253,253,253,253,253,253,253,253,253,253,253,253,253,253,253,253,253,253,253,253,253,253,253,253,253,253,253,253,253,253,253,253,253,253,253,253,253,253,253,253,253,253,253,253,253,253,253,253,253,253,253,253,253,253,253,253,253,253,253,253,253,253,253,253,253,253,253,253,253,253,253,253,253,253,253,253,253,253,253,253,253,253,253,253,253,253,253,253,253,253,253,253,253,253,253,253,253,253,253,253,253,253,253,253,253,253,253,253,253,253,253,253,253,253,253,253,253,253,253,253,253,253,253,253,253,253,253,253,253,253,253,253,253,253,253,253,253,253,253,253,253,253,253,
253,253,253,253,253,253,253,253,253,253,253,253,253,253,253,253,253,253,253,253,253,253,253,253,253,253,253,253,253,253,253,253,253,253,253,253,253,253,253,253,253,253,253,253,253,253,253,253,253,253,253,253,253,253,253,253,253,253,253,253,253,253,253,253,253,253,253,253,253,253,253,253,253,253,253,253,253,253,253,253,253,253,253,253,253,253,253,253,253,253,253,253,253,253,253,253,253,253,253,253,253,253,253,253,253,253,253,253,253,253,253,253,253,253,253,253,253,253,253,253,253,253,253,253,253,253,253,253,253,253,253,253,253,253,253,253,253,253,253,253,253,253,253,253,253,253,253,253,253,253,253,253,253,253,253,253,253,253,253,253,253,253,253,253,253,253,253,253,253,253,253,253,253,253,253,253,253,253,253,253,253,253,253,253,253,253,253,253,253,253,253,253,253,253,253,253,253,253,253,253,
253,253,253,253,253,253,253,253,253,253,253,253,253,253,253,253,253,253,253,253,253,253,253,253,253,253,253,253,253,253,253,253,253,253,253,253,253,253,253,253,253,253,253,253,253,253,253,253,253,253,253,253,253,253,253,253,253,253,253,253,253,253,253,253,253,253,253,253,253,253,253,253,253,253,253,253,253,253,253,253,253,253,253,253,253,253,253,253,253,253,253,253,253,253,253,253,253,253,253,253,253,253,253,253,253,253,253,253,253,253,253,253,253,253,253,253,253,253,253,253,253,253,253,253,253,253,253,253,253,253,253,253,253,253,253,253,253,253,253,253,253,253,253,253,253,253,253,253,253,253,253,253,253,253,253,253,253,253,253,253,253,253,253,253,253,253,253,253,253,253,253,253,253,253,253,253,253,253,253,253,253,253,253,253,253,253,253,253,253,253,253,253,253,253,253,253,253,253,253,253,
253,253,253,253,253,253,253,253,253,253,253,253,253,253,253,253,253,253,253,253,253,253,253,253,253,253,253,253,253,253,253,253,253,253,253,253,253,253,253,253,253,253,253,253,253,253,253,253,253,253,253,253,253,253,253,253,253,253,253,253,253,253,253,253,253,253,253,253,253,253,253,253,253,253,253,253,253,253,253,253,253,253,253,253,253,253,253,253,253,253,253,253,253,253,253,253,253,253,253,253,253,253,253,253,253,253,253,253,253,253,253,253,253,253,253,253,253,253,253,253,253,253,253,253,253,253,253,253,253,253,253,253,253,253,253,253,253,253,253,253,253,253,253,253,253,253,253,253,253,253,253,253,253,253,253,253,253,253,253,253,253,253,253,253,253,253,253,253,253,253,253,253,253,253,253,253,253,253,253,253,253,253,253,253,253,253,253,253,253,253,253,253,253,253,253,253,253,253,253,253,
253,253,253,253,253,253,253,253,253,253,253,253,253,253,253,253,253,253,253,253,253,253,253,253,253,253,253,253,253,253,253,253,253,253,253,253,253,253,253,253,253,253,253,253,253,253,253,253,253,253,253,253,253,253,253,253,253,253,253,253,253,253,253,253,253,253,253,253,253,253,253,253,253,253,253,253,253,253,253,253,253,253,253,253,253,253,253,253,253,253,253,253,253,253,253,253,253,253,253,253,253,253,253,253,253,253,253,253,253,253,253,253,253,253,253,253,253,253,253,253,253,253,253,253,253,253,253,253,253,253,253,253,253,253,253,253,253,253,253,253,253,253,253,253,253,253,253,253,253,253,253,253,253,253,253,253,253,253,253,253,253,253,253,253,253,253,253,253,253,253,253,253,253,253,253,253,253,253,253,253,253,253,253,253,253,253,253,253,253,253,253,253,253,253,253,253,253,253,253,253,
253,253,253,253,253,253,253,253,253,253,253,253,253,253,253,253,253,253,253,253,253,253,253,253,253,253,253,253,253,253,253,253,253,253,253,253,253,253,253,253,253,253,253,253,253,253,253,253,253,253,253,253,253,253,253,253,253,253,253,253,253,253,253,253,253,253,253,253,253,253,253,253,253,253,253,253,253,253,253,253,253,253,253,253,253,253,253,253,253,253,253,253,253,253,253,253,253,253,253,253,253,253,253,253,253,253,253,253,253,253,253,253,253,253,253,253,253,253,253,253,253,253,253,253,253,253,253,253,253,253,253,253,253,253,253,253,253,253,253,253,253,253,253,253,253,253,253,253,253,253,253,253,253,253,253,253,253,253,253,253,253,253,253,253,253,253,253,253,253,253,253,253,253,253,253,253,253,253,253,253,253,253,253,253,253,253,253,253,253,253,253,253,253,253,253,253,253,253,253,253,
253,253,253,253,253,253,253,253,253,253,253,253,253,253,253,253,253,253,253,253,253,253,253,253,253,253,253,253,253,253,253,253,253,253,253,253,253,253,253,253,253,253,253,253,253,253,253,253,253,253,253,253,253,253,253,253,253,253,253,253,253,253,253,253,253,253,253,253,253,253,253,253,253,253,253,253,253,253,253,253,253,253,253,253,253,253,253,253,253,253,253,253,253,253,253,253,253,253,253,253,253,253,253,253,253,253,253,253,253,253,253,253,253,253,253,253,253,253,253,253,253,253,253,253,253,253,253,253,253,253,253,253,253,253,253,253,253,253,253,253,253,253,253,253,253,253,253,253,253,253,253,253,253,253,253,253,253,253,253,253,253,253,253,253,253,253,253,253,253,253,253,253,253,253,253,253,253,253,253,253,253,253,253,253,253,253,253,253,253,253,253,253,253,253,253,253,253,253,253,253,
253,253,253,253,253,253,253,253,253,253,253,253,253,253,253,253,253,253,253,253,253,253,253,253,253,253,253,253,253,253,253,253,253,253,253,253,253,253,253,253,253,253,253,253,253,253,253,253,253,253,253,253,253,253,253,253,253,253,253,253,253,253,253,253,253,253,253,253,253,253,253,253,253,253,253,253,253,253,253,253,253,253,253,253,253,253,253,253,253,253,253,253,253,253,253,253,253,253,253,253,253,253,253,253,253,253,253,253,253,253,253,253,253,253,253,253,253,253,253,253,253,253,253,253,253,253,253,253,253,253,253,253,253,253,253,253,253,253,253,253,253,253,253,253,253,253,253,253,253,253,253,253,253,253,253,253,253,253,253,253,253,253,253,253,253,253,253,253,253,253,253,253,253,253,253,253,253,253,253,253,253,253,253,253,253,253,253,253,253,253,253,253,253,253,253,253,253,253,253,253,
253,253,253,253,253,253,253,253,253,253,253,253,253,253,253,253,253,253,253,253,253,253,253,253,253,253,253,253,253,253,253,253,253,253,253,253,253,253,253,253,253,253,253,253,253,253,253,253,253,253,253,253,253,253,253,253,253,253,253,253,253,253,253,253,253,253,253,253,253,253,253,253,253,253,253,253,253,253,253,253,253,253,253,253,253,253,253,253,253,253,253,253,253,253,253,253,253,253,253,253,253,253,253,253,253,253,253,253,253,253,253,253,253,253,253,253,253,253,253,253,253,253,253,253,253,253,253,253,253,253,253,253,253,253,253,253,253,253,253,253,253,253,253,253,253,253,253,253,253,253,253,253,253,253,253,253,253,253,253,253,253,253,253,253,253,253,253,253,253,253,253,253,253,253,253,253,253,253,253,253,253,253,253,253,253,253,253,253,253,253,253,253,253,253,253,253,253,253,253,253,
253,253,253,253,253,253,253,253,253,253,253,253,253,253,253,253,253,253,253,253,253,253,253,253,253,253,253,253,253,253,253,253,253,253,253,253,253,253,253,253,253,253,253,253,253,253,253,253,253,253,253,253,253,253,253,253,253,253,253,253,253,253,253,253,253,253,253,253,253,253,253,253,253,253,253,253,253,253,253,253,253,253,253,253,253,253,253,253,253,253,253,253,253,253,253,253,253,253,253,253,253,253,253,253,253,253,253,253,253,253,253,253,253,253,253,253,253,253,253,253,253,253,253,253,253,253,253,253,253,253,253,253,253,253,253,253,253,253,253,253,253,253,253,253,253,253,253,253,253,253,253,253,253,253,253,253,253,253,253,253,253,253,253,253,253,253,253,253,253,253,253,253,253,253,253,253,253,253,253,253,253,253,253,253,253,253,253,253,253,253,253,253,253,253,253,253,253,253,253,253,
253,253,253,253,253,253,253,253,253,253,253,253,253,253,253,253,253,253,253,253,253,253,253,253,253,253,253,253,253,253,253,253,253,253,253,253,253,253,253,253,253,253,253,253,253,253,253,253,253,253,253,253,253,253,253,253,253,253,253,253,253,253,253,253,253,253,253,253,253,253,253,253,253,253,253,253,253,253,253,253,253,253,253,253,253,253,253,253,253,253,253,253,253,253,253,253,253,253,253,253,253,253,253,253,253,253,253,253,253,253,253,253,253,253,253,253,253,253,253,253,253,253,253,253,253,253,253,253,253,253,253,253,253,253,253,253,253,253,253,253,253,253,253,253,253,253,253,253,253,253,253,253,253,253,253,253,253,253,253,253,253,253,253,253,253,253,253,253,253,253,253,253,253,253,253,253,253,253,253,253,253,253,253,253,253,253,253,253,253,253,253,253,253,253,253,253,253,253,253,253,
253,253,253,253,253,253,253,253,253,253,253,253,253,253,253,253,253,253,253,253,253,253,253,253,253,253,253,253,253,253,253,253,253,253,253,253,253,253,253,253,253,253,253,253,253,253,253,253,253,253,253,253,253,253,253,253,253,253,253,253,253,253,253,253,253,253,253,253,253,253,253,253,253,253,253,253,253,253,253,253,253,253,253,253,253,253,253,253,253,253,253,253,253,253,253,253,253,253,253,253,253,253,253,253,253,253,253,253,253,253,253,253,253,253,253,253,253,253,253,253,253,253,253,253,253,253,253,253,253,253,253,253,253,253,253,253,253,253,253,253,253,253,253,253,253,253,253,253,253,253,253,253,253,253,253,253,253,253,253,253,253,253,253,253,253,253,253,253,253,253,253,253,253,253,253,253,253,253,253,253,253,253,253,253,253,253,253,253,253,253,253,253,253,253,253,253,253,253,253,253,
253,253,253,253,253,253,253,253,253,253,253,253,253,253,253,253,253,253,253,253,253,253,253,253,253,253,253,253,253,253,253,253,253,253,253,253,253,253,253,253,253,253,253,253,253,253,253,253,253,253,253,253,253,253,253,253,253,253,253,253,253,253,253,253,253,253,253,253,253,253,253,253,253,253,253,253,253,253,253,253,253,253,253,253,253,253,253,253,253,253,253,253,253,253,253,253,253,253,253,253,253,253,253,253,253,253,253,253,253,253,253,253,253,253,253,253,253,253,253,253,253,253,253,253,253,253,253,253,253,253,253,253,253,253,253,253,253,253,253,253,253,253,253,253,253,253,253,253,253,253,253,253,253,253,253,253,253,253,253,253,253,253,253,253,253,253,253,253,253,253,253,253,253,253,253,253,253,253,253,253,253,253,253,253,253,253,253,253,253,253,253,253,253,253,253,253,253,253,253,253,
253,253,253,253,253,253,253,253,253,253,253,253,253,253,253,253,253,253,253,253,253,253,253,253,253,253,253,253,253,253,253,253,253,253,253,253,253,253,253,253,253,253,253,253,253,253,253,253,253,253,253,253,253,253,253,253,253,253,253,253,253,253,253,253,253,253,253,253,253,253,253,253,253,253,253,253,253,253,253,253,253,253,253,253,253,253,253,253,253,253,253,253,253,253,253,253,253,253,253,253,253,253,253,253,253,253,253,253,253,253,253,253,253,253,253,253,253,253,253,253,253,253,253,253,253,253,253,253,253,253,253,253,253,253,253,253,253,253,253,253,253,253,253,253,253,253,253,253,253,253,253,253,253,253,253,253,253,253,253,253,253,253,253,253,253,253,253,253,253,253,253,253,253,253,253,253,253,253,253,253,253,253,253,253,253,253,253,253,253,253,253,253,253,253,253,253,253,253,253,253,
253,253,253,253,253,253,253,253,253,253,253,253,253,253,253,253,253,253,253,253,253,253,253,253,253,253,253,253,253,253,253,253,253,253,253,253,253,253,253,253,253,253,253,253,253,253,253,253,253,253,253,253,253,253,253,253,253,253,253,253,253,253,253,253,253,253,253,253,253,253,253,253,253,253,253,253,253,253,253,253,253,253,253,253,253,253,253,253,253,253,253,253,253,253,253,253,253,253,253,253,253,253,253,253,253,253,253,253,253,253,253,253,253,253,253,253,253,253,253,253,253,253,253,253,253,253,253,253,253,253,253,253,253,253,253,253,253,253,253,253,253,253,253,253,253,253,253,253,253,253,253,253,253,253,253,253,253,253,253,253,253,253,253,253,253,253,253,253,253,253,253,253,253,253,253,253,253,253,253,253,253,253,253,253,253,253,253,253,253,253,253,253,253,253,253,253,253,253,253,253,
253,253,253,253,253,253,253,253,253,253,253,253,253,253,253,253,253,253,253,253,253,253,253,253,253,253,253,253,253,253,253,253,253,253,253,253,253,253,253,253,253,253,253,253,253,253,253,253,253,253,253,253,253,253,253,253,253,253,253,253,253,253,253,253,253,253,253,253,253,253,253,253,253,253,253,253,253,253,253,253,253,253,253,253,253,253,253,253,253,253,253,253,253,253,253,253,253,253,253,253,253,253,253,253,253,253,253,253,253,253,253,253,253,253,253,253,253,253,253,253,253,253,253,253,253,253,253,253,253,253,253,253,253,253,253,253,253,253,253,253,253,253,253,253,253,253,253,253,253,253,253,253,253,253,253,253,253,253,253,253,253,253,253,253,253,253,253,253,253,253,253,253,253,253,253,253,253,253,253,253,253,253,253,253,253,253,253,253,253,253,253,253,253,253,253,253,253,253,253,253,
253,253,253,253,253,253,253,253,253,253,253,253,253,253,253,253,253,253,253,253,253,253,253,253,253,253,253,253,253,253,253,253,253,253,253,253,253,253,253,253,253,253,253,253,253,253,253,253,253,253,253,253,253,253,253,253,253,253,253,253,253,253,253,253,253,253,253,253,253,253,253,253,253,253,253,253,253,253,253,253,253,253,253,253,253,253,253,253,253,253,253,253,253,253,253,253,253,253,253,253,253,253,253,253,253,253,253,253,253,253,253,253,253,253,253,253,253,253,253,253,253,253,253,253,253,253,253,253,253,253,253,253,253,253,253,253,253,253,253,253,253,253,253,253,253,253,253,253,253,253,253,253,253,253,253,253,253,253,253,253,253,253,253,253,253,253,253,253,253,253,253,253,253,253,253,253,253,253,253,253,253,253,253,253,253,253,253,253,253,253,253,253,253,253,253,253,253,253,253,253,
253,253,253,253,253,253,253,253,253,253,253,253,253,253,253,253,253,253,253,253,253,253,253,253,253,253,253,253,253,253,253,253,253,253,253,253,253,253,253,253,253,253,253,253,253,253,253,253,253,253,253,253,253,253,253,253,253,253,253,253,253,253,253,253,253,253,253,253,253,253,253,253,253,253,253,253,253,253,253,253,253,253,253,253,253,253,253,253,253,253,253,253,253,253,253,253,253,253,253,253,253,253,253,253,253,253,253,253,253,253,253,253,253,253,253,253,253,253,253,253,253,253,253,253,253,253,253,253,253,253,253,253,253,253,253,253,253,253,253,253,253,253,253,253,253,253,253,253,253,253,253,253,253,253,253,253,253,253,253,253,253,253,253,253,253,253,253,253,253,253,253,253,253,253,253,253,253,253,253,253,253,253,253,253,253,253,253,253,253,253,253,253,253,253,253,253,253,253,253,253,
253,253,253,253,253,253,253,253,253,253,253,253,253,253,253,253,253,253,253,253,253,253,253,253,253,253,253,253,253,253,253,253,253,253,253,253,253,253,253,253,253,253,253,253,253,253,253,253,253,253,253,253,253,253,253,253,253,253,253,253,253,253,253,253,253,253,253,253,253,253,253,253,253,253,253,253,253,253,253,253,253,253,253,253,253,253,253,253,253,253,253,253,253,253,253,253,253,253,253,253,253,253,253,253,253,253,253,253,253,253,253,253,253,253,253,253,253,253,253,253,253,253,253,253,253,253,253,253,253,253,253,253,253,253,253,253,253,253,253,253,253,253,253,253,253,253,253,253,253,253,253,253,253,253,253,253,253,253,253,253,253,253,253,253,253,253,253,253,253,253,253,253,253,253,253,253,253,253,253,253,253,253,253,253,253,253,253,253,253,253,253,253,253,253,253,253,253,253,253,253,
253,253,253,253,253,253,253,253,253,253,253,253,253,253,253,253,253,253,253,253,253,253,253,253,253,253,253,253,253,253,253,253,253,253,253,253,253,253,253,253,253,253,253,253,253,253,253,253,253,253,253,253,253,253,253,253,253,253,253,253,253,253,253,253,253,253,253,253,253,253,253,253,253,253,253,253,253,253,253,253,253,253,253,253,253,253,253,253,253,253,253,253,253,253,253,253,253,253,253,253,253,253,253,253,253,253,253,253,253,253,253,253,253,253,253,253,253,253,253,253,253,253,253,253,253,253,253,253,253,253,253,253,253,253,253,253,253,253,253,253,253,253,253,253,253,253,253,253,253,253,253,253,253,253,253,253,253,253,253,253,253,253,253,253,253,253,253,253,253,253,253,253,253,253,253,253,253,253,253,253,253,253,253,253,253,253,253,253,253,253,253,253,253,253,253,253,253,253,253,253,
253,253,253,253,253,253,253,253,253,253,253,253,253,253,253,253,253,253,253,253,253,253,253,253,253,253,253,253,253,253,253,253,253,253,253,253,253,253,253,253,253,253,253,253,253,253,253,253,253,253,253,253,253,253,253,253,253,253,253,253,253,253,253,253,253,253,253,253,253,253,253,253,253,253,253,253,253,253,253,253,253,253,253,253,253,253,253,253,253,253,253,253,253,253,253,253,253,253,253,253,253,253,253,253,253,253,253,253,253,253,253,253,253,253,253,253,253,253,253,253,253,253,253,253,253,253,253,253,253,253,253,253,253,253,253,253,253,253,253,253,253,253,253,253,253,253,253,253,253,253,253,253,253,253,253,253,253,253,253,253,253,253,253,253,253,253,253,253,253,253,253,253,253,253,253,253,253,253,253,253,253,253,253,253,253,253,253,253,253,253,253,253,253,253,253,253,253,253,253,253,
253,253,253,253,253,253,253,253,253,253,253,253,253,253,253,253,253,253,253,253,253,253,253,253,253,253,253,253,253,253,253,253,253,253,253,253,253,253,253,253,253,253,253,253,253,253,253,253,253,253,253,253,253,253,253,253,253,253,253,253,253,253,253,253,253,253,253,253,253,253,253,253,253,253,253,253,253,253,253,253,253,253,253,253,253,253,253,253,253,253,253,253,253,253,253,253,253,253,253,253,253,253,253,253,253,253,253,253,253,253,253,253,253,253,253,253,253,253,253,253,253,253,253,253,253,253,253,253,253,253,253,253,253,253,253,253,253,253,253,253,253,253,253,253,253,253,253,253,253,253,253,253,253,253,253,253,253,253,253,253,253,253,253,253,253,253,253,253,253,253,253,253,253,253,253,253,253,253,253,253,253,253,253,253,253,253,253,253,253,253,253,253,253,253,253,253,253,253,253,253,
253,253,253,253,253,253,253,253,253,253,253,253,253,253,253,253,253,253,253,253,253,253,253,253,253,253,253,253,253,253,253,253,253,253,253,253,253,253,253,253,253,253,253,253,253,253,253,253,253,253,253,253,253,253,253,253,253,253,253,253,253,253,253,253,253,253,253,253,253,253,253,253,253,253,253,253,253,253,253,253,253,253,253,253,253,253,253,253,253,253,253,253,253,253,253,253,253,253,253,253,253,253,253,253,253,253,253,253,253,253,253,253,253,253,253,253,253,253,253,253,253,253,253,253,253,253,253,253,253,253,253,253,253,253,253,253,253,253,253,253,253,253,253,253,253,253,253,253,253,253,253,253,253,253,253,253,253,253,253,253,253,253,253,253,253,253,253,253,253,253,253,253,253,253,253,253,253,253,253,253,253,253,253,253,253,253,253,253,253,253,253,253,253,253,253,253,253,253,253,253,
253,253,253,253,253,253,253,253,253,253,253,253,253,253,253,253,253,253,253,253,253,253,253,253,253,253,253,253,253,253,253,253,253,253,253,253,253,253,253,253,253,253,253,253,253,253,253,253,253,253,253,253,253,253,253,253,253,253,253,253,253,253,253,253,253,253,253,253,253,253,253,253,253,253,253,253,253,253,253,253,253,253,253,253,253,253,253,253,253,253,253,253,253,253,253,253,253,253,253,253,253,253,253,253,253,253,253,253,253,253,253,253,253,253,253,253,253,253,253,253,253,253,253,253,253,253,253,253,253,253,253,253,253,253,253,253,253,253,253,253,253,253,253,253,253,253,253,253,253,253,253,253,253,253,253,253,253,253,253,253,253,253,253,253,253,253,253,253,253,253,253,253,253,253,253,253,253,253,253,253,253,253,253,253,253,253,253,253,253,253,253,253,253,253,253,253,253,253,253,253,
253,253,253,253,253,253,253,253,253,253,253,253,253,253,253,253,253,253,253,253,253,253,253,253,253,253,253,253,253,253,253,253,253,253,253,253,253,253,253,253,253,253,253,253,253,253,253,253,253,253,253,253,253,253,253,253,253,253,253,253,253,253,253,253,253,253,253,253,253,253,253,253,253,253,253,253,253,253,253,253,253,253,253,253,253,253,253,253,253,253,253,253,253,253,253,253,253,253,253,253,253,253,253,253,253,253,253,253,253,253,253,253,253,253,253,253,253,253,253,253,253,253,253,253,253,253,253,253,253,253,253,253,253,253,253,253,253,253,253,253,253,253,253,253,253,253,253,253,253,253,253,253,253,253,253,253,253,253,253,253,253,253,253,253,253,253,253,253,253,253,253,253,253,253,253,253,253,253,253,253,253,253,253,253,253,253,253,253,253,253,253,253,253,253,253,253,253,253,253,253,
253,253,253,253,253,253,253,253,253,253,253,253,253,253,253,253,253,253,253,253,253,253,253,253,253,253,253,253,253,253,253,253,253,253,253,253,253,253,253,253,253,253,253,253,253,253,253,253,253,253,253,253,253,253,253,253,253,253,253,253,253,253,253,253,253,253,253,253,253,253,253,253,253,253,253,253,253,253,253,253,253,253,253,253,253,253,253,253,253,253,253,253,253,253,253,253,253,253,253,253,253,253,253,253,253,253,253,253,253,253,253,253,253,253,253,253,253,253,253,253,253,253,253,253,253,253,253,253,253,253,253,253,253,253,253,253,253,253,253,253,253,253,253,253,253,253,253,253,253,253,253,253,253,253,253,253,253,253,253,253,253,253,253,253,253,253,253,253,253,253,253,253,253,253,253,253,253,253,253,253,253,253,253,253,253,253,253,253,253,253,253,253,253,253,253,253,253,253,253,253,
253,253,253,253,253,253,253,253,253,253,253,253,253,253,253,253,253,253,253,253,253,253,253,253,253,253,253,253,253,253,253,253,253,253,253,253,253,253,253,253,253,253,253,253,253,253,253,253,253,253,253,253,253,253,253,253,253,253,253,253,253,253,253,253,253,253,253,253,253,253,253,253,253,253,253,253,253,253,253,253,253,253,253,253,253,253,253,253,253,253,253,253,253,253,253,253,253,253,253,253,253,253,253,253,253,253,253,253,253,253,253,253,253,253,253,253,253,253,253,253,253,253,253,253,253,253,253,253,253,253,253,253,253,253,253,253,253,253,253,253,253,253,253,253,253,253,253,253,253,253,253,253,253,253,253,253,253,253,253,253,253,253,253,253,253,253,253,253,253,253,253,253,253,253,253,253,253,253,253,253,253,253,253,253,253,253,253,253,253,253,253,253,253,253,253,253,253,253,253,253,
253,253,253,253,253,253,253,253,253,253,253,253,253,253,253,253,253,253,253,253,253,253,253,253,253,253,253,253,253,253,253,253,253,253,253,253,253,253,253,253,253,253,253,253,253,253,253,253,253,253,253,253,253,253,253,253,253,253,253,253,253,253,253,253,253,253,253,253,253,253,253,253,253,253,253,253,253,253,253,253,253,253,253,253,253,253,253,253,253,253,253,253,253,253,253,253,253,253,253,253,253,253,253,253,253,253,253,253,253,253,253,253,253,253,253,253,253,253,253,253,253,253,253,253,253,253,253,253,253,253,253,253,253,253,253,253,253,253,253,253,253,253,253,253,253,253,253,253,253,253,253,253,253,253,253,253,253,253,253,253,253,253,253,253,253,253,253,253,253,253,253,253,253,253,253,253,253,253,253,253,253,253,253,253,253,253,253,253,253,253,253,253,253,253,253,253,253,253,253,253,
253,253,253,253,253,253,253,253,253,253,253,253,253,253,253,253,253,253,253,253,253,253,253,253,253,253,253,253,253,253,253,253,253,253,253,253,253,253,253,253,253,253,253,253,253,253,253,253,253,253,253,253,253,253,253,253,253,253,253,253,253,253,253,253,253,253,253,253,253,253,253,253,253,253,253,253,253,253,253,253,253,253,253,253,253,253,253,253,253,253,253,253,253,253,253,253,253,253,253,253,253,253,253,253,253,253,253,253,253,253,253,253,253,253,253,253,253,253,253,253,253,253,253,253,253,253,253,253,253,253,253,253,253,253,253,253,253,253,253,253,253,253,253,253,253,253,253,253,253,253,253,253,253,253,253,253,253,253,253,253,253,253,253,253,253,253,253,253,253,253,253,253,253,253,253,253,253,253,253,253,253,253,253,253,253,253,253,253,253,253,253,253,253,253,253,253,253,253,253,253,
253,253,253,253,253,253,253,253,253,253,253,253,253,253,253,253,253,253,253,253,253,253,253,253,253,253,253,253,253,253,253,253,253,253,253,253,253,253,253,253,253,253,253,253,253,253,253,253,253,253,253,253,253,253,253,253,253,253,253,253,253,253,253,253,253,253,253,253,253,253,253,253,253,253,253,253,253,253,253,253,253,253,253,253,253,253,253,253,253,253,253,253,253,253,253,253,253,253,253,253,253,253,253,253,253,253,253,253,253,253,253,253,253,253,253,253,253,253,253,253,253,253,253,253,253,253,253,253,253,253,253,253,253,253,253,253,253,253,253,253,253,253,253,253,253,253,253,253,253,253,253,253,253,253,253,253,253,253,253,253,253,253,253,253,253,253,253,253,253,253,253,253,253,253,253,253,253,253,253,253,253,253,253,253,253,253,253,253,253,253,253,253,253,253,253,253,253,253,253,253,
253,253,253,253,253,253,253,253,253,253,253,253,253,253,253,253,253,253,253,253,253,253,253,253,253,253,253,253,253,253,253,253,253,253,253,253,253,253,253,253,253,253,253,253,253,253,253,253,253,253,253,253,253,253,253,253,253,253,253,253,253,253,253,253,253,253,253,253,253,253,253,253,253,253,253,253,253,253,253,253,253,253,253,253,253,253,253,253,253,253,253,253,253,253,253,253,253,253,253,253,253,253,253,253,253,253,253,253,253,253,253,253,253,253,253,253,253,253,253,253,253,253,253,253,253,253,253,253,253,253,253,253,253,253,253,253,253,253,253,253,253,253,253,253,253,253,253,253,253,253,253,253,253,253,253,253,253,253,253,253,253,253,253,253,253,253,253,253,253,253,253,253,253,253,253,253,253,253,253,253,253,253,253,253,253,253,253,253,253,253,253,253,253,253,253,253,253,253,253,253,
253,253,253,253,253,253,253,253,253,253,253,253,253,253,253,253,253,253,253,253,253,253,253,253,253,253,253,253,253,253,253,253,253,253,253,253,253,253,253,253,253,253,253,253,253,253,253,253,253,253,253,253,253,253,253,253,253,253,253,253,253,253,253,253,253,253,253,253,253,253,253,253,253,253,253,253,253,253,253,253,253,253,253,253,253,253,253,253,253,253,253,253,253,253,253,253,253,253,253,253,253,253,253,253,253,253,253,253,253,253,253,253,253,253,253,253,253,253,253,253,253,253,253,253,253,253,253,253,253,253,253,253,253,253,253,253,253,253,253,253,253,253,253,253,253,253,253,253,253,253,253,253,253,253,253,253,253,253,253,253,253,253,253,253,253,253,253,253,253,253,253,253,253,253,253,253,253,253,253,253,253,253,253,253,253,253,253,253,253,253,253,253,253,253,253,253,253,253,253,253,
253,253,253,253,253,253,253,253,253,253,253,253,253,253,253,253,253,253,253,253,253,253,253,253,253,253,253,253,253,253,253,253,253,253,253,253,253,253,253,253,253,253,253,253,253,253,253,253,253,253,253,253,253,253,253,253,253,253,253,253,253,253,253,253,253,253,253,253,253,253,253,253,253,253,253,253,253,253,253,253,253,253,253,253,253,253,253,253,253,253,253,253,253,253,253,253,253,253,253,253,253,253,253,253,253,253,253,253,253,253,253,253,253,253,253,253,253,253,253,253,253,253,253,253,253,253,253,253,253,253,253,253,253,253,253,253,253,253,253,253,253,253,253,253,253,253,253,253,253,253,253,253,253,253,253,253,253,253,253,253,253,253,253,253,253,253,253,253,253,253,253,253,253,253,253,253,253,253,253,253,253,253,253,253,253,253,253,253,253,253,253,253,253,253,253,253,253,253,253,253
</data>
 </layer>
 <layer id="9" name="Water" width="200" height="100">
  <data encoding="csv">
0,0,0,0,0,0,0,0,0,0,0,0,0,0,0,0,0,0,0,0,0,0,0,0,0,0,0,0,0,0,0,0,0,0,0,0,0,0,0,0,0,0,0,0,0,0,0,0,0,0,0,0,0,0,0,0,0,0,0,0,0,0,0,0,0,0,0,0,0,0,0,0,0,0,0,0,0,0,0,0,0,0,0,0,0,0,0,0,0,0,0,0,0,0,0,0,0,0,0,0,0,0,0,0,0,0,0,0,0,0,0,0,0,0,0,0,0,0,0,0,0,0,0,0,0,0,0,0,0,0,0,0,0,0,0,0,0,0,0,0,0,0,0,0,0,0,0,0,0,0,0,0,0,0,0,0,0,0,0,0,0,0,0,0,0,0,0,0,0,0,0,0,0,0,0,0,0,0,0,0,0,0,0,0,0,0,0,0,0,0,0,0,0,0,0,0,0,0,0,0,
0,0,0,0,0,0,0,0,0,0,0,0,0,0,0,0,0,0,0,0,0,0,0,0,0,0,0,0,0,0,0,0,0,0,0,0,0,0,0,0,0,0,0,0,0,0,0,0,0,0,0,0,0,0,0,0,0,0,0,0,0,0,0,0,0,0,0,0,0,0,0,0,0,0,0,0,0,0,0,0,0,0,0,0,0,0,0,0,0,0,0,0,0,0,0,0,0,0,0,0,0,0,0,0,0,0,0,0,0,0,0,0,0,0,0,0,0,0,0,0,0,0,0,0,0,0,0,0,0,0,0,0,0,0,0,0,0,0,0,0,0,0,0,0,0,0,0,0,0,0,0,0,0,0,0,0,0,0,0,0,0,0,0,0,0,0,0,0,0,0,0,0,0,0,0,0,0,0,0,0,0,0,0,0,0,0,0,0,0,0,0,0,0,0,0,0,0,0,0,0,
0,0,0,0,0,0,0,0,0,0,0,0,0,0,0,0,0,0,0,0,0,0,0,0,0,0,0,0,0,0,0,0,0,0,0,0,0,0,0,0,0,0,0,0,0,0,0,0,0,0,0,0,0,0,0,0,0,0,0,0,0,0,0,0,0,0,0,0,0,0,0,0,0,0,0,0,0,0,0,0,0,0,0,0,0,0,0,0,0,0,0,0,0,0,0,0,0,0,0,0,0,0,0,0,0,0,0,0,0,0,0,0,0,0,0,0,0,0,0,0,0,0,0,0,0,0,0,0,0,0,0,0,0,0,0,0,0,0,0,0,0,0,0,0,0,0,0,0,0,0,0,0,0,0,0,0,0,0,0,0,0,0,0,0,0,0,0,0,0,0,0,0,0,0,0,0,0,0,0,0,0,0,0,0,0,0,0,0,0,0,0,0,0,0,0,0,0,0,0,0,
0,0,0,0,0,0,0,0,0,0,0,0,0,0,0,0,0,0,0,0,0,0,0,0,0,0,0,0,0,0,0,0,0,0,0,0,0,0,0,0,0,0,0,0,0,0,0,0,0,0,0,0,0,0,0,0,0,0,0,0,0,0,0,0,0,0,0,0,0,0,0,0,0,0,0,0,0,0,0,0,0,0,0,0,0,0,0,0,0,0,0,0,0,0,0,0,0,0,0,0,0,0,0,0,0,0,0,0,0,0,0,0,0,0,0,0,0,0,0,0,0,0,0,0,0,0,0,0,0,0,0,0,0,0,0,0,0,0,0,0,0,0,0,0,0,0,0,0,0,0,0,0,0,0,0,0,0,0,0,0,0,0,0,0,0,0,0,0,0,0,0,0,0,0,0,0,0,0,0,0,0,0,0,0,0,0,0,0,0,0,0,0,0,0,0,0,0,0,0,0,
0,0,0,0,0,0,0,0,0,0,0,0,0,0,0,0,0,0,0,0,0,0,0,0,0,0,0,0,0,0,0,0,0,0,0,0,0,0,0,0,0,0,0,0,0,0,0,0,0,0,0,0,0,0,0,0,0,0,0,0,0,0,0,0,0,0,0,0,0,0,0,0,0,0,0,0,0,0,0,0,0,0,0,0,0,0,0,0,0,0,0,0,0,0,0,0,0,0,0,0,0,0,0,0,0,0,0,0,0,0,0,0,0,0,0,0,0,0,0,0,0,0,0,0,0,0,0,0,0,0,0,0,0,0,0,0,0,0,0,0,0,0,0,0,0,0,0,0,0,0,0,0,0,0,0,0,0,0,0,0,0,0,0,0,0,0,0,0,0,0,0,0,0,0,0,0,0,0,0,0,0,0,0,0,0,0,0,0,0,0,0,0,0,0,0,0,0,0,0,0,
0,0,0,0,0,0,0,0,0,0,0,0,0,0,0,0,0,0,0,0,0,0,0,0,0,0,0,0,0,0,0,0,0,0,0,0,0,0,0,0,0,0,0,0,0,0,0,0,0,0,0,0,0,0,0,0,0,0,0,0,0,0,0,0,0,0,0,0,0,0,0,0,0,0,0,0,0,0,0,0,0,0,0,0,0,0,0,0,0,0,0,0,0,0,0,0,0,0,0,0,0,0,0,0,0,0,0,0,0,0,0,0,0,0,0,0,0,0,0,0,0,0,0,0,0,0,0,0,0,0,0,0,0,0,0,0,0,0,0,0,0,0,0,0,0,0,0,0,0,0,0,0,0,0,0,0,0,0,0,0,0,0,0,0,0,0,0,0,0,0,0,0,0,0,0,0,0,0,0,0,0,0,0,0,0,0,0,0,0,0,0,0,0,0,0,0,0,0,0,0,
0,0,0,0,0,0,0,0,0,0,0,0,0,0,0,0,0,0,0,0,0,0,0,0,0,0,0,0,0,0,0,0,0,0,0,0,0,0,0,0,0,0,0,0,0,0,0,0,0,0,0,0,0,0,0,0,0,0,0,0,0,0,0,0,0,0,0,0,0,0,0,0,0,0,0,0,0,0,0,0,0,0,0,0,0,0,0,0,0,0,0,0,0,0,0,0,0,0,0,0,0,0,0,0,0,0,0,0,0,0,0,0,0,0,0,0,0,0,0,0,0,0,0,0,0,0,0,0,0,0,0,0,0,0,0,0,0,0,0,0,0,0,0,0,0,0,0,0,0,0,0,0,0,0,0,0,0,0,0,0,0,0,0,0,0,0,0,0,0,0,0,0,0,0,0,0,0,0,0,0,0,0,0,0,0,0,0,0,0,0,0,0,0,0,0,0,0,0,0,0,
0,0,0,0,0,0,0,0,0,0,0,0,0,0,0,0,0,0,0,0,0,0,0,0,0,0,0,0,0,0,0,0,0,0,0,0,0,0,0,0,0,0,0,0,0,0,0,0,0,0,0,0,0,0,0,0,0,0,0,0,0,0,0,0,0,0,0,0,0,0,0,0,0,0,0,0,0,0,0,0,0,0,0,0,0,0,0,0,0,0,0,0,0,0,0,0,0,0,0,0,0,0,0,0,0,0,0,0,0,0,0,0,0,0,0,0,0,0,0,0,0,0,0,0,0,0,0,0,0,0,0,0,0,0,0,0,0,0,0,0,0,0,0,0,0,0,0,0,0,0,0,0,0,0,0,0,0,0,0,0,0,0,0,0,0,0,0,0,0,0,0,0,0,0,0,0,0,0,0,0,0,0,0,0,0,0,0,0,0,0,0,0,0,0,0,0,0,0,0,0,
0,0,0,0,0,0,0,0,0,0,0,0,0,0,0,0,0,0,0,0,0,0,0,0,0,0,0,0,0,0,0,0,0,0,0,0,0,0,0,0,0,0,0,0,0,0,0,0,0,0,0,0,0,0,0,0,0,0,0,0,0,0,0,0,0,0,0,0,0,0,0,0,0,0,0,0,0,0,0,0,0,0,0,0,0,0,0,0,0,0,0,0,0,0,0,0,0,0,0,0,0,0,0,0,0,0,0,0,0,0,0,0,0,0,0,0,0,0,0,0,0,0,0,0,0,0,0,0,0,0,0,0,0,0,0,0,0,0,0,0,0,0,0,0,0,0,0,0,0,0,0,0,0,0,0,0,0,0,0,0,0,0,0,0,0,0,0,0,0,0,0,0,0,0,0,0,0,0,0,0,0,0,0,0,0,0,0,0,0,0,0,0,0,0,0,0,0,0,0,0,
0,0,0,0,0,0,0,0,0,0,0,0,0,0,0,0,0,0,0,0,0,0,0,0,0,0,0,0,0,0,0,0,0,0,0,0,0,0,0,0,0,0,0,0,0,0,0,0,0,0,0,0,0,0,0,0,0,0,0,0,0,0,0,0,0,0,0,0,0,0,0,0,0,0,0,0,0,0,0,0,0,0,0,0,0,0,0,0,0,0,0,0,0,0,0,0,0,0,0,0,0,0,0,0,0,0,0,0,0,0,0,0,0,0,0,0,0,0,0,0,0,0,0,0,0,0,0,0,0,0,0,0,0,0,0,0,0,0,0,0,0,0,0,0,0,0,0,0,0,0,0,0,0,0,0,0,0,0,0,0,0,0,0,0,0,0,0,0,0,0,0,0,0,0,0,0,0,0,0,0,0,0,0,0,0,0,0,0,0,0,0,0,0,0,0,0,0,0,0,0,
0,0,0,0,0,0,0,0,0,0,0,0,0,0,0,0,0,0,0,0,0,0,0,0,0,0,0,0,0,0,0,0,0,0,0,0,0,0,0,0,0,0,0,0,0,0,0,0,0,0,0,0,0,0,0,0,0,0,0,0,0,0,0,0,0,0,0,0,0,0,0,0,0,0,0,0,0,0,0,0,0,0,0,0,0,0,0,0,0,0,0,0,0,0,0,0,0,0,0,0,0,0,0,0,0,0,0,0,0,0,0,0,0,0,0,0,0,0,0,0,0,0,0,0,0,0,0,0,0,0,0,0,0,0,0,0,0,0,0,0,0,0,0,0,0,0,0,0,0,0,0,0,0,0,0,0,0,0,0,0,0,0,0,0,0,0,0,0,0,0,0,0,0,0,0,0,0,0,0,0,0,0,0,0,0,0,0,0,0,0,0,0,0,0,0,0,0,0,0,0,
0,0,0,0,0,0,0,0,0,0,0,0,0,0,0,0,0,0,0,0,0,0,0,0,0,0,0,0,0,0,0,0,0,0,0,0,0,0,0,0,0,0,0,0,0,0,0,0,0,0,0,0,0,0,0,0,0,0,0,0,0,0,0,0,0,0,0,0,0,0,0,0,0,0,0,0,0,0,0,0,0,0,0,0,0,0,0,0,0,0,0,0,0,0,0,0,0,0,0,0,0,0,0,0,0,0,0,0,0,0,0,0,0,0,0,0,0,0,0,0,0,0,0,0,0,0,0,0,0,0,0,0,0,0,0,0,0,0,0,0,0,0,0,0,0,0,0,0,0,0,0,0,0,0,0,0,0,0,0,0,0,0,0,0,0,0,0,0,0,0,0,0,0,0,0,0,0,0,0,0,0,0,0,0,0,0,0,0,0,0,0,0,0,0,0,0,0,0,0,0,
0,0,0,0,0,0,0,0,0,0,0,0,0,0,0,0,0,0,0,0,0,0,0,0,0,0,0,0,0,0,0,0,0,0,0,0,0,0,0,0,0,0,0,0,0,0,0,0,0,0,0,0,0,0,0,0,0,0,0,0,0,0,0,0,0,0,0,0,0,0,0,0,0,0,0,0,0,0,0,0,0,0,0,0,0,0,0,0,0,0,0,0,0,0,0,0,0,0,0,0,0,0,0,0,0,0,0,0,0,0,0,0,0,0,0,0,0,0,0,0,0,0,0,0,0,0,0,0,0,0,0,0,0,0,0,0,0,0,0,0,0,0,0,0,0,0,0,0,0,0,0,0,0,0,0,0,0,0,0,0,0,0,0,0,0,0,0,0,0,0,0,0,0,0,0,0,0,0,0,0,0,0,0,0,0,0,0,0,0,0,0,0,0,0,0,0,0,0,0,0,
0,0,0,0,0,0,0,0,0,0,0,0,0,0,0,0,0,0,0,0,0,0,0,0,0,0,0,0,0,0,0,0,0,0,0,0,0,0,0,0,0,0,0,0,0,0,0,0,0,0,0,0,0,0,0,0,0,0,0,0,0,0,0,0,0,0,0,0,0,0,0,0,0,0,0,0,0,0,0,0,0,0,0,0,0,0,0,0,0,0,0,0,0,0,0,0,0,0,0,0,0,0,0,0,0,0,0,0,0,0,0,0,0,0,0,0,0,0,0,0,0,0,0,0,0,0,0,0,0,0,0,0,0,0,0,0,0,0,0,0,0,0,0,0,0,0,0,0,0,0,0,0,0,0,0,0,0,0,0,0,0,0,0,0,0,0,0,0,0,0,0,0,0,0,0,0,0,0,0,0,0,0,0,0,0,0,0,0,0,0,0,0,0,0,0,0,0,0,0,0,
0,0,0,0,0,0,0,0,0,0,0,0,0,0,0,0,0,0,0,0,0,0,0,0,0,0,0,0,0,0,0,0,0,0,0,0,0,0,0,0,0,0,0,0,0,0,0,0,0,0,0,0,0,0,0,0,0,0,0,0,0,0,0,0,0,0,0,0,0,0,0,0,0,0,0,0,0,0,0,0,0,0,0,0,0,0,0,0,0,0,0,0,0,0,0,0,0,0,0,0,0,0,0,0,0,0,0,0,0,0,0,0,0,0,0,0,0,0,0,0,0,0,0,0,0,0,0,0,0,0,0,0,0,0,0,0,0,0,0,0,0,0,0,0,0,0,0,0,0,0,0,0,0,0,0,0,0,0,0,0,0,0,0,0,0,0,0,0,0,0,0,0,0,0,0,0,0,0,0,0,0,0,0,0,0,0,0,0,0,0,0,0,0,0,0,0,0,0,0,0,
0,0,0,0,0,0,0,0,0,0,0,0,0,0,0,0,0,0,0,0,0,0,0,0,0,0,0,0,0,0,0,0,0,0,0,0,0,0,0,0,0,0,0,0,0,0,0,0,0,0,0,0,0,0,0,0,0,0,0,0,0,0,0,0,0,0,0,0,0,0,0,0,0,0,0,0,0,0,0,0,0,0,0,0,0,0,0,0,0,0,0,0,0,0,0,0,0,0,0,0,0,0,0,0,0,0,0,0,0,0,0,0,0,0,0,0,0,0,0,0,0,0,0,0,0,0,0,0,0,0,0,0,0,0,0,0,0,0,0,0,0,0,0,0,0,0,0,0,0,0,0,0,0,0,0,0,0,0,0,0,0,0,0,0,0,0,0,0,0,0,0,0,0,0,0,0,0,0,0,0,0,0,0,0,0,0,0,0,0,0,0,0,0,0,0,0,0,0,0,0,
0,0,0,0,0,0,0,0,0,0,0,0,0,0,0,0,0,0,0,0,0,0,0,0,0,0,0,0,0,0,0,0,0,0,0,0,0,0,0,0,0,0,0,0,0,0,0,0,0,0,0,0,0,0,0,0,0,0,0,0,0,0,0,0,0,0,0,0,0,0,0,0,0,0,0,0,0,0,0,0,0,0,0,0,0,0,0,0,0,0,0,0,0,0,0,0,0,0,0,0,0,0,0,0,0,0,0,0,0,0,0,0,0,0,0,0,0,0,0,0,0,0,0,0,0,0,0,0,0,0,0,0,0,0,0,0,0,0,0,0,0,0,0,0,0,0,0,0,0,0,0,0,0,0,0,0,0,0,0,0,0,0,0,0,0,0,0,0,0,0,0,0,0,0,0,0,0,0,0,0,0,0,0,0,0,0,0,0,0,0,0,0,0,0,0,0,0,0,0,0,
0,0,0,0,0,0,0,0,0,0,0,0,0,0,0,0,0,0,0,0,0,0,0,0,0,0,0,0,0,0,0,0,0,0,0,0,0,0,0,0,0,0,0,0,0,0,0,0,0,0,0,0,0,0,0,0,0,0,0,0,0,0,0,0,0,0,0,0,0,0,0,0,0,0,0,0,0,0,0,0,0,0,0,0,0,0,0,0,0,0,0,0,0,0,0,0,0,0,0,0,0,0,0,0,0,0,0,0,0,0,0,0,0,0,0,0,0,0,0,0,0,0,0,0,0,0,0,0,0,0,0,0,0,0,0,0,0,0,0,0,0,0,0,0,0,0,0,0,0,0,0,0,0,0,0,0,0,0,0,0,0,0,0,0,0,0,0,0,0,0,0,0,0,0,0,0,0,0,0,0,0,0,0,0,0,0,0,0,0,0,0,0,0,0,0,0,0,0,0,0,
0,0,0,0,0,0,0,0,0,0,0,0,0,0,0,0,0,0,0,0,0,0,0,0,0,0,0,0,0,0,0,0,0,0,0,0,0,0,0,0,0,0,0,0,0,0,0,0,0,0,0,0,0,0,0,0,0,0,0,0,0,0,0,0,0,0,0,0,0,0,0,0,0,0,0,0,0,0,0,0,0,0,0,0,0,0,0,0,0,0,0,0,0,0,0,0,0,0,0,0,0,0,0,0,0,0,0,0,0,0,0,0,0,0,0,0,0,0,0,0,0,0,0,0,0,0,0,0,0,0,0,0,0,0,0,0,0,0,0,0,0,0,0,0,0,0,0,0,0,0,0,0,0,0,0,0,0,0,0,0,0,0,0,0,0,0,0,0,0,0,0,0,0,0,0,0,0,0,0,0,0,0,0,0,0,0,0,0,0,0,0,0,0,0,0,0,0,0,0,0,
0,0,0,0,0,0,0,0,0,0,0,0,0,0,0,0,0,0,0,0,0,0,0,0,0,0,0,0,0,0,0,0,0,0,0,0,0,0,0,0,0,0,0,0,0,0,0,0,0,0,0,0,0,0,0,0,0,0,0,0,0,0,0,0,0,0,0,0,0,0,0,0,0,0,0,0,0,0,0,0,0,0,0,0,0,0,0,0,0,0,0,0,0,0,0,0,0,0,0,0,0,0,0,0,0,0,0,0,0,0,0,0,0,0,0,0,0,0,0,0,0,0,0,0,0,0,0,0,0,0,0,0,0,0,0,0,0,0,0,0,0,0,0,0,0,0,0,0,0,0,0,0,0,0,0,0,0,0,0,0,0,0,0,0,0,0,0,0,0,0,0,0,0,0,0,0,0,0,0,0,0,0,0,0,0,0,0,0,0,0,0,0,0,0,0,0,0,0,0,0,
0,0,0,0,0,0,0,0,0,0,0,0,0,0,0,0,0,0,0,0,0,0,0,0,0,0,0,0,0,0,0,0,0,0,0,0,0,0,0,0,0,0,0,0,0,0,0,0,0,0,0,0,0,0,0,0,0,0,0,0,0,0,0,0,0,0,0,0,0,0,0,0,0,0,0,0,0,0,0,0,0,0,0,0,0,0,0,0,0,0,0,0,0,0,0,0,0,0,0,0,0,0,0,0,0,0,0,0,0,0,0,0,0,0,0,0,0,0,0,0,0,0,0,0,0,0,0,0,0,0,0,0,0,0,0,0,0,0,0,0,0,0,0,0,0,0,0,0,0,0,0,0,0,0,0,0,0,0,0,0,0,0,0,0,0,0,0,0,0,0,0,0,0,0,0,0,0,0,0,0,0,0,0,0,0,0,0,0,0,0,0,0,0,0,0,0,0,0,0,0,
0,0,0,0,0,0,0,0,0,0,0,0,0,0,0,0,0,0,0,0,0,0,0,0,0,0,0,0,0,0,0,0,0,0,0,0,0,0,0,0,0,0,0,0,0,0,0,0,0,0,0,0,0,0,0,0,0,0,0,0,0,0,0,0,0,0,0,0,0,0,0,0,0,0,0,0,0,0,0,0,0,0,0,0,0,0,0,0,0,0,0,0,0,0,0,0,0,0,0,0,0,0,0,0,0,0,0,0,0,0,0,0,0,0,0,0,0,0,0,0,0,0,0,0,0,0,0,0,0,0,0,0,0,0,0,0,0,0,0,0,0,0,0,0,0,0,0,0,0,0,0,0,0,0,0,0,0,0,0,0,0,0,0,0,0,0,0,0,0,0,0,0,0,0,0,0,0,0,0,0,0,0,0,0,0,0,0,0,0,0,0,0,0,0,0,0,0,0,0,0,
0,0,0,0,0,0,0,0,0,0,0,0,0,0,0,0,0,0,0,0,0,0,0,0,0,0,0,0,0,0,0,0,0,0,0,0,0,0,0,0,0,0,0,0,0,0,0,0,0,0,0,0,0,0,0,0,0,0,0,0,0,0,0,0,0,0,0,0,0,0,0,0,0,0,0,0,0,0,0,0,0,0,0,0,0,0,0,0,0,0,0,0,0,0,0,0,0,0,0,0,0,0,0,0,0,0,0,0,0,0,0,0,0,0,0,0,0,0,0,0,0,0,0,0,0,0,0,0,0,0,0,0,0,0,0,0,0,0,0,0,0,0,0,0,0,0,0,0,0,0,0,0,0,0,0,0,0,0,0,0,0,0,0,0,0,0,0,0,0,0,0,0,0,0,0,0,0,0,0,0,0,0,0,0,0,0,0,0,0,0,0,0,0,0,0,0,0,0,0,0,
0,0,0,0,0,0,0,0,0,0,0,0,0,0,0,0,0,0,0,0,0,0,0,0,0,0,0,0,0,0,0,0,0,0,0,0,0,0,0,0,0,0,0,0,0,0,0,0,0,0,0,0,0,0,0,0,0,0,0,0,0,0,0,0,0,0,0,0,0,0,0,0,0,0,0,0,0,0,0,0,0,0,0,0,0,0,0,0,0,0,0,0,0,0,0,0,0,0,0,0,0,0,0,0,0,0,0,0,0,0,0,0,0,0,0,0,0,0,0,0,0,0,0,0,0,0,0,0,0,0,0,0,0,0,0,0,0,0,0,0,0,0,0,0,0,0,0,0,0,0,0,0,0,0,0,0,0,0,0,0,0,0,0,0,0,0,0,0,0,0,0,0,0,0,0,0,0,0,0,0,0,0,0,0,0,0,0,0,0,0,0,0,0,0,0,0,0,0,0,0,
0,0,0,0,0,0,0,0,0,0,0,0,0,0,0,0,0,0,0,0,0,0,0,0,0,0,0,0,0,0,0,0,0,0,0,0,0,0,0,0,0,0,0,0,0,0,0,0,0,0,0,0,0,0,0,0,0,0,0,0,0,0,0,0,0,0,0,0,0,0,0,0,0,0,0,0,0,0,0,0,0,0,0,0,0,0,0,0,0,0,0,0,0,0,0,0,0,0,0,0,0,0,0,0,0,0,0,0,0,0,0,0,0,0,0,0,0,0,0,0,0,0,0,0,0,0,0,0,0,0,0,0,0,0,0,0,0,0,0,0,0,0,0,0,0,0,0,0,0,0,0,0,0,0,0,0,0,0,0,0,0,0,0,0,0,0,0,0,0,0,0,0,0,0,0,0,0,0,0,0,0,0,0,0,0,0,0,0,0,0,0,0,0,0,0,0,0,0,0,0,
0,0,0,0,0,0,0,0,0,0,0,0,0,0,0,0,0,0,0,0,0,0,0,0,0,0,0,0,0,0,0,0,0,0,0,0,0,0,0,0,0,0,0,0,0,0,0,0,0,0,0,0,0,0,0,0,0,0,0,0,0,0,0,0,0,0,0,0,0,0,0,0,0,0,0,0,0,0,0,0,0,0,0,0,0,0,0,0,0,0,0,0,0,0,0,0,0,0,0,0,0,0,0,0,0,0,0,0,0,0,0,0,0,0,0,0,0,0,0,0,0,0,0,0,0,0,0,0,0,0,0,0,0,0,0,0,0,0,0,0,0,0,0,0,0,0,0,0,0,0,0,0,0,0,0,0,0,0,0,0,0,0,0,0,0,0,0,0,0,0,0,0,0,0,0,0,0,0,0,0,0,0,0,0,0,0,0,0,0,0,0,0,0,0,0,0,0,0,0,0,
0,0,0,0,0,0,0,0,0,0,0,0,0,0,0,0,0,0,0,0,0,0,0,0,0,0,0,0,0,0,0,0,0,0,0,0,0,0,0,0,0,0,0,0,0,0,0,0,0,0,0,0,0,0,0,0,0,0,0,0,0,0,0,0,0,0,0,0,0,0,0,0,0,0,0,0,0,0,0,0,0,0,0,0,0,0,0,0,0,0,0,0,0,0,0,0,0,0,0,0,0,0,0,0,0,0,0,0,0,0,0,0,0,0,0,0,0,0,0,0,0,0,0,0,0,0,0,0,0,0,0,0,0,0,0,0,0,0,0,0,0,0,0,0,0,0,0,0,0,0,0,0,0,0,0,0,0,0,0,0,0,0,0,0,0,0,0,0,0,0,0,0,0,0,0,0,0,0,0,0,0,0,0,0,0,0,0,0,0,0,0,0,0,0,0,0,0,0,0,0,
0,0,0,0,0,0,0,0,0,0,0,0,0,0,0,0,0,0,0,0,0,0,0,0,0,0,0,0,0,0,0,0,0,0,0,0,0,0,0,0,0,0,0,0,0,0,0,0,0,0,0,0,0,0,0,0,0,0,0,0,0,0,0,0,0,0,0,0,0,0,0,0,0,0,0,0,0,0,0,0,0,0,0,0,0,0,0,0,0,0,0,0,0,0,0,0,0,0,0,0,0,0,0,0,0,0,0,0,0,0,0,0,0,0,0,0,0,0,0,0,0,0,0,0,0,0,0,0,0,0,0,0,0,0,0,0,0,0,0,0,0,0,0,0,0,0,0,0,0,0,0,0,0,0,0,0,0,0,0,0,0,0,0,0,0,0,0,0,0,0,0,0,0,0,0,0,0,0,0,0,0,0,0,0,0,0,0,0,0,0,0,0,0,0,0,0,0,0,0,0,
0,0,0,0,0,0,0,0,0,0,0,0,0,0,0,0,0,0,0,0,0,0,0,0,0,0,0,0,0,0,0,0,0,0,0,0,0,0,0,0,0,0,0,0,0,0,0,0,0,0,0,0,0,0,0,0,0,0,0,0,0,0,0,0,0,0,0,0,0,0,0,0,0,0,0,0,0,0,0,0,0,0,0,0,0,0,0,0,0,0,0,0,0,0,0,0,0,0,0,0,0,0,0,0,0,0,0,0,0,0,0,0,0,0,0,0,0,0,0,0,0,0,0,0,0,0,0,0,0,0,0,0,0,0,0,0,0,0,0,0,0,0,0,0,0,0,0,0,0,0,0,0,0,0,0,0,0,0,0,0,0,0,0,0,0,0,0,0,0,0,0,0,0,0,0,0,0,0,0,0,0,0,0,0,0,0,0,0,0,0,0,0,0,0,0,0,0,0,0,0,
0,0,0,0,0,0,0,0,0,0,0,0,0,0,0,0,0,0,0,0,0,0,0,0,0,0,0,0,0,0,0,0,0,0,0,0,0,0,0,0,0,0,0,0,0,0,0,0,0,0,0,0,0,0,0,0,0,0,0,0,0,0,0,0,0,0,0,0,0,0,0,0,0,0,0,0,0,0,0,0,0,0,0,0,0,0,0,0,0,0,0,0,0,0,0,0,0,0,0,0,0,0,0,0,0,0,0,0,0,0,0,0,0,0,0,0,0,0,0,0,0,0,0,0,0,0,0,0,0,0,0,0,0,0,0,0,0,0,0,0,0,0,0,0,0,0,0,0,0,0,0,0,0,0,0,0,0,0,0,0,0,0,0,0,0,0,0,0,0,0,0,0,0,0,0,0,0,0,0,0,0,0,0,0,0,0,0,0,0,0,0,0,0,0,0,0,0,0,0,0,
0,0,0,0,0,0,0,0,0,0,0,0,0,0,0,0,0,0,0,0,0,0,0,0,0,0,0,0,0,0,0,0,0,0,0,0,0,0,0,0,0,0,0,0,0,0,0,0,0,0,0,0,0,0,0,0,0,0,0,0,0,0,0,0,0,0,0,0,0,0,0,0,0,0,0,0,0,0,0,0,0,0,0,0,0,0,0,0,0,0,0,0,0,0,0,0,0,0,0,0,0,0,0,0,0,0,0,0,0,0,0,0,0,0,0,0,0,0,0,0,0,0,0,0,0,0,0,0,0,0,0,0,0,0,0,0,0,0,0,0,0,0,0,0,0,0,0,0,0,0,0,0,0,0,0,0,0,0,0,0,0,0,0,0,0,0,0,0,0,0,0,0,0,0,0,0,0,0,0,0,0,0,0,0,0,0,0,0,0,0,0,0,0,0,0,0,0,0,0,0,
0,0,0,0,0,0,0,0,0,0,0,0,0,0,0,0,0,0,0,0,0,0,0,0,0,0,0,0,0,0,0,0,0,0,0,0,0,0,0,0,0,0,0,0,0,0,0,0,0,0,0,0,0,0,0,0,0,0,0,0,0,0,0,0,0,0,0,0,0,0,0,0,0,0,0,0,0,0,0,0,0,0,0,0,0,0,0,0,0,0,0,0,0,0,0,0,0,0,0,0,0,0,0,0,0,0,0,0,0,0,0,0,0,0,0,0,0,0,0,0,0,0,0,0,0,0,0,0,0,0,0,0,0,0,0,0,0,0,0,0,0,0,0,0,0,0,0,0,0,0,0,0,0,0,0,0,0,0,0,0,0,0,0,0,0,0,0,0,0,0,0,0,0,0,0,0,0,0,0,0,0,0,0,0,0,0,0,0,0,0,0,0,0,0,0,0,0,0,0,0,
0,0,0,0,0,0,0,0,0,0,0,0,0,0,0,0,0,0,0,0,0,0,0,0,0,0,0,0,0,0,0,0,0,0,0,0,0,0,0,0,0,0,0,0,0,0,0,0,0,0,0,0,0,0,0,0,0,0,0,0,0,0,0,0,0,0,0,0,0,0,0,0,0,0,0,0,0,0,0,0,0,0,0,0,0,0,0,0,0,0,0,0,0,0,0,0,0,0,0,0,0,0,0,0,0,0,0,0,0,0,0,0,0,0,0,0,0,0,0,0,0,0,0,0,0,0,0,0,0,0,0,0,0,0,0,0,0,0,0,0,0,0,0,0,0,0,0,0,0,0,0,0,0,0,0,0,0,0,0,0,0,0,0,0,0,0,0,0,0,0,0,0,0,0,0,0,0,0,0,0,0,0,0,0,0,0,0,0,0,0,0,0,0,0,0,0,0,0,0,0,
0,0,0,0,0,0,0,0,0,0,0,0,0,0,0,0,0,0,0,0,0,0,0,0,0,0,0,0,0,0,0,0,0,0,0,0,0,0,0,0,0,0,0,0,0,0,0,0,0,0,0,0,0,0,0,0,0,0,0,0,0,0,0,0,0,0,0,0,0,0,0,0,0,0,0,0,0,0,0,0,0,0,0,0,0,0,0,0,0,0,0,0,0,0,0,0,0,0,0,0,0,0,0,0,0,0,0,0,0,0,0,0,0,0,0,0,0,0,0,0,0,0,0,0,0,0,0,0,0,0,0,0,0,0,0,0,0,0,0,0,0,0,0,0,0,0,0,0,0,0,0,0,0,0,0,0,0,0,0,0,0,0,0,0,0,0,0,0,0,0,0,0,0,0,0,0,0,0,0,0,0,0,0,0,0,0,0,0,0,0,0,0,0,0,0,0,0,0,0,0,
0,0,0,0,0,0,0,0,0,0,0,0,0,0,0,0,0,0,0,0,0,0,0,0,0,0,0,0,0,0,0,0,0,0,0,0,0,0,0,0,0,0,0,0,0,0,0,0,0,0,0,0,0,0,0,0,0,0,0,0,0,0,0,0,0,0,0,0,0,0,0,0,0,0,0,0,0,0,0,0,0,0,0,0,0,0,0,0,0,0,0,0,0,0,0,0,0,0,0,0,0,0,0,0,0,0,0,0,0,0,0,0,0,0,0,0,0,0,0,0,0,0,0,0,0,0,0,0,0,0,0,0,0,0,0,0,0,0,0,0,0,0,0,0,0,0,0,0,0,0,0,0,0,0,0,0,0,0,0,0,0,0,0,0,0,0,0,0,0,0,0,0,0,0,0,0,0,0,0,0,0,0,0,0,0,0,0,0,0,0,0,0,0,0,0,0,0,0,0,0,
0,0,0,0,0,0,0,0,0,0,0,0,0,0,0,0,0,0,0,0,0,0,0,0,0,0,0,0,0,0,0,0,0,0,0,0,0,0,0,0,0,0,0,0,0,0,0,0,0,0,0,0,0,0,0,0,0,0,0,0,0,0,0,0,0,0,0,0,0,0,0,0,0,0,0,0,0,0,0,0,0,0,0,0,0,0,0,0,0,0,0,0,0,0,0,0,0,0,0,0,0,0,0,0,0,0,0,0,0,0,0,0,0,0,0,0,0,0,0,0,0,0,0,0,0,0,0,0,0,0,0,0,0,0,0,0,0,0,0,0,0,0,0,0,0,0,0,0,0,0,0,0,0,0,0,0,0,0,0,0,0,0,0,0,0,0,0,0,0,0,0,0,0,0,0,0,0,0,0,0,0,0,0,0,0,0,0,0,0,0,0,0,0,0,0,0,0,0,0,0,
0,0,0,0,0,0,0,0,0,0,0,0,0,0,0,0,0,0,0,0,0,0,0,0,0,0,0,0,0,0,0,0,0,0,0,0,0,0,0,0,0,0,0,0,0,0,0,0,0,0,0,0,0,0,0,0,0,0,0,0,0,0,0,0,0,0,0,0,0,0,0,0,0,0,0,0,0,0,0,0,0,0,0,0,0,0,0,0,0,0,0,0,0,0,0,0,0,0,0,0,0,0,0,0,0,0,0,0,0,0,0,0,0,0,0,0,0,0,0,0,0,0,0,0,0,0,0,0,0,0,0,0,0,0,0,0,0,0,0,0,0,0,0,0,0,0,0,0,0,0,0,0,0,0,0,0,0,0,0,0,0,0,0,0,0,0,0,0,0,0,0,0,0,0,0,0,0,0,0,0,0,0,0,0,0,0,0,0,0,0,0,0,0,0,0,0,0,0,0,0,
0,0,0,0,0,0,0,0,0,0,0,0,0,0,0,0,0,0,0,0,0,0,0,0,0,0,0,0,0,0,0,0,0,0,0,0,0,0,0,0,0,0,0,0,0,0,0,0,0,0,0,0,0,0,0,0,0,0,0,0,0,0,0,0,0,0,0,0,0,0,0,0,0,0,0,0,0,0,0,0,0,0,0,0,0,0,0,0,0,0,0,0,0,0,0,0,0,0,0,0,0,0,0,0,0,0,0,0,0,0,0,0,0,0,0,0,0,0,0,0,0,0,0,0,0,0,0,0,0,0,0,0,0,0,0,0,0,0,0,0,0,0,0,0,0,0,0,0,0,0,0,0,0,0,0,0,0,0,0,0,0,0,0,0,0,0,0,0,0,0,0,0,0,0,0,0,0,0,0,0,0,0,0,0,0,0,0,0,0,0,0,0,0,0,0,0,0,0,0,0,
0,0,0,0,0,0,0,0,0,0,0,0,0,0,0,0,0,0,0,0,0,0,0,0,0,0,0,0,0,0,0,0,0,0,0,0,0,0,0,0,0,0,0,0,0,0,0,0,0,0,0,0,0,0,0,0,0,0,0,0,0,0,0,0,0,0,0,0,0,0,0,0,0,0,0,0,0,0,0,0,0,0,0,0,0,0,0,0,0,0,0,0,0,0,0,0,0,0,0,0,0,0,0,0,0,0,0,0,0,0,0,0,0,0,0,0,0,0,0,0,0,0,0,0,0,0,0,0,0,0,0,0,0,0,0,0,0,0,0,0,0,0,0,0,0,0,0,0,0,0,0,0,0,0,0,0,0,0,0,0,0,0,0,0,0,0,0,0,0,0,0,0,0,0,0,0,0,0,0,0,0,0,0,0,0,0,0,0,0,0,0,0,0,0,0,0,0,0,0,0,
0,0,0,0,0,0,0,0,0,0,0,0,0,0,0,0,0,0,0,0,0,0,0,0,0,0,0,0,0,0,0,0,0,0,0,0,0,0,0,0,0,0,0,0,0,0,0,0,0,0,0,0,0,0,0,0,0,0,0,0,0,0,0,0,0,0,0,0,0,0,0,0,0,0,0,0,0,0,0,0,0,0,0,0,0,0,0,0,0,0,0,0,0,0,0,0,0,0,0,0,0,0,0,0,0,0,0,0,0,0,0,0,0,0,0,0,0,0,0,0,0,0,0,0,0,0,0,0,0,0,0,0,0,0,0,0,0,0,0,0,0,0,0,0,0,0,0,0,0,0,0,0,0,0,0,0,0,0,0,0,0,0,0,0,0,0,0,0,0,0,0,0,0,0,0,0,0,0,0,0,0,0,0,0,0,0,0,0,0,0,0,0,0,0,0,0,0,0,0,0,
0,0,0,0,0,0,0,0,0,0,0,0,0,0,0,0,0,0,0,0,0,0,0,0,0,0,0,0,0,0,0,0,0,0,0,0,0,0,0,0,0,0,0,0,0,0,0,0,0,0,0,0,0,0,0,0,0,0,0,0,0,0,0,0,0,0,0,0,0,0,0,0,0,0,0,0,0,0,0,0,0,0,0,0,0,0,0,0,0,0,0,0,0,0,0,0,0,0,0,0,0,0,0,0,0,0,0,0,0,0,0,0,0,0,0,0,0,0,0,0,0,0,0,0,0,0,0,0,0,0,0,0,0,0,0,0,0,0,0,0,0,0,0,0,0,0,0,0,0,0,0,0,0,0,0,0,0,0,0,0,0,0,0,0,0,0,0,0,0,0,0,0,0,0,0,0,0,0,0,0,0,0,0,0,0,0,0,0,0,0,0,0,0,0,0,0,0,0,0,0,
0,0,0,0,0,0,0,0,0,0,0,0,0,0,0,0,0,0,0,0,0,0,0,0,0,0,0,0,0,0,0,0,0,0,0,0,0,0,0,0,0,0,0,0,0,0,0,0,0,0,0,0,0,0,0,0,0,0,0,0,0,0,0,0,0,0,0,0,0,0,0,0,0,0,0,0,0,0,0,0,0,0,0,0,0,0,0,0,0,0,0,0,0,0,0,0,0,0,0,0,0,0,0,0,0,0,0,0,0,0,0,0,0,0,0,0,0,0,0,0,0,0,0,0,0,0,0,0,0,0,0,0,0,0,0,0,0,0,0,0,0,0,0,0,0,0,0,0,0,0,0,0,0,0,0,0,0,0,0,0,0,0,0,0,0,0,0,0,0,0,0,0,0,0,0,0,0,0,0,0,0,0,0,0,0,0,0,0,0,0,0,0,0,0,0,0,0,0,0,0,
0,0,0,0,0,0,0,0,0,0,0,0,0,0,0,0,0,0,0,0,0,0,0,0,0,0,0,0,0,0,0,0,0,0,0,0,0,0,0,0,0,0,0,0,0,0,0,0,0,0,0,0,0,0,0,0,0,0,0,0,0,0,0,0,0,0,0,0,0,0,0,0,0,0,0,0,0,0,0,0,0,0,0,0,0,0,0,0,0,0,0,0,0,0,0,0,0,0,0,0,0,0,0,0,0,0,0,0,0,0,0,0,0,0,0,0,0,0,0,0,0,0,0,0,0,0,0,0,0,0,0,0,0,0,0,0,0,0,0,0,0,0,0,0,0,0,0,0,0,0,0,0,0,0,0,0,0,0,0,0,0,0,0,0,0,0,0,0,0,0,0,0,0,0,0,0,0,0,0,0,0,0,0,0,0,0,0,0,0,0,0,0,0,0,0,0,0,0,0,0,
0,0,0,0,0,0,0,0,0,0,0,0,0,0,0,0,0,0,0,0,0,0,0,0,0,0,0,0,0,0,0,0,0,0,0,0,0,0,0,0,0,0,0,0,0,0,0,0,0,0,0,0,0,0,0,0,0,0,0,0,0,0,0,0,0,0,0,0,0,0,0,0,0,0,0,0,0,0,0,0,0,0,0,0,0,0,0,0,0,0,0,0,0,0,0,0,0,0,0,0,0,0,0,0,0,0,0,0,0,0,0,0,0,0,0,0,0,0,0,0,0,0,0,0,0,0,0,0,0,0,0,0,0,0,0,0,0,0,0,0,0,0,0,0,0,0,0,0,0,0,0,0,0,0,0,0,0,0,0,0,0,0,0,0,0,0,0,0,0,0,0,0,0,0,0,0,0,0,0,0,0,0,0,0,0,0,0,0,0,0,0,0,0,0,0,0,0,0,0,0,
0,0,0,0,0,0,0,0,0,0,0,0,0,0,0,0,0,0,0,0,0,0,0,0,0,0,0,0,0,0,0,0,0,0,0,0,0,0,0,0,0,0,0,0,0,0,0,0,0,0,0,0,0,0,0,0,0,0,0,0,0,0,0,0,0,0,0,0,0,0,0,0,0,0,0,0,0,0,0,0,0,0,0,0,0,0,0,0,0,0,0,0,0,0,0,0,0,0,0,0,0,0,0,0,0,0,0,0,0,0,0,0,0,0,0,0,0,0,0,0,0,0,0,0,0,0,0,0,0,0,0,0,0,0,0,0,0,0,0,0,0,0,0,0,0,0,0,0,0,0,0,0,0,0,0,0,0,0,0,0,0,0,0,0,0,0,0,0,0,0,0,0,0,0,0,0,0,0,0,0,0,0,0,0,0,0,0,0,0,0,0,0,0,0,0,0,0,0,0,0,
0,0,0,0,0,0,0,0,0,0,0,0,0,0,0,0,0,0,0,0,0,0,0,0,0,0,0,0,0,0,0,0,0,0,0,0,0,0,0,0,0,0,0,0,0,0,0,0,0,0,0,0,0,0,0,0,0,0,0,0,0,0,0,0,0,0,0,0,0,0,0,0,0,0,0,0,0,0,0,0,0,0,0,0,0,0,0,0,0,0,0,0,0,0,0,0,0,0,0,0,0,0,0,0,0,0,0,0,0,0,0,0,0,0,0,0,0,0,0,0,0,0,0,0,0,0,0,0,0,0,0,0,0,0,0,0,0,0,0,0,0,0,0,0,0,0,0,0,0,0,0,0,0,0,0,0,0,0,0,0,0,0,0,0,0,0,0,0,0,0,0,0,0,0,0,0,0,0,0,0,0,0,0,0,0,0,0,0,0,0,0,0,0,0,0,0,0,0,0,0,
0,0,0,0,0,0,0,0,0,0,0,0,0,0,0,0,0,0,0,0,0,0,0,0,0,0,0,0,0,0,0,0,0,0,0,0,0,0,0,0,0,0,0,0,0,0,0,0,0,0,0,0,0,0,0,0,0,0,0,0,0,0,0,0,0,0,0,0,0,0,0,0,0,0,0,0,0,0,0,0,0,0,0,0,0,0,0,0,0,0,0,0,0,0,0,0,0,0,0,0,0,0,0,0,0,0,0,0,0,0,0,0,0,0,0,0,0,0,0,0,0,0,0,0,0,0,0,0,0,0,0,0,0,0,0,0,0,0,0,0,0,0,0,0,0,0,0,0,0,0,0,0,0,0,0,0,0,0,0,0,0,0,0,0,0,0,0,0,0,0,0,0,0,0,0,0,0,0,0,0,0,0,0,0,0,0,0,0,0,0,0,0,0,0,0,0,0,0,0,0,
0,0,0,0,0,0,0,0,0,0,0,0,0,0,0,0,0,0,0,0,0,0,0,0,0,0,0,0,0,0,0,0,0,0,0,0,0,0,0,0,0,0,0,0,0,0,0,0,0,0,0,0,0,0,0,0,0,0,0,0,0,0,0,0,0,0,0,0,0,0,0,0,0,0,0,0,0,0,0,0,0,0,0,0,0,0,0,0,0,0,0,0,0,0,0,0,0,0,0,0,0,0,0,0,0,0,0,0,0,0,0,0,0,0,0,0,0,0,0,0,0,0,0,0,0,0,0,0,0,0,0,0,0,0,0,0,0,0,0,0,0,0,0,0,0,0,0,0,0,0,0,0,0,0,0,0,0,0,0,0,0,0,0,0,0,0,0,0,0,0,0,0,0,0,0,0,0,0,0,0,0,0,0,0,0,0,0,0,0,0,0,0,0,0,0,0,0,0,0,0,
0,0,0,0,0,0,0,0,0,0,0,0,0,0,0,0,0,0,0,0,0,0,0,0,0,0,0,0,0,0,0,0,0,0,0,0,0,0,0,0,0,0,0,0,0,0,0,0,0,0,0,0,0,0,0,0,0,0,0,0,0,0,0,0,0,0,0,0,0,0,0,0,0,0,0,0,0,0,0,0,0,0,0,0,0,0,0,0,0,0,0,0,0,0,0,0,0,0,0,0,0,0,0,0,0,0,0,0,0,0,0,0,0,0,0,0,0,0,0,0,0,0,0,0,0,0,0,0,0,0,0,0,0,0,0,0,0,0,0,0,0,0,0,0,0,0,0,0,0,0,0,0,0,0,0,0,0,0,0,0,0,0,0,0,0,0,0,0,0,0,0,0,0,0,0,0,0,0,0,0,0,0,0,0,0,0,0,0,0,0,0,0,0,0,0,0,0,0,0,0,
0,0,0,0,0,0,0,0,0,0,0,0,0,0,0,0,0,0,0,0,0,0,0,0,0,0,0,0,0,0,0,0,0,0,0,0,0,0,0,0,0,0,0,0,0,0,0,0,0,0,0,0,0,0,0,0,0,0,0,0,0,0,0,0,0,0,0,0,0,0,0,0,0,0,0,0,0,0,0,0,0,0,0,0,0,0,0,0,0,0,0,0,0,0,0,0,0,0,0,0,0,0,0,0,0,0,0,0,0,0,0,0,0,0,0,0,0,0,0,0,0,0,0,0,0,0,0,0,0,0,0,0,0,0,0,0,0,0,0,0,0,0,0,0,0,0,0,0,0,0,0,0,0,0,0,0,0,0,0,0,0,0,0,0,0,0,0,0,0,0,0,0,0,0,0,0,0,0,0,0,0,0,0,0,0,0,0,0,0,0,0,0,0,0,0,0,0,0,0,0,
0,0,0,0,0,0,0,0,0,0,0,0,0,0,0,0,0,0,0,0,0,0,0,0,0,0,0,0,0,0,0,0,0,0,0,0,0,0,0,0,0,0,0,0,0,0,0,0,0,0,0,0,0,0,0,0,0,0,0,0,0,0,0,0,0,0,0,0,0,0,0,0,0,0,0,0,0,0,0,0,0,0,0,0,0,0,0,0,0,0,0,0,0,0,0,0,0,0,0,0,0,0,0,0,0,0,0,0,0,0,0,0,0,0,0,0,0,0,0,0,0,0,0,0,0,0,0,0,0,0,0,0,0,0,0,0,0,0,0,0,0,0,0,0,0,0,0,0,0,0,0,0,0,0,0,0,0,0,0,0,0,0,0,0,0,0,0,0,0,0,0,0,0,0,0,0,0,0,0,0,0,0,0,0,0,0,0,0,0,0,0,0,0,0,0,0,0,0,0,0,
0,0,0,0,0,0,0,0,0,0,0,0,0,0,0,0,0,0,0,0,0,0,0,0,0,0,0,0,0,0,0,0,0,0,0,0,0,0,0,0,0,0,0,0,0,0,0,0,0,0,0,0,0,0,0,0,0,0,0,0,0,0,0,0,0,0,0,0,0,0,0,0,0,0,0,0,0,0,0,0,0,0,0,0,0,0,0,0,0,0,0,0,0,0,0,0,0,0,0,0,0,0,0,0,0,0,0,0,0,0,0,0,0,0,0,0,0,0,0,0,0,0,0,0,0,0,0,0,0,0,0,0,0,0,0,0,0,0,0,0,0,0,0,0,0,0,0,0,0,0,0,0,0,0,0,0,0,0,0,0,0,0,0,0,0,0,0,0,0,0,0,0,0,0,0,0,0,0,0,0,0,0,0,0,0,0,0,0,0,0,0,0,0,0,0,0,0,0,0,0,
0,0,0,0,0,0,0,0,0,0,0,0,0,0,0,0,0,0,0,0,0,0,0,0,0,0,0,0,0,0,0,0,0,0,0,0,0,0,0,0,0,0,0,0,0,0,0,0,0,0,0,0,0,0,0,0,0,0,0,0,0,0,0,0,0,0,0,0,0,0,0,0,0,0,0,0,0,0,0,0,0,0,0,0,0,0,0,0,0,0,0,0,0,0,0,0,0,0,0,0,0,0,0,0,0,0,0,0,0,0,0,0,0,0,0,0,0,0,0,0,0,0,0,0,0,0,0,0,0,0,0,0,0,0,0,0,0,0,0,0,0,0,0,0,0,0,0,0,0,0,0,0,0,0,0,0,0,0,0,0,0,0,0,0,0,0,0,0,0,0,0,0,0,0,0,0,0,0,0,0,0,0,0,0,0,0,0,0,0,0,0,0,0,0,0,0,0,0,0,0,
0,0,0,0,0,0,0,0,0,0,0,0,0,0,0,0,0,0,0,0,0,0,0,0,0,0,0,0,0,0,0,0,0,0,0,0,0,0,0,0,0,0,0,0,0,0,0,0,0,0,0,0,0,0,0,0,0,0,0,0,0,0,0,0,0,0,0,0,0,0,0,0,0,0,0,0,0,0,0,0,0,0,0,0,0,0,0,0,0,0,0,0,0,0,0,0,0,0,0,0,0,0,0,0,0,0,0,0,0,0,0,0,0,0,0,0,0,0,0,0,0,0,0,0,0,0,0,0,0,0,0,0,0,0,0,0,0,0,0,0,0,0,0,0,0,0,0,0,0,0,0,0,0,0,0,0,0,0,0,0,0,0,0,0,0,0,0,0,0,0,0,0,0,0,0,0,0,0,0,0,0,0,0,0,0,0,0,0,0,0,0,0,0,0,0,0,0,0,0,0,
0,0,0,0,0,0,0,0,0,0,0,0,0,0,0,0,0,0,0,0,0,0,0,0,0,0,0,0,0,0,0,0,0,0,0,0,0,0,0,0,0,0,0,0,0,0,0,0,0,0,0,0,0,0,0,0,0,0,0,0,0,0,0,0,0,0,0,0,0,0,0,0,0,0,0,0,0,0,0,0,0,0,0,0,0,0,0,0,0,0,0,0,0,0,0,0,0,0,0,0,0,0,0,0,0,0,0,0,0,0,0,0,0,0,0,0,0,0,0,0,0,0,0,0,0,0,0,0,0,0,0,0,0,0,0,0,0,0,0,0,0,0,0,0,0,0,0,0,0,0,0,0,0,0,0,0,0,0,0,0,0,0,0,0,0,0,0,0,0,0,0,0,0,0,0,0,0,0,0,0,0,0,0,0,0,0,0,0,0,0,0,0,0,0,0,0,0,0,0,0,
0,0,0,0,0,0,0,0,0,0,0,0,0,0,0,0,0,0,0,0,0,0,0,0,0,0,0,0,0,0,0,0,0,0,0,0,0,0,0,0,0,0,0,0,0,0,0,0,0,0,0,0,0,0,0,0,0,0,0,0,0,0,0,0,0,0,0,0,0,0,0,0,0,0,0,0,0,0,0,0,0,0,0,0,0,0,0,0,0,0,0,0,0,0,0,0,0,0,0,0,0,0,0,0,0,0,0,0,0,0,0,0,0,0,0,0,0,0,0,0,0,0,0,0,0,0,0,0,0,0,0,0,0,0,0,0,0,0,0,0,0,0,0,0,0,0,0,0,0,0,0,0,0,0,0,0,0,0,0,0,0,0,0,0,0,0,0,0,0,0,0,0,0,0,0,0,0,0,0,0,0,0,0,0,0,0,0,0,0,0,0,0,0,0,0,0,0,0,0,0,
0,0,0,0,0,0,0,0,0,0,0,0,0,0,0,0,0,0,0,0,0,0,0,0,0,0,0,0,0,0,0,0,0,0,0,0,0,0,0,0,0,0,0,0,0,0,0,0,0,0,0,0,0,0,0,0,0,0,0,0,0,0,0,0,0,0,0,0,0,0,0,0,0,0,0,0,0,0,0,0,0,0,0,0,0,0,0,0,0,0,0,0,0,0,0,0,0,0,0,0,0,0,0,0,0,0,0,0,0,0,0,0,0,0,0,0,0,0,0,0,0,0,0,0,0,0,0,0,0,0,0,0,0,0,0,0,0,0,0,0,0,0,0,0,0,0,0,0,0,0,0,0,0,0,0,0,0,0,0,0,0,0,0,0,0,0,0,0,0,0,0,0,0,0,0,0,0,0,0,0,0,0,0,0,0,0,0,0,0,0,0,0,0,0,0,0,0,0,0,0,
0,0,0,0,0,0,0,0,0,0,0,0,0,0,0,0,0,0,0,0,0,0,0,0,0,0,0,0,0,0,0,0,0,0,0,0,0,0,0,0,0,0,0,0,0,0,0,0,0,0,0,0,0,0,0,0,0,0,0,0,0,0,0,0,0,0,0,0,0,0,0,0,0,0,0,0,0,0,0,0,0,0,0,0,0,0,0,0,0,0,0,0,0,0,0,0,0,0,0,0,0,0,0,0,0,0,0,0,0,0,0,0,0,0,0,0,0,0,0,0,0,0,0,0,0,0,0,0,0,0,0,0,0,0,0,0,0,0,0,0,0,0,0,0,0,0,0,0,0,0,0,0,0,0,0,0,0,0,0,0,0,0,0,0,0,0,0,0,0,0,0,0,0,0,0,0,0,0,0,0,0,0,0,0,0,0,0,0,0,0,0,0,0,0,0,0,0,0,0,0,
0,0,0,0,0,0,0,0,0,0,0,0,0,0,0,0,0,0,0,0,0,0,0,0,0,0,0,0,0,0,0,0,0,0,0,0,0,0,0,0,0,0,0,0,0,0,0,0,0,0,0,0,0,0,0,0,0,0,0,0,0,0,0,0,0,0,0,0,0,0,0,0,0,0,0,0,0,0,0,0,0,0,0,0,0,0,0,0,0,0,0,0,0,0,0,0,0,0,0,0,0,0,0,0,0,0,0,0,0,0,0,0,0,0,0,0,0,0,0,0,0,0,0,0,0,0,0,0,0,0,0,0,0,0,0,0,0,0,0,0,0,0,0,0,0,0,0,0,0,0,0,0,0,0,0,0,0,0,0,0,0,0,0,0,0,0,0,0,0,0,0,0,0,0,0,0,0,0,0,0,0,0,0,0,0,0,0,0,0,0,0,0,0,0,0,0,0,0,0,0,
0,0,0,0,0,0,0,0,0,0,0,0,0,0,0,0,0,0,0,0,0,0,0,0,0,0,0,0,0,0,0,0,0,0,0,0,0,0,0,0,0,0,0,0,0,0,0,0,0,0,0,0,0,0,0,0,0,0,0,0,0,0,0,0,0,0,0,0,0,0,0,0,0,0,0,0,0,0,0,0,0,0,0,0,0,0,0,0,0,0,0,0,0,0,0,0,0,0,0,0,0,0,0,0,0,0,0,0,0,0,0,0,0,0,0,0,0,0,0,0,0,0,0,0,0,0,0,0,0,0,0,0,0,0,0,0,0,0,0,0,0,0,0,0,0,0,0,0,0,0,0,0,0,0,0,0,0,0,0,0,0,0,0,0,0,0,0,0,0,0,0,0,0,0,0,0,0,0,0,0,0,0,0,0,0,0,0,0,0,0,0,0,0,0,0,0,0,0,0,0,
0,0,0,0,0,0,0,0,0,0,0,0,0,0,0,0,0,0,0,0,0,0,0,0,0,0,0,0,0,0,0,0,0,0,0,0,0,0,0,0,0,0,0,0,0,0,0,0,0,0,0,0,0,0,0,0,0,0,0,0,0,0,0,0,0,0,0,0,0,0,0,0,0,0,0,0,0,0,0,0,0,0,0,0,0,0,0,0,0,0,0,0,0,0,0,0,0,0,0,0,0,0,0,0,0,0,0,0,0,0,0,0,0,0,0,0,0,0,0,0,0,0,0,0,0,0,0,0,0,0,0,0,0,0,0,0,0,0,0,0,0,0,0,0,0,0,0,0,0,0,0,0,0,0,0,0,0,0,0,0,0,0,0,0,0,0,0,0,0,0,0,0,0,0,0,0,0,0,0,0,0,0,0,0,0,0,0,0,0,0,0,0,0,0,0,0,0,0,0,0,
0,0,0,0,0,0,0,0,0,0,0,0,0,0,0,0,0,0,0,0,0,0,0,0,0,0,0,0,0,0,0,0,0,0,0,0,0,0,0,0,0,0,0,0,0,0,0,0,0,0,0,0,0,0,0,0,0,0,0,0,0,0,0,0,0,0,0,0,0,0,0,0,0,0,0,0,0,0,0,0,0,0,0,0,0,0,0,0,0,0,0,0,0,0,0,0,0,0,0,0,0,0,0,0,0,0,0,0,0,0,0,0,0,0,0,0,0,0,0,0,0,0,0,0,0,0,0,0,0,0,0,0,0,0,0,0,0,0,0,0,0,0,0,0,0,0,0,0,0,0,0,0,0,0,0,0,0,0,0,0,0,0,0,0,0,0,0,0,0,0,0,0,0,0,0,0,0,0,0,0,0,0,0,0,0,0,0,0,0,0,0,0,0,0,0,0,0,0,0,0,
0,0,0,0,0,0,0,0,0,0,0,0,0,0,0,0,0,0,0,0,0,0,0,0,0,0,0,0,0,0,0,0,0,0,0,0,0,0,0,0,0,0,0,0,0,0,0,0,0,0,0,0,0,0,0,0,0,0,0,0,0,0,0,0,0,0,0,0,0,0,0,0,0,0,0,0,0,0,0,0,0,0,0,0,0,0,0,0,0,0,0,0,0,0,0,0,0,0,0,0,0,0,0,0,0,0,0,0,0,0,0,0,0,0,0,0,0,0,0,0,0,0,0,0,0,0,0,0,0,0,0,0,0,0,0,0,0,0,0,0,0,0,0,0,0,0,0,0,0,0,0,0,0,0,0,0,0,0,0,0,0,0,0,0,0,0,0,0,0,0,0,0,0,0,0,0,0,0,0,0,0,0,0,0,0,0,0,0,0,0,0,0,0,0,0,0,0,0,0,0,
0,0,0,0,0,0,0,0,0,0,0,0,0,0,0,0,0,0,0,0,0,0,0,0,0,0,0,0,0,0,0,0,0,0,0,0,0,0,0,0,0,0,0,0,0,0,0,0,0,0,0,0,0,0,0,0,0,0,0,0,0,0,0,0,0,0,0,0,0,0,0,0,0,0,0,0,0,0,0,0,0,0,0,0,0,0,0,0,0,0,0,0,0,0,0,0,0,0,0,0,0,0,0,0,0,0,0,0,0,0,0,0,0,0,0,0,0,0,0,0,0,0,0,0,0,0,0,0,0,0,0,0,0,0,0,0,0,0,0,0,0,0,0,0,0,0,0,0,0,0,0,0,0,0,0,0,0,0,0,0,0,0,0,0,0,0,0,0,0,0,0,0,0,0,0,0,0,0,0,0,0,0,0,0,0,0,0,0,0,0,0,0,0,0,0,0,0,0,0,0,
0,0,0,0,0,0,0,0,0,0,0,0,0,0,0,0,0,0,0,0,0,0,0,0,0,0,0,0,0,0,0,0,0,0,0,0,0,0,0,0,0,0,0,0,0,0,0,0,0,0,0,0,0,0,0,0,0,0,0,0,0,0,0,0,0,0,0,0,0,0,0,0,0,0,0,0,0,0,0,0,0,0,0,0,0,0,0,0,0,0,0,0,0,0,0,0,0,0,0,0,0,0,0,0,0,0,0,0,0,0,0,0,0,0,0,0,0,0,0,0,0,0,0,0,0,0,0,0,0,0,0,0,0,0,0,0,0,0,0,0,0,0,0,0,0,0,0,0,0,0,0,0,0,0,0,0,0,0,0,0,0,0,0,0,0,0,0,0,0,0,0,0,0,0,0,0,0,0,0,0,0,0,0,0,0,0,0,0,0,0,0,0,0,0,0,0,0,0,0,0,
0,0,0,0,0,0,0,0,0,0,0,0,0,0,0,0,0,0,0,0,0,0,0,0,0,0,0,0,0,0,0,0,0,0,0,0,0,0,0,0,0,0,0,0,0,0,0,0,0,0,0,0,0,0,0,0,0,0,0,0,0,0,0,0,0,0,0,0,0,0,0,0,0,0,0,0,0,0,0,0,0,0,0,0,0,0,0,0,0,0,0,0,0,0,0,0,0,0,0,0,0,0,0,0,0,0,0,0,0,0,0,0,0,0,0,0,0,0,0,0,0,0,0,0,0,0,0,0,0,0,0,0,0,0,0,0,0,0,0,0,0,0,0,0,0,0,0,0,0,0,0,0,0,0,0,0,0,0,0,0,0,0,0,0,0,0,0,0,0,0,0,0,0,0,0,0,0,0,0,0,0,0,0,0,0,0,0,0,0,0,0,0,0,0,0,0,0,0,0,0,
0,0,0,0,0,0,0,0,0,0,0,0,0,0,0,0,0,0,0,0,0,0,0,0,0,0,0,0,0,0,0,0,0,0,0,0,0,0,0,0,0,0,0,0,0,0,0,0,0,0,0,0,0,0,0,0,0,0,0,0,0,0,0,0,0,0,0,0,0,0,0,0,0,0,0,0,0,0,0,0,0,0,0,0,0,0,0,0,0,0,0,0,0,0,0,0,0,0,0,0,0,0,0,0,0,0,0,0,0,0,0,0,0,0,0,0,0,0,0,0,0,0,0,0,0,0,0,0,0,0,0,0,0,0,0,0,0,0,0,0,0,0,0,0,0,0,0,0,0,0,0,0,0,0,0,0,0,0,0,0,0,0,0,0,0,0,0,0,0,0,0,0,0,0,0,0,0,0,0,0,0,0,0,0,0,0,0,0,0,0,0,0,0,0,0,0,0,0,0,0,
0,0,0,0,0,0,0,0,0,0,0,0,0,0,0,0,0,0,0,0,0,0,0,0,0,0,0,0,0,0,0,0,0,0,0,0,0,0,0,0,0,0,0,0,0,0,0,0,0,0,0,0,0,0,0,0,0,0,0,0,0,0,0,0,0,0,0,0,0,0,0,0,0,0,0,0,0,0,0,0,0,0,0,0,0,0,0,0,0,0,0,0,0,0,0,0,0,0,0,0,0,0,0,0,0,0,0,0,0,0,0,0,0,0,0,0,0,0,0,0,0,0,0,0,0,0,0,0,0,0,0,0,0,0,0,0,0,0,0,0,0,0,0,0,0,0,0,0,0,0,0,0,0,0,0,0,0,0,0,0,0,0,0,0,0,0,0,0,0,0,0,0,0,0,0,0,0,0,0,0,0,0,0,0,0,0,0,0,0,0,0,0,0,0,0,0,0,0,0,0,
0,0,0,0,0,0,0,0,0,0,0,0,0,0,0,0,0,0,0,0,0,0,0,0,0,0,0,0,0,0,0,0,0,0,0,0,0,0,0,0,0,0,0,0,0,0,0,0,0,0,0,0,0,0,0,0,0,0,0,0,0,0,0,0,0,0,0,0,0,0,0,0,0,0,0,0,0,0,0,0,0,0,0,0,0,0,0,0,0,0,0,0,0,0,0,0,0,0,0,0,0,0,0,0,0,0,0,0,0,0,0,0,0,0,0,0,0,0,0,0,0,0,0,0,0,0,0,0,0,0,0,0,0,0,0,0,0,0,0,0,0,0,0,0,0,0,0,0,0,0,0,0,0,0,0,0,0,0,0,0,0,0,0,0,0,0,0,0,0,0,0,0,0,0,0,0,0,0,0,0,0,0,0,0,0,0,0,0,0,0,0,0,0,0,0,0,0,0,0,0,
0,0,0,0,0,0,0,0,0,0,0,0,0,0,0,0,0,0,0,0,0,0,0,0,0,0,0,0,0,0,0,0,0,0,0,0,0,0,0,0,0,0,0,0,0,0,0,0,0,0,0,0,0,0,0,0,0,0,0,0,0,0,0,0,0,0,0,0,0,0,0,0,0,0,0,0,0,0,0,0,0,0,0,0,0,0,0,0,0,0,0,0,0,0,0,0,0,0,0,0,0,0,0,0,0,0,0,0,0,0,0,0,0,0,0,0,0,0,0,0,0,0,0,0,0,0,0,0,0,0,0,0,0,0,0,0,0,0,0,0,0,0,0,0,0,0,0,0,0,0,0,0,0,0,0,0,0,0,0,0,0,0,0,0,0,0,0,0,0,0,0,0,0,0,0,0,0,0,0,0,0,0,0,0,0,0,0,0,0,0,0,0,0,0,0,0,0,0,0,0,
0,0,0,0,0,0,0,0,0,0,0,0,0,0,0,0,0,0,0,0,0,0,0,0,0,0,0,0,0,0,0,0,0,0,0,0,0,0,0,0,0,0,0,0,0,0,0,0,0,0,0,0,0,0,0,0,0,0,0,0,0,0,0,0,0,0,0,0,0,0,0,0,0,0,0,0,0,0,0,0,0,0,0,0,0,0,0,0,0,0,0,0,0,0,0,0,0,0,0,0,0,0,0,0,0,0,0,0,0,0,0,0,0,0,0,0,0,0,0,0,0,0,0,0,0,0,0,0,0,0,0,0,0,0,0,0,0,0,0,0,0,0,0,0,0,0,0,0,0,0,0,0,0,0,0,0,0,0,0,0,0,0,0,0,0,0,0,0,0,0,0,0,0,0,0,0,0,0,0,0,0,0,0,0,0,0,0,0,0,0,0,0,0,0,0,0,0,0,0,0,
0,0,0,0,0,0,0,0,0,0,0,0,0,0,0,0,0,0,0,0,0,0,0,0,0,0,0,0,0,0,0,0,0,0,0,0,0,0,0,0,0,0,0,0,0,0,0,0,0,0,0,0,0,0,0,0,0,0,0,0,0,0,0,0,0,0,0,0,0,0,0,0,0,0,0,0,0,0,0,0,0,0,0,0,0,0,0,0,0,0,0,0,0,0,0,0,0,0,0,0,0,0,0,0,0,0,0,0,0,0,0,0,0,0,0,0,0,0,0,0,0,0,0,0,0,0,0,0,0,0,0,0,0,0,0,0,0,0,0,0,0,0,0,0,0,0,0,0,0,0,0,0,0,0,0,0,0,0,0,0,0,0,0,0,0,0,0,0,0,0,0,0,0,0,0,0,0,0,0,0,0,0,0,0,0,0,0,0,0,0,0,0,0,0,0,0,0,0,0,0,
0,0,0,0,0,0,0,0,0,0,0,0,0,0,0,0,0,0,0,0,0,0,0,0,0,0,0,0,0,0,0,0,0,0,0,0,0,0,0,0,0,0,0,0,0,0,0,0,0,0,0,0,0,0,0,0,0,0,0,0,0,0,0,0,0,0,0,0,0,0,0,0,0,0,0,0,0,0,0,0,0,0,0,0,0,0,0,0,0,0,0,0,0,0,0,0,0,0,0,0,0,0,0,0,0,0,0,0,0,0,0,0,0,0,0,0,0,0,0,0,0,0,0,0,0,0,0,0,0,0,0,0,0,0,0,0,0,0,0,0,0,0,0,0,0,0,0,0,0,0,0,0,0,0,0,0,0,0,0,0,0,0,0,0,0,0,0,0,0,0,0,0,0,0,0,0,0,0,0,0,0,0,0,0,0,0,0,0,0,0,0,0,0,0,0,0,0,0,0,0,
0,0,0,0,0,0,0,0,0,0,0,0,0,0,0,0,0,0,0,0,0,0,0,0,0,0,0,0,0,0,0,0,0,0,0,0,0,0,0,0,0,0,0,0,0,0,0,0,0,0,0,0,0,0,0,0,0,0,0,0,0,0,0,0,0,0,0,0,0,0,0,0,0,0,0,0,0,0,0,0,0,0,0,0,0,0,0,0,0,0,0,0,0,0,0,0,0,0,0,0,0,0,0,0,0,0,0,0,0,0,0,0,0,0,0,0,0,0,0,0,0,0,0,0,0,0,0,0,0,0,0,0,0,0,0,0,0,0,0,0,0,0,0,0,0,0,0,0,0,0,0,0,0,0,0,0,0,0,0,0,0,0,0,0,0,0,0,0,0,0,0,0,0,0,0,0,0,0,0,0,0,0,0,0,0,0,0,0,0,0,0,0,0,0,0,0,0,0,0,0,
0,0,0,0,0,0,0,0,0,0,0,0,0,0,0,0,0,0,0,0,0,0,0,0,0,0,0,0,0,0,0,0,0,0,0,0,0,0,0,0,0,0,0,0,0,0,0,0,0,0,0,0,0,0,0,0,0,0,0,0,0,0,0,0,0,0,0,0,0,0,0,0,0,0,0,0,0,0,0,0,0,0,0,0,0,0,0,0,0,0,0,0,0,0,0,0,0,0,0,0,0,0,0,0,0,0,0,0,0,0,0,0,0,0,0,0,0,0,0,0,0,0,0,0,0,0,0,0,0,0,0,0,0,0,0,0,0,0,0,0,0,0,0,0,0,0,0,0,0,0,0,0,0,0,0,0,0,0,0,0,0,0,0,0,0,0,0,0,0,0,0,0,0,0,0,0,0,0,0,0,0,0,0,0,0,0,0,0,0,0,0,0,0,0,0,0,0,0,0,0,
0,0,0,0,0,0,0,0,0,0,0,0,0,0,0,0,0,0,0,0,0,0,0,0,0,0,0,0,0,0,0,0,0,0,0,0,0,0,0,0,0,0,0,0,0,0,0,0,0,0,0,0,0,0,0,0,0,0,0,0,0,0,0,0,0,0,0,0,0,0,0,0,0,0,0,0,0,0,0,0,0,0,0,0,0,0,0,0,0,0,0,0,0,0,0,0,0,0,0,0,0,0,0,0,0,0,0,0,0,0,0,0,0,0,0,0,0,0,0,0,0,0,0,0,0,0,0,0,0,0,0,0,0,0,0,0,0,0,0,0,0,0,0,0,0,0,0,0,0,0,0,0,0,0,0,0,0,0,0,0,0,0,0,0,0,0,0,0,0,0,0,0,0,0,0,0,0,0,0,0,0,0,0,0,0,0,0,0,0,0,0,0,0,0,0,0,0,0,0,0,
0,0,0,0,0,0,0,0,0,0,0,0,0,0,0,0,0,0,0,0,0,0,0,0,0,0,0,0,0,0,0,0,0,0,0,0,0,0,0,0,0,0,0,0,0,0,0,0,0,0,0,0,0,0,0,0,0,0,0,0,0,0,0,0,0,0,0,0,0,0,0,0,0,0,0,0,0,0,0,0,0,0,0,0,0,0,0,0,0,0,0,0,0,0,0,0,0,0,0,0,0,0,0,0,0,0,0,0,0,0,0,0,0,0,0,0,0,0,0,0,0,0,0,0,0,0,0,0,0,0,0,0,0,0,0,0,0,0,0,0,0,0,0,0,0,0,0,0,0,0,0,0,0,0,0,0,0,0,0,0,0,0,0,0,0,0,0,0,0,0,0,0,0,0,0,0,0,0,0,0,0,0,0,0,0,0,0,0,0,0,0,0,0,0,0,0,0,0,0,0,
0,0,0,0,0,0,0,0,0,0,0,0,0,0,0,0,0,0,0,0,0,0,0,0,0,0,0,0,0,0,0,0,0,0,0,0,0,0,0,0,0,0,0,0,0,0,0,0,0,0,0,0,0,0,0,0,0,0,0,0,0,0,0,0,0,0,0,0,0,0,0,0,0,0,0,0,0,0,0,0,0,0,0,0,0,0,0,0,0,0,0,0,0,0,0,0,0,0,0,0,0,0,0,0,0,0,0,0,0,0,0,0,0,0,0,0,0,0,0,0,0,0,0,0,0,0,0,0,0,0,0,0,0,0,0,0,0,0,0,0,0,0,0,0,0,0,0,0,0,0,0,0,0,0,0,0,0,0,0,0,0,0,0,0,0,0,0,0,0,0,0,0,0,0,0,0,0,0,0,0,0,0,0,0,0,0,0,0,0,0,0,0,0,0,0,0,0,0,0,0,
0,0,0,0,0,0,0,0,0,0,0,0,0,0,0,0,0,0,0,0,0,0,0,0,0,0,0,0,0,0,0,0,0,0,0,0,0,0,0,0,0,0,0,0,0,0,0,0,0,0,0,0,0,0,0,0,0,0,0,0,0,0,0,0,0,0,0,0,0,0,0,0,0,0,0,0,0,0,0,0,0,0,0,0,0,0,0,0,0,0,0,0,0,0,0,0,0,0,0,0,0,0,0,0,0,0,0,0,0,0,0,0,0,0,0,0,0,0,0,0,0,0,0,0,0,0,0,0,0,0,0,0,0,0,0,0,0,0,0,0,0,0,0,0,0,0,0,0,0,0,0,0,0,0,0,0,0,0,0,0,0,0,0,0,0,0,0,0,0,0,0,0,0,0,0,0,0,0,0,0,0,0,0,0,0,0,0,0,0,0,0,0,0,0,0,0,0,0,0,0,
0,0,0,0,0,0,0,0,0,0,0,0,0,0,0,0,0,0,0,0,0,0,0,0,0,0,0,0,0,0,0,0,0,0,0,0,0,0,0,0,0,0,0,0,0,0,0,0,0,0,0,0,0,0,0,0,0,0,0,0,0,0,0,0,0,0,0,0,0,0,0,0,0,0,0,0,0,0,0,0,0,0,0,0,0,0,0,0,0,0,0,0,0,0,0,0,0,0,0,0,0,0,0,0,0,0,0,0,0,0,0,0,0,0,0,0,0,0,0,0,0,0,0,0,0,0,0,0,0,0,0,0,0,0,0,0,0,0,0,0,0,0,0,0,0,0,0,0,0,0,0,0,0,0,0,0,0,0,0,0,0,0,0,0,0,0,0,0,0,0,0,0,0,0,0,0,0,0,0,0,0,0,0,0,0,0,0,0,0,0,0,0,0,0,0,0,0,0,0,0,
0,0,0,0,0,0,0,0,0,0,0,0,0,0,0,0,0,0,0,0,0,0,0,0,0,0,0,0,0,0,0,0,0,0,0,0,0,0,0,0,0,0,0,0,0,0,0,0,0,0,0,0,0,0,0,0,0,0,0,0,0,0,0,0,0,0,0,0,0,0,0,0,0,0,0,0,0,0,0,0,0,0,0,0,0,0,0,0,0,0,0,0,0,0,0,0,0,0,0,0,0,0,0,0,0,0,0,0,0,0,0,0,0,0,0,0,0,0,0,0,0,0,0,0,0,0,0,0,0,0,0,0,0,0,0,0,0,0,0,0,0,0,0,0,0,0,0,0,0,0,0,0,0,0,0,0,0,0,0,0,0,0,0,0,0,0,0,0,0,0,0,0,0,0,0,0,0,0,0,0,0,0,0,0,0,0,0,0,0,0,0,0,0,0,0,0,0,0,0,0,
0,0,0,0,0,0,0,0,0,0,0,0,0,0,0,0,0,0,0,0,0,0,0,0,0,0,0,0,0,0,0,0,0,0,0,0,0,0,0,0,0,0,0,0,0,0,0,0,0,0,0,0,0,0,0,0,0,0,0,0,0,0,0,0,0,0,0,0,0,0,0,0,0,0,0,0,0,0,0,0,0,0,0,0,0,0,0,0,0,0,0,0,0,0,0,0,0,0,0,0,0,0,0,0,0,0,0,0,0,0,0,0,0,0,0,0,0,0,0,0,0,0,0,0,0,0,0,0,0,0,0,0,0,0,0,0,0,0,0,0,0,0,0,0,0,0,0,0,0,0,0,0,0,0,0,0,0,0,0,0,0,0,0,0,0,0,0,0,0,0,0,0,0,0,0,0,0,0,0,0,0,0,0,0,0,0,0,0,0,0,0,0,0,0,0,0,0,0,0,0,
0,0,0,0,0,0,0,0,0,0,0,0,0,0,0,0,0,0,0,0,0,0,0,0,0,0,0,0,0,0,0,0,0,0,0,0,0,0,0,0,0,0,0,0,0,0,0,0,0,0,0,0,0,0,0,0,0,0,0,0,0,0,0,0,0,0,0,0,0,0,0,0,0,0,0,0,0,0,0,0,0,0,0,0,0,0,0,0,0,0,0,0,0,0,0,0,0,0,0,0,0,0,0,0,0,0,0,0,0,0,0,0,0,0,0,0,0,0,0,0,0,0,0,0,0,0,0,0,0,0,0,0,0,0,0,0,0,0,0,0,0,0,0,0,0,0,0,0,0,0,0,0,0,0,0,0,0,0,0,0,0,0,0,0,0,0,0,0,0,0,0,0,0,0,0,0,0,0,0,0,0,0,0,0,0,0,0,0,0,0,0,0,0,0,0,0,0,0,0,0,
0,0,0,0,0,0,0,0,0,0,0,0,0,0,0,0,0,0,0,0,0,0,0,0,0,0,0,0,0,0,0,0,0,0,0,0,0,0,0,0,0,0,0,0,0,0,0,0,0,0,0,0,0,0,0,0,0,0,0,0,0,0,0,0,0,0,0,0,0,0,0,0,0,0,0,0,0,0,0,0,0,0,0,0,0,0,0,0,0,0,0,0,0,0,0,0,0,0,0,0,0,0,0,0,0,0,0,0,0,0,0,0,0,0,0,0,0,0,0,0,0,0,0,0,0,0,0,0,0,0,0,0,0,0,0,0,0,0,0,0,0,0,0,0,0,0,0,0,0,0,0,0,0,0,0,0,0,0,0,0,0,0,0,0,0,0,0,0,0,0,0,0,0,0,0,0,0,0,0,0,0,0,0,0,0,0,0,0,0,0,0,0,0,0,0,0,0,0,0,0,
0,0,0,0,0,0,0,0,0,0,0,0,0,0,0,0,0,0,0,0,0,0,0,0,0,0,0,0,0,0,0,0,0,0,0,0,0,0,0,0,0,0,0,0,0,0,0,0,0,0,0,0,0,0,0,0,0,0,0,0,0,0,0,0,0,0,0,0,0,0,0,0,0,0,0,0,0,0,0,0,0,0,0,0,0,0,0,0,0,0,0,0,0,0,0,0,0,0,0,0,0,0,0,0,0,0,0,0,0,0,0,0,0,0,0,0,0,0,0,0,0,0,0,0,0,0,0,0,0,0,0,0,0,0,0,0,0,0,0,0,0,0,0,0,0,0,0,0,0,0,0,0,0,0,0,0,0,0,0,0,0,0,0,0,0,0,0,0,0,0,0,0,0,0,0,0,0,0,0,0,0,0,0,0,0,0,0,0,0,0,0,0,0,0,0,0,0,0,0,0,
0,0,0,0,0,0,0,0,0,0,0,0,0,0,0,0,0,0,0,0,0,0,0,0,0,0,0,0,0,0,0,0,0,0,0,0,0,0,0,0,0,0,0,0,0,0,0,0,0,0,0,0,0,0,0,0,0,0,0,0,0,0,0,0,0,0,0,0,0,0,0,0,0,0,0,0,0,0,0,0,0,0,0,0,0,0,0,0,0,0,0,0,0,0,0,0,0,0,0,0,0,0,0,0,0,0,0,0,0,0,0,0,0,0,0,0,0,0,0,0,0,0,0,0,0,0,0,0,0,0,0,0,0,0,0,0,0,0,0,0,0,0,0,0,0,0,0,0,0,0,0,0,0,0,0,0,0,0,0,0,0,0,0,0,0,0,0,0,0,0,0,0,0,0,0,0,0,0,0,0,0,0,0,0,0,0,0,0,0,0,0,0,0,0,0,0,0,0,0,0,
0,0,0,0,0,0,0,0,0,0,0,0,0,0,0,0,0,0,0,0,0,0,0,0,0,0,0,0,0,0,0,0,0,0,0,0,0,0,0,0,0,0,0,0,0,0,0,0,0,0,0,0,0,0,0,0,0,0,0,0,0,0,0,0,0,0,0,0,0,0,0,0,0,0,0,0,0,0,0,0,0,0,0,0,0,0,0,0,0,0,0,0,0,0,0,0,0,0,0,0,0,0,0,0,0,0,0,0,0,0,0,0,0,0,0,0,0,0,0,0,0,0,0,0,0,0,0,0,0,0,0,0,0,0,0,0,0,0,0,0,0,0,0,0,0,0,0,0,0,0,0,0,0,0,0,0,0,0,0,0,0,0,0,0,0,0,0,0,0,0,0,0,0,0,0,0,0,0,0,0,0,0,0,0,0,0,0,0,0,0,0,0,0,0,0,0,0,0,0,0,
0,0,0,0,0,0,0,0,0,0,0,0,0,0,0,0,0,0,0,0,0,0,0,0,0,0,0,0,0,0,0,0,0,0,0,0,0,0,0,0,0,0,0,0,0,0,0,0,0,0,0,0,0,0,0,0,0,0,0,0,0,0,0,0,0,0,0,0,0,0,0,0,0,0,0,0,0,0,0,0,0,0,0,0,0,0,0,0,0,0,0,0,0,0,0,0,0,0,0,0,0,0,0,0,0,0,0,0,0,0,0,0,0,0,0,0,0,0,0,0,0,0,0,0,0,0,0,0,0,0,0,0,0,0,0,0,0,0,0,0,0,0,0,0,0,0,0,0,0,0,0,0,0,0,0,0,0,0,0,0,0,0,0,0,0,0,0,0,0,0,0,0,0,0,0,0,0,0,0,0,0,0,0,0,0,0,0,0,0,0,0,0,0,0,0,0,0,0,0,0,
0,0,0,0,0,0,0,0,0,0,0,0,0,0,0,0,0,0,0,0,0,0,0,0,0,0,0,0,0,0,0,0,0,0,0,0,0,0,0,0,0,0,0,0,0,0,0,0,0,0,0,0,0,0,0,0,0,0,0,0,0,0,0,0,0,0,0,0,0,0,0,0,0,0,0,0,0,0,0,0,0,0,0,0,0,0,0,0,0,0,0,0,0,0,0,0,0,0,0,0,0,0,0,0,0,0,0,0,0,0,0,0,0,0,0,0,0,0,0,0,0,0,0,0,0,0,0,0,0,0,0,0,0,0,0,0,0,0,0,0,0,0,0,0,0,0,0,0,0,0,0,0,0,0,0,0,0,0,0,0,0,0,0,0,0,0,0,0,0,0,0,0,0,0,0,0,0,0,0,0,0,0,0,0,0,0,0,0,0,0,0,0,0,0,0,0,0,0,0,0,
0,0,0,0,0,0,0,0,0,0,0,0,0,0,0,0,0,0,0,0,0,0,0,0,0,0,0,0,0,0,0,0,0,0,0,0,0,0,0,0,0,0,0,0,0,0,0,0,0,0,0,0,0,0,0,0,0,0,0,0,0,0,0,0,0,0,0,0,0,0,0,0,0,0,0,0,0,0,0,0,0,0,0,0,0,0,0,0,0,0,0,0,0,0,0,0,0,0,0,0,0,0,0,0,0,0,0,0,0,0,0,0,0,0,0,0,0,0,0,0,0,0,0,0,0,0,0,0,0,0,0,0,0,0,0,0,0,0,0,0,0,0,0,0,0,0,0,0,0,0,0,0,0,0,0,0,0,0,0,0,0,0,0,0,0,0,0,0,0,0,0,0,0,0,0,0,0,0,0,0,0,0,0,0,0,0,0,0,0,0,0,0,0,0,0,0,0,0,0,0,
0,0,0,0,0,0,0,0,0,0,0,0,0,0,0,0,0,0,0,0,0,0,0,0,0,0,0,0,0,0,0,0,0,0,0,0,0,0,0,0,0,0,0,0,0,0,0,0,0,0,0,0,0,0,0,0,0,0,0,0,0,0,0,0,0,0,0,0,0,0,0,0,0,0,0,0,0,0,0,0,0,0,0,0,0,0,0,0,0,0,0,0,0,0,0,0,0,0,0,0,0,0,0,0,0,0,0,0,0,0,0,0,0,0,0,0,0,0,0,0,0,0,0,0,0,0,0,0,0,0,0,0,0,0,0,0,0,0,0,0,0,0,0,0,0,0,0,0,0,0,0,0,0,0,0,0,0,0,0,0,0,0,0,0,0,0,0,0,0,0,0,0,0,0,0,0,0,0,0,0,0,0,0,0,0,0,0,0,0,0,0,0,0,0,0,0,0,0,0,0,
0,0,0,0,0,0,0,0,0,0,0,0,0,0,0,0,0,0,0,0,0,0,0,0,0,0,0,0,0,0,0,0,0,0,0,0,0,0,0,0,0,0,0,0,0,0,0,0,0,0,0,0,0,0,0,0,0,0,0,0,0,0,0,0,0,0,0,0,0,0,0,0,0,0,0,0,0,0,0,0,0,0,0,0,0,0,0,0,0,0,0,0,0,0,0,0,0,0,0,0,0,0,0,0,0,0,0,0,0,0,0,0,0,0,0,0,0,0,0,0,0,0,0,0,0,0,0,0,0,0,0,0,0,0,0,0,0,0,0,0,0,0,0,0,0,0,0,0,0,0,0,0,0,0,0,0,0,0,0,0,0,0,0,0,0,0,0,0,0,0,0,0,0,0,0,0,0,0,0,0,0,0,0,0,0,0,0,0,0,0,0,0,0,0,0,0,0,0,0,0,
0,0,0,0,0,0,0,0,0,0,0,0,0,0,0,0,0,0,0,0,0,0,0,0,0,0,0,0,0,0,0,0,0,0,0,0,0,0,0,0,0,0,0,0,0,0,0,0,0,0,0,0,0,0,0,0,0,0,0,0,0,0,0,0,0,0,0,0,0,0,0,0,0,0,0,0,0,0,0,0,0,0,0,0,0,0,0,0,0,0,0,0,0,0,0,0,0,0,0,0,0,0,0,0,0,0,0,0,0,0,0,0,0,0,0,0,0,0,0,0,0,0,0,0,0,0,0,0,0,0,0,0,0,0,0,0,0,0,0,0,0,0,0,0,0,0,0,0,0,0,0,0,0,0,0,0,0,0,0,0,0,0,0,0,0,0,0,0,0,0,0,0,0,0,0,0,0,0,0,0,0,0,0,0,0,0,0,0,0,0,0,0,0,0,0,0,0,0,0,0,
0,0,0,0,0,0,0,0,0,0,0,0,0,0,0,0,0,0,0,0,0,0,0,0,0,0,0,0,0,0,0,0,0,0,0,0,0,0,0,0,0,0,0,0,0,0,0,0,0,0,0,0,0,0,0,0,0,0,0,0,0,0,0,0,0,0,0,0,0,0,0,0,0,0,0,0,0,0,0,0,0,0,0,0,0,0,0,0,0,0,0,0,0,0,0,0,0,0,0,0,0,0,0,0,0,0,0,0,0,0,0,0,0,0,0,0,0,0,0,0,0,0,0,0,0,0,0,0,0,0,0,0,0,0,0,0,0,0,0,0,0,0,0,0,0,0,0,0,0,0,0,0,0,0,0,0,0,0,0,0,0,0,0,0,0,0,0,0,0,0,0,0,0,0,0,0,0,0,0,0,0,0,0,0,0,0,0,0,0,0,0,0,0,0,0,0,0,0,0,0,
0,0,0,0,0,0,0,0,0,0,0,0,0,0,0,0,0,0,0,0,0,0,0,0,0,0,0,0,0,0,0,0,0,0,0,0,0,0,0,0,0,0,0,0,0,0,0,0,0,0,0,0,0,0,0,0,0,0,0,0,0,0,0,0,0,0,0,0,0,0,0,0,0,0,0,0,0,0,0,0,0,0,0,0,0,0,0,0,0,0,0,0,0,0,0,0,0,0,0,0,0,0,0,0,0,0,0,0,0,0,0,0,0,0,0,0,0,0,0,0,0,0,0,0,0,0,0,0,0,0,0,0,0,0,0,0,0,0,0,0,0,0,0,0,0,0,0,0,0,0,0,0,0,0,0,0,0,0,0,0,0,0,0,0,0,0,0,0,0,0,0,0,0,0,0,0,0,0,0,0,0,0,0,0,0,0,0,0,0,0,0,0,0,0,0,0,0,0,0,0,
0,0,0,0,0,0,0,0,0,0,0,0,0,0,0,0,0,0,0,0,0,0,0,0,0,0,0,0,0,0,0,0,0,0,0,0,0,0,0,0,0,0,0,0,0,0,0,0,0,0,0,0,0,0,0,0,0,0,0,0,0,0,0,0,0,0,0,0,0,0,0,0,0,0,0,0,0,0,0,0,0,0,0,0,0,0,0,0,0,0,0,0,0,0,0,0,0,0,0,0,0,0,0,0,0,0,0,0,0,0,0,0,0,0,0,0,0,0,0,0,0,0,0,0,0,0,0,0,0,0,0,0,0,0,0,0,0,0,0,0,0,0,0,0,0,0,0,0,0,0,0,0,0,0,0,0,0,0,0,0,0,0,0,0,0,0,0,0,0,0,0,0,0,0,0,0,0,0,0,0,0,0,0,0,0,0,0,0,0,0,0,0,0,0,0,0,0,0,0,0,
0,0,0,0,0,0,0,0,0,0,0,0,0,0,0,0,0,0,0,0,0,0,0,0,0,0,0,0,0,0,0,0,0,0,0,0,0,0,0,0,0,0,0,0,0,0,0,0,0,0,0,0,0,0,0,0,0,0,0,0,0,0,0,0,0,0,0,0,0,0,0,0,0,0,0,0,0,0,0,0,0,0,0,0,0,0,0,0,0,0,0,0,0,0,0,0,0,0,0,0,0,0,0,0,0,0,0,0,0,0,0,0,0,0,0,0,0,0,0,0,0,0,0,0,0,0,0,0,0,0,0,0,0,0,0,0,0,0,0,0,0,0,0,0,0,0,0,0,0,0,0,0,0,0,0,0,0,0,0,0,0,0,0,0,0,0,0,0,0,0,0,0,0,0,0,0,0,0,0,0,0,0,0,0,0,0,0,0,0,0,0,0,0,0,0,0,0,0,0,0,
0,0,0,0,0,0,0,0,0,0,0,0,0,0,0,0,0,0,0,0,0,0,0,0,0,0,0,0,0,0,0,0,0,0,0,0,0,0,0,0,0,0,0,0,0,0,0,0,0,0,0,0,0,0,0,0,0,0,0,0,0,0,0,0,0,0,0,0,0,0,0,0,0,0,0,0,0,0,0,0,0,0,0,0,0,0,0,0,0,0,0,0,0,0,0,0,0,0,0,0,0,0,0,0,0,0,0,0,0,0,0,0,0,0,0,0,0,0,0,0,0,0,0,0,0,0,0,0,0,0,0,0,0,0,0,0,0,0,0,0,0,0,0,0,0,0,0,0,0,0,0,0,0,0,0,0,0,0,0,0,0,0,0,0,0,0,0,0,0,0,0,0,0,0,0,0,0,0,0,0,0,0,0,0,0,0,0,0,0,0,0,0,0,0,0,0,0,0,0,0,
0,0,0,0,0,0,0,0,0,0,0,0,0,0,0,0,0,0,0,0,0,0,0,0,0,0,0,0,0,0,0,0,0,0,0,0,0,0,0,0,0,0,0,0,0,0,0,0,0,0,0,0,0,0,0,0,0,0,0,0,0,0,0,0,0,0,0,0,0,0,0,0,0,0,0,0,0,0,0,0,0,0,0,0,0,0,0,0,0,0,0,0,0,0,0,0,0,0,0,0,0,0,0,0,0,0,0,0,0,0,0,0,0,0,0,0,0,0,0,0,0,0,0,0,0,0,0,0,0,0,0,0,0,0,0,0,0,0,0,0,0,0,0,0,0,0,0,0,0,0,0,0,0,0,0,0,0,0,0,0,0,0,0,0,0,0,0,0,0,0,0,0,0,0,0,0,0,0,0,0,0,0,0,0,0,0,0,0,0,0,0,0,0,0,0,0,0,0,0,0,
0,0,0,0,0,0,0,0,0,0,0,0,0,0,0,0,0,0,0,0,0,0,0,0,0,0,0,0,0,0,0,0,0,0,0,0,0,0,0,0,0,0,0,0,0,0,0,0,0,0,0,0,0,0,0,0,0,0,0,0,0,0,0,0,0,0,0,0,0,0,0,0,0,0,0,0,0,0,0,0,0,0,0,0,0,0,0,0,0,0,0,0,0,0,0,0,0,0,0,0,0,0,0,0,0,0,0,0,0,0,0,0,0,0,0,0,0,0,0,0,0,0,0,0,0,0,0,0,0,0,0,0,0,0,0,0,0,0,0,0,0,0,0,0,0,0,0,0,0,0,0,0,0,0,0,0,0,0,0,0,0,0,0,0,0,0,0,0,0,0,0,0,0,0,0,0,0,0,0,0,0,0,0,0,0,0,0,0,0,0,0,0,0,0,0,0,0,0,0,0
</data>
 </layer>
 <layer id="2" name="Wall" width="200" height="100">
  <data encoding="csv">
703,703,703,703,703,703,703,703,703,703,703,704,728,703,703,703,703,703,703,703,703,703,703,704,703,702,702,703,704,727,702,702,702,702,703,704,703,703,703,703,728,729,703,703,703,703,704,703,703,703,704,703,703,678,679,678,678,678,678,679,704,704,704,704,704,679,679,729,729,729,729,729,729,729,729,729,729,729,729,729,729,729,729,729,729,729,729,729,729,729,729,729,729,729,729,729,729,729,729,729,729,729,729,729,729,729,729,729,729,729,729,729,729,729,729,729,729,729,729,729,729,729,729,729,729,729,729,729,729,729,729,729,729,729,729,729,729,729,729,729,729,729,729,729,729,729,729,729,729,729,729,729,729,729,729,729,729,729,729,729,729,729,729,729,729,729,729,729,729,729,729,729,729,729,729,729,729,729,729,729,729,729,729,729,729,729,729,729,729,729,729,729,729,729,729,729,729,729,729,729,
728,728,728,728,728,728,728,728,728,728,703,703,753,728,703,728,728,703,728,728,728,728,703,703,728,727,702,702,703,727,727,727,727,702,703,704,728,728,678,678,753,728,729,728,728,728,729,728,728,703,703,728,703,678,679,703,703,703,678,678,679,729,729,729,729,704,704,679,729,729,729,729,729,729,729,729,729,729,729,729,729,729,729,729,729,729,729,729,729,729,729,729,729,729,729,729,729,729,729,729,729,729,729,729,729,729,729,729,729,729,729,729,729,729,729,729,729,729,729,729,729,729,729,729,729,729,729,729,729,729,729,729,729,729,729,729,729,729,729,729,729,729,729,729,729,729,729,729,729,729,729,729,729,729,729,729,729,729,729,729,729,729,729,729,729,729,729,729,729,729,729,729,729,729,729,729,729,729,729,729,729,729,729,729,729,729,729,729,729,729,729,729,729,729,729,729,729,729,729,729,
753,753,753,753,753,753,753,753,753,753,728,703,753,753,703,753,753,728,753,754,728,729,728,703,728,729,702,702,702,702,727,727,728,702,703,704,755,778,779,779,778,752,754,753,753,753,754,753,753,728,703,753,703,678,679,728,728,728,703,678,678,678,678,679,679,679,679,679,729,729,729,729,729,729,729,729,729,729,729,729,729,729,729,729,729,729,729,729,729,729,729,729,729,729,729,729,729,729,729,729,729,729,729,729,729,729,729,729,729,729,729,729,729,729,729,729,729,729,729,729,729,729,729,729,729,729,729,729,729,729,729,729,729,729,729,729,729,729,729,729,729,729,729,729,729,729,729,729,729,729,729,729,729,729,729,729,729,729,729,729,729,729,729,729,729,729,729,729,729,729,729,729,729,729,729,729,729,729,729,729,729,729,729,729,729,729,729,729,729,729,729,729,729,729,729,729,729,729,729,729,
703,703,728,753,753,753,753,753,753,754,753,728,703,753,728,753,754,753,753,754,703,728,729,728,728,729,727,727,727,727,727,728,729,727,728,755,780,803,804,804,803,777,778,778,778,778,778,779,752,753,728,753,728,678,678,753,753,753,728,703,678,679,679,679,704,704,704,704,679,729,729,729,729,729,729,729,729,729,729,729,729,729,729,729,729,729,729,729,729,729,729,729,729,729,729,729,729,729,729,729,729,729,729,729,729,729,729,729,729,729,729,729,729,729,729,729,729,729,729,729,729,729,729,729,729,729,729,729,729,729,729,729,729,729,729,729,729,729,729,729,729,729,729,729,729,729,729,729,729,729,729,729,729,729,729,729,729,729,729,729,729,729,729,729,729,729,729,729,729,729,729,729,729,729,729,729,729,729,729,729,729,729,729,729,729,729,729,729,729,729,729,729,729,729,729,729,729,729,729,729,
728,728,753,754,755,778,778,779,779,752,729,753,703,704,753,754,754,754,753,754,703,728,728,729,778,779,778,778,779,778,779,778,779,778,779,780,805,828,829,829,828,802,803,803,803,803,803,804,777,778,753,754,753,703,703,678,678,679,753,728,678,679,704,704,729,729,729,729,704,729,729,729,729,729,729,729,729,729,729,729,729,729,729,729,729,729,729,729,729,729,729,729,729,729,729,729,729,729,729,729,729,729,729,729,729,729,729,729,729,729,729,729,729,729,729,729,729,729,729,729,729,729,729,729,729,729,729,729,729,729,729,729,729,729,729,729,729,729,729,729,729,729,729,729,729,729,729,729,729,729,729,729,729,729,729,729,729,729,729,729,729,729,729,729,729,729,729,729,729,729,729,729,729,729,729,729,729,729,729,729,729,729,729,729,729,729,729,729,729,729,729,729,729,729,729,729,729,729,729,729,
753,753,753,754,780,804,803,804,804,777,752,729,703,703,753,754,753,754,753,703,728,728,729,780,803,804,803,803,804,803,804,803,804,803,804,805,830,853,854,854,853,827,828,828,828,828,828,829,802,803,777,778,752,728,728,703,678,678,679,753,678,678,678,679,754,754,754,754,729,729,729,729,729,729,729,729,729,729,729,729,729,729,729,729,729,729,729,729,729,729,729,729,729,729,729,729,729,729,729,729,729,729,729,703,704,703,704,703,703,703,703,703,703,703,703,703,703,703,703,703,703,703,703,703,704,729,729,729,729,729,729,729,729,729,729,729,729,729,729,729,729,729,729,729,729,729,729,729,729,729,729,729,729,729,729,729,729,729,729,729,729,729,729,729,729,729,729,729,729,729,729,729,729,729,729,729,729,729,729,729,729,729,729,729,729,729,729,729,729,729,729,729,729,729,729,729,729,729,729,729,
778,779,780,804,805,829,828,829,829,802,777,752,728,728,728,728,753,754,753,728,728,729,780,805,828,829,828,828,829,828,829,828,829,828,829,830,855,878,879,879,878,852,853,853,853,853,853,854,827,828,802,803,777,753,753,728,703,678,679,704,703,703,703,704,679,728,753,754,754,729,729,729,729,729,729,729,729,729,729,729,729,729,729,729,729,729,729,729,729,729,729,729,729,729,729,729,729,729,729,729,729,703,704,728,729,728,729,728,728,728,728,728,728,728,728,728,728,728,728,728,728,728,728,703,703,703,704,729,729,729,729,729,729,729,729,729,729,729,729,729,729,729,729,729,729,729,729,729,729,729,729,729,729,729,729,729,729,729,729,729,729,729,729,729,729,729,729,729,729,729,729,729,729,729,729,729,729,729,729,729,729,729,729,729,729,729,729,729,729,729,729,729,729,729,729,729,729,729,729,729,
803,804,805,829,830,854,853,854,854,827,802,777,753,753,753,753,753,753,753,754,755,780,805,830,853,854,853,853,854,853,854,853,854,853,854,855,880,0,0,0,0,877,878,878,878,878,878,879,852,853,827,828,802,777,752,753,728,703,678,678,728,728,728,729,678,753,753,754,754,729,729,729,729,729,729,729,729,729,729,729,729,729,729,729,729,729,729,729,729,729,729,729,729,729,729,729,729,729,729,729,729,728,729,753,754,753,754,753,753,753,753,753,753,753,753,753,753,753,753,753,753,753,753,728,728,703,704,729,729,729,729,729,729,729,729,729,729,729,729,729,729,729,729,729,729,729,729,729,729,729,729,729,729,729,729,729,729,729,729,729,729,729,729,729,729,729,729,729,729,729,729,729,729,729,729,729,729,729,729,729,729,729,729,729,729,729,729,729,729,729,729,729,729,729,729,729,729,729,729,729,
828,829,830,854,855,879,878,879,879,852,827,802,777,778,778,778,778,778,778,779,780,805,830,855,878,879,878,878,879,878,879,878,879,878,879,880,920,920,0,0,0,920,920,920,920,920,920,920,877,878,852,853,827,802,777,752,753,728,703,678,753,753,753,754,703,753,754,753,754,729,729,729,729,729,729,729,729,729,729,729,729,729,729,729,729,729,729,729,729,729,729,729,729,729,729,729,729,729,729,729,755,778,779,778,779,778,779,778,778,778,778,778,778,778,778,778,778,778,778,778,778,778,778,752,753,703,703,704,729,729,729,729,729,729,729,729,729,729,729,729,729,729,729,729,729,729,729,729,729,729,729,729,729,729,729,729,729,729,729,729,729,729,729,729,729,729,729,729,729,729,729,729,729,729,729,729,729,729,729,729,729,729,729,729,729,729,729,729,729,729,729,729,729,729,729,729,729,729,729,729,
853,854,855,879,880,947,947,947,947,877,852,827,802,803,803,803,803,804,804,804,805,830,855,880,946,920,920,920,920,920,920,920,920,920,920,920,920,920,0,0,920,920,920,920,920,920,920,920,920,920,877,878,852,827,802,777,752,753,728,703,678,678,679,728,728,753,754,753,754,729,729,729,729,729,729,729,729,729,729,729,729,729,729,729,729,729,729,729,729,729,729,729,729,729,729,729,729,755,778,779,780,803,804,803,804,803,804,803,803,803,803,803,803,803,803,803,803,803,803,803,803,803,803,777,778,728,703,703,704,729,729,729,729,729,729,729,729,729,729,729,729,729,729,729,729,729,729,729,729,729,729,729,729,729,729,729,729,729,729,729,729,729,729,729,729,729,729,729,729,729,729,729,729,729,729,729,729,729,729,729,729,729,729,729,729,729,729,729,729,729,729,729,729,729,729,729,729,729,729,729,
878,879,880,920,920,920,0,0,920,920,877,852,827,828,828,828,828,829,829,829,830,855,880,920,920,0,0,920,920,920,920,0,0,0,0,0,0,0,0,0,0,0,0,920,920,920,920,920,920,920,920,920,877,852,827,802,777,752,753,728,703,678,678,753,753,753,754,753,754,729,729,729,729,729,729,729,729,729,729,729,729,729,729,729,729,729,729,729,729,729,729,729,729,729,729,729,755,780,803,804,805,828,829,828,829,828,829,828,828,828,828,828,828,828,828,828,828,828,828,828,828,828,828,802,803,752,753,703,703,703,703,703,703,703,704,729,729,729,729,729,729,729,729,729,729,729,729,729,729,729,729,729,729,729,729,729,729,729,729,729,729,729,729,729,729,729,729,729,729,729,729,729,729,729,729,729,729,729,729,729,729,729,729,729,703,703,703,703,703,704,729,729,729,729,729,729,729,729,729,729,
920,920,920,920,920,0,0,0,920,920,920,851,852,853,853,853,803,854,854,854,855,880,920,920,920,0,0,0,0,0,0,0,920,920,920,920,0,0,0,920,920,920,920,0,0,0,0,920,920,920,920,920,920,877,852,827,802,777,752,753,728,703,678,678,678,678,678,753,754,729,729,729,729,729,729,729,729,729,729,729,729,729,729,729,729,729,729,729,729,729,729,729,729,755,778,779,780,805,828,829,830,853,854,853,854,853,854,853,853,853,853,853,853,853,853,853,853,853,853,853,853,853,853,827,828,777,778,728,728,728,728,728,728,703,703,704,729,729,729,729,729,729,729,729,729,729,729,729,729,729,729,729,729,729,729,729,729,729,729,729,729,729,729,729,729,729,729,729,729,729,729,729,729,729,729,729,729,729,729,729,729,729,729,703,728,728,728,728,703,703,704,729,729,729,729,729,729,729,729,729,
920,0,0,0,0,920,0,920,0,0,920,920,877,878,879,878,879,878,879,878,880,920,920,0,0,0,0,0,920,920,0,0,920,920,920,0,920,920,920,920,920,920,920,920,920,920,920,0,920,920,920,920,920,920,877,852,827,802,777,752,753,728,703,703,703,703,703,753,754,729,729,729,729,729,729,729,729,729,729,729,729,729,729,729,729,729,729,729,729,729,729,729,753,780,803,804,805,830,853,854,855,878,879,878,879,878,879,878,878,878,878,878,878,878,878,878,878,878,878,878,878,878,878,852,853,802,803,753,753,753,753,753,753,728,703,704,729,729,729,729,729,729,729,729,729,729,729,729,729,729,729,729,729,729,729,729,729,729,729,729,729,729,729,729,729,729,729,729,729,729,729,729,729,729,729,729,729,729,729,729,729,729,703,728,753,753,753,753,728,703,704,729,729,729,729,729,729,729,729,729,
920,0,920,920,0,0,0,920,920,0,0,0,920,920,920,920,920,920,920,920,920,920,920,0,0,0,920,0,0,0,0,920,0,0,0,920,920,920,920,920,920,920,920,920,920,920,920,0,0,920,920,920,920,920,0,877,852,827,802,777,752,753,728,728,728,728,728,753,754,729,729,729,729,729,729,729,729,729,729,729,729,729,729,729,729,729,729,729,729,729,753,753,780,805,828,829,830,855,878,879,880,920,920,920,920,920,920,920,920,920,920,920,920,920,920,920,920,920,920,920,920,920,920,877,878,827,828,778,778,778,778,778,778,752,753,704,729,729,729,729,729,729,729,729,729,729,729,729,729,729,729,729,729,729,729,729,729,729,729,729,729,729,729,729,729,729,729,729,729,729,729,729,703,703,703,704,729,729,729,729,729,703,728,753,754,754,754,754,753,703,703,704,729,729,729,729,729,729,729,729,
0,0,0,0,0,0,0,0,0,0,0,0,0,0,0,0,0,0,0,0,0,0,0,0,0,0,0,0,0,0,0,0,0,0,0,0,0,0,0,0,0,0,0,0,0,0,0,0,0,0,0,0,0,920,920,0,877,852,827,802,777,752,753,753,753,753,753,753,754,729,729,729,729,729,729,729,729,729,729,729,729,729,729,729,729,729,729,729,729,729,753,780,805,830,853,854,855,880,920,920,920,920,920,920,920,920,920,920,920,920,920,920,920,920,920,920,920,920,920,920,920,920,920,920,920,852,853,803,803,803,803,803,803,777,778,703,703,703,704,703,703,703,703,703,703,703,703,703,704,729,729,729,729,729,729,729,729,729,729,729,729,729,729,729,729,729,729,729,729,729,729,703,728,728,728,729,729,729,729,729,703,728,753,754,755,778,779,778,779,752,753,703,704,729,729,729,729,729,729,729,
0,0,0,0,0,0,0,0,0,0,0,0,0,0,0,0,0,0,0,0,0,0,0,0,0,0,0,0,0,0,0,0,0,0,0,0,0,0,0,0,0,0,0,0,0,0,0,0,0,0,0,0,0,920,0,0,0,877,852,827,802,777,778,778,779,778,779,778,779,778,778,778,778,778,778,778,778,778,778,778,778,778,778,778,778,778,778,778,778,779,780,805,830,855,878,879,880,920,920,920,920,920,920,920,920,920,920,920,920,920,920,920,920,920,920,920,920,920,920,920,920,920,920,920,920,877,878,828,828,828,828,828,828,802,803,728,728,728,729,728,728,728,728,728,728,728,728,703,703,703,703,703,703,704,729,729,729,729,729,729,729,729,729,729,729,729,729,729,729,729,729,728,753,753,753,754,729,703,703,703,728,753,754,754,780,803,804,803,804,777,778,752,753,703,703,703,703,703,704,729,
0,0,0,0,0,0,0,0,0,0,0,0,0,0,0,0,0,0,0,0,0,0,0,0,0,0,0,0,0,0,0,0,0,0,0,0,0,0,0,0,0,0,0,0,0,0,0,0,0,0,0,0,0,0,920,920,920,0,877,852,827,802,803,803,804,803,804,803,804,803,803,803,803,803,803,803,803,803,803,803,803,803,803,803,803,803,803,803,803,804,805,830,855,880,920,920,920,920,920,920,920,920,920,920,0,0,0,920,920,920,920,920,920,920,920,920,920,920,920,920,920,920,920,920,920,920,0,853,853,853,853,853,853,827,828,727,753,753,754,753,753,753,753,753,753,753,753,728,728,728,728,728,703,703,704,729,729,729,729,729,729,729,729,729,729,729,729,729,729,729,703,729,729,703,703,703,703,728,728,728,728,728,728,779,780,828,829,828,829,802,803,777,778,728,728,728,728,728,729,729,
0,0,0,0,0,0,0,0,0,0,0,0,0,0,0,0,0,0,0,0,0,0,0,0,0,0,0,0,0,0,0,0,0,0,0,0,0,0,0,0,0,0,0,0,0,0,0,0,0,0,0,0,0,920,920,920,920,920,920,877,852,827,828,828,829,828,829,828,829,828,828,828,828,828,828,828,828,828,828,828,828,828,828,828,828,828,828,828,828,829,830,855,880,920,920,920,920,920,920,920,920,920,920,0,920,920,920,0,920,920,920,920,920,920,920,920,920,920,920,920,920,920,920,920,920,920,920,878,878,878,878,878,878,852,853,727,778,778,779,778,778,778,778,778,778,778,778,752,753,753,753,753,728,703,703,703,704,729,729,729,729,729,729,729,729,729,729,729,703,703,728,729,729,728,728,728,728,753,753,753,704,728,755,804,805,853,854,853,854,827,828,802,803,752,753,753,753,753,754,729,
0,0,0,0,0,0,0,0,0,0,0,0,0,0,0,0,0,0,0,0,0,0,0,0,0,0,0,0,0,0,0,0,0,0,0,0,0,0,0,0,0,0,0,0,0,0,0,0,0,0,0,0,0,920,920,920,920,920,0,0,877,852,853,853,854,853,854,853,854,853,853,853,853,853,853,853,853,853,853,853,853,853,853,853,853,853,853,853,853,854,855,880,920,920,920,920,920,920,920,920,920,920,920,0,920,920,920,920,0,920,920,920,920,920,920,920,920,920,920,920,920,920,920,920,920,920,920,920,920,920,920,920,920,877,878,802,803,803,804,803,803,803,803,803,803,803,803,777,778,778,778,778,752,728,728,703,703,703,703,703,703,703,703,703,704,729,703,703,728,728,703,703,728,753,753,753,753,704,704,704,704,779,780,829,830,878,879,878,879,852,853,827,828,777,778,778,778,778,779,778,
0,0,0,0,0,0,0,0,0,0,0,0,0,0,0,0,0,0,0,0,0,0,0,0,0,0,0,0,0,0,0,0,0,0,0,0,0,0,0,0,0,0,0,0,0,0,0,0,0,0,0,0,0,920,920,920,0,0,920,920,920,877,878,878,879,878,879,878,879,878,878,878,878,878,878,878,878,878,878,878,878,878,878,878,878,878,878,878,878,879,880,920,920,920,920,920,920,920,920,920,920,920,0,920,920,920,920,920,920,0,920,920,920,920,920,920,920,920,920,920,920,920,920,920,920,920,920,920,920,920,920,920,920,920,0,827,828,828,829,828,828,828,828,828,828,828,828,802,803,803,803,803,777,752,753,728,728,728,728,728,728,728,728,703,703,703,703,704,703,704,728,728,753,703,703,778,779,778,779,779,780,804,805,854,855,920,920,920,920,877,878,852,853,802,803,803,803,803,804,803,
0,0,0,0,0,0,0,0,0,0,0,0,0,0,0,0,0,0,0,1127,1128,1129,1128,1128,1128,1128,1128,1129,1130,0,0,0,0,0,0,0,0,0,0,0,0,0,0,0,0,0,0,0,0,0,0,0,0,920,0,0,920,0,0,920,0,0,920,920,920,920,920,920,920,0,920,920,920,920,920,920,920,920,920,920,920,920,920,920,920,0,0,920,920,920,920,920,920,920,920,920,920,920,920,920,920,920,0,920,920,920,920,920,920,920,0,920,920,920,920,920,920,920,920,920,920,920,920,920,920,920,920,920,920,920,920,920,920,920,0,852,853,853,854,853,853,853,853,853,853,853,853,827,828,828,828,828,802,777,778,752,753,753,753,753,753,753,753,728,728,728,728,729,728,729,753,753,753,754,780,803,804,803,804,804,805,829,830,879,880,920,920,920,920,0,0,877,878,827,828,828,828,828,829,828,
0,0,0,0,0,0,0,0,0,0,0,0,0,0,0,0,0,0,1127,1152,1153,1154,1153,1203,1153,1153,1203,1203,1155,1128,1129,1128,1129,1130,0,0,0,0,0,0,0,0,0,0,0,0,0,0,0,0,0,0,0,0,0,0,0,0,0,0,0,0,0,0,0,0,0,0,0,0,0,0,0,0,0,0,0,0,0,0,0,0,0,0,0,0,0,0,0,0,0,0,0,0,0,0,0,920,920,920,920,0,920,920,920,920,920,920,920,920,0,920,920,920,920,920,920,920,920,920,920,920,920,920,920,920,920,920,920,920,920,920,920,920,0,877,878,878,879,878,878,878,878,878,878,878,878,852,853,853,853,853,827,802,803,777,778,778,778,778,778,778,778,752,753,753,753,754,753,754,755,778,778,779,805,828,829,828,829,829,830,854,855,920,920,920,920,920,920,0,0,0,0,852,853,853,853,853,854,853,
0,0,0,0,0,0,0,0,0,0,0,0,0,0,0,0,0,1127,1152,1203,1203,1203,1203,1203,1203,1203,1203,1154,1203,1153,1154,1153,1154,1181,0,0,0,0,0,0,0,0,0,0,0,0,0,0,0,0,0,0,0,920,0,0,0,0,0,0,0,0,0,0,0,0,0,0,0,0,0,0,0,0,0,0,0,0,0,0,0,0,0,0,0,0,0,0,0,0,0,0,0,0,0,0,0,920,920,920,920,0,920,920,920,920,920,920,920,920,920,0,920,920,920,920,920,920,920,920,920,920,920,920,920,920,920,920,920,920,920,920,920,0,0,920,920,920,920,920,920,920,920,920,920,920,920,877,878,878,878,878,852,827,828,802,803,803,803,803,803,803,803,777,778,778,778,779,778,779,780,803,803,804,830,853,854,853,854,854,855,879,880,920,920,920,920,920,920,920,920,920,920,877,878,878,878,878,879,878,
0,0,0,0,0,0,0,0,0,0,0,0,0,0,0,0,1151,1152,1203,1203,1203,1203,1203,1203,1203,1203,1203,1203,1203,1203,1203,1203,1203,1206,0,0,0,0,0,0,0,0,0,0,0,0,0,0,0,0,0,0,0,920,0,0,0,0,0,0,0,0,0,0,0,0,0,0,0,0,0,0,0,0,0,0,0,0,0,0,0,0,0,0,0,0,0,0,0,0,0,0,0,0,0,0,0,920,920,920,0,920,920,920,920,920,920,920,920,920,920,0,920,920,920,920,920,920,920,920,920,920,920,920,920,920,920,920,920,920,920,920,0,920,0,0,920,920,920,920,920,920,920,920,920,920,920,920,920,920,920,920,877,852,853,827,828,828,828,828,828,828,828,802,803,803,803,804,803,804,805,828,828,829,855,878,879,878,879,879,880,920,920,920,920,920,920,920,920,920,920,920,920,920,920,920,920,920,920,920,
0,0,0,0,0,0,0,0,0,0,0,0,0,0,0,0,1176,1203,1203,1203,1203,1203,1203,1203,1203,1203,1203,1203,1203,1203,1203,1203,1203,1155,1128,1129,1128,1129,1128,1129,1130,0,0,0,0,0,0,0,0,0,0,0,0,0,0,0,0,0,0,0,0,0,0,0,0,0,0,0,0,0,0,0,0,0,0,0,0,0,0,0,0,0,0,0,0,0,0,0,0,0,0,0,0,0,0,0,0,920,920,0,920,920,920,920,920,920,920,920,920,920,920,920,0,920,920,920,920,920,920,920,920,920,920,920,920,920,920,920,920,920,920,0,0,920,920,0,0,920,920,920,920,920,920,920,920,920,920,920,920,920,920,920,920,877,878,852,853,853,853,853,853,853,853,827,828,828,828,829,828,829,830,853,853,854,880,920,920,920,920,920,920,920,920,920,920,920,920,920,920,920,920,920,920,920,920,920,920,920,920,920,
0,0,0,0,0,0,0,0,0,0,0,0,0,0,0,0,1201,1203,1203,1203,1203,1203,1203,1203,1203,1203,1203,1203,1203,1203,1203,1203,1203,1203,1153,1154,1153,1154,1153,1154,1181,0,0,0,0,0,0,0,0,0,0,0,0,0,0,0,0,0,0,0,0,0,0,0,0,0,0,0,0,0,0,0,0,0,0,0,0,0,0,0,0,0,0,0,0,0,0,0,0,0,0,0,0,0,0,0,0,920,920,0,920,920,920,920,920,920,920,920,920,920,920,920,920,0,920,920,920,920,920,920,920,920,920,920,920,920,920,920,920,920,0,0,920,920,920,920,0,920,920,920,920,920,920,920,920,920,920,920,920,920,920,920,920,920,920,877,878,878,878,878,878,878,878,852,853,853,853,854,853,854,855,878,878,879,920,920,920,920,920,920,920,920,920,920,920,920,920,920,920,920,920,920,920,920,920,920,920,920,920,920,
0,0,0,0,0,0,0,0,0,0,0,0,0,0,0,0,1176,1203,1203,1203,1203,1203,1203,1203,1203,1203,1203,1203,1203,1203,1203,1203,1203,1203,1203,1203,1203,1203,1203,1203,1206,0,0,0,0,0,0,0,0,0,0,0,0,920,0,0,0,0,0,0,0,0,0,0,0,0,0,0,0,0,0,0,0,0,0,0,0,0,0,0,0,0,0,0,0,0,0,0,0,0,0,0,0,0,0,0,0,920,0,920,920,920,920,920,920,920,920,920,920,920,920,920,920,0,920,920,920,920,920,920,920,920,920,920,920,920,920,0,0,0,920,920,920,920,920,920,0,920,920,920,920,920,920,920,920,920,920,920,920,920,920,920,920,920,920,920,920,920,920,920,920,920,920,877,878,878,878,879,878,879,880,920,920,920,920,920,920,920,920,920,920,920,920,920,920,920,920,920,920,920,920,920,920,920,920,920,920,920,920,920,
0,0,0,0,0,0,0,0,0,0,0,0,0,0,0,0,1176,1203,1203,1203,1203,1203,1203,1203,1203,1203,1203,1203,1203,1203,1203,1203,1203,1203,1203,1203,1203,1203,1203,1230,1231,0,0,0,0,0,0,0,0,0,0,0,0,0,0,0,0,0,0,0,0,0,0,0,0,0,0,0,0,0,0,0,0,0,0,0,0,0,0,0,0,0,0,0,0,0,0,0,0,0,0,0,0,0,0,0,0,0,0,0,0,0,0,0,0,0,0,0,0,0,0,0,0,0,0,0,0,0,0,0,0,0,0,0,0,0,0,0,0,0,0,0,0,0,0,0,0,0,0,0,0,0,0,0,0,0,0,0,0,0,0,0,0,0,0,0,0,0,0,0,0,0,0,0,0,0,0,0,0,0,0,0,0,0,0,0,0,0,0,0,0,0,0,0,0,0,0,0,0,0,0,0,0,0,0,0,0,0,0,0,
0,0,0,0,0,0,0,0,0,0,0,0,0,0,0,0,1176,1203,1203,1203,1203,1203,1203,1203,1203,1203,1203,1203,1203,1203,1203,1203,1203,1203,1230,1253,1254,1253,1254,1255,829,0,0,0,0,0,0,0,0,0,0,0,0,0,0,0,0,0,0,0,0,0,0,0,0,0,0,0,0,0,0,0,0,0,0,0,0,0,0,0,0,0,0,0,0,0,0,0,0,0,0,0,0,0,0,0,0,0,0,0,0,0,0,0,0,0,0,0,0,0,0,0,0,0,0,0,0,0,0,0,0,0,0,0,0,0,0,0,0,0,0,0,0,0,0,0,0,0,0,0,0,0,0,0,0,0,0,0,0,0,0,0,0,0,0,0,0,0,0,0,0,0,0,0,0,0,0,0,0,0,0,0,0,0,0,0,0,0,0,0,0,0,0,0,0,0,0,0,0,0,0,0,0,0,0,0,0,0,0,0,
0,0,0,0,0,0,0,0,0,0,0,0,0,0,0,0,1201,1203,1203,1203,1203,1203,1203,1203,1203,1203,1203,1203,1203,1203,1203,1203,1203,1203,1206,828,828,828,828,829,829,0,0,0,0,0,0,0,0,0,0,0,0,0,0,0,0,0,0,0,0,0,0,0,0,0,0,0,0,0,0,0,0,0,0,0,0,0,0,0,0,0,0,0,0,0,0,0,0,0,0,0,0,0,0,0,0,0,0,0,0,0,0,0,0,0,0,0,0,0,0,0,0,0,0,0,0,0,0,0,0,0,0,0,0,0,0,0,0,0,0,0,0,0,0,0,0,0,0,0,0,0,0,0,0,0,0,0,0,0,0,0,0,0,0,0,0,0,0,0,0,0,0,0,0,0,0,0,0,0,0,0,0,0,0,0,0,0,0,0,0,0,0,0,0,0,0,0,0,0,0,0,0,0,0,0,0,0,0,0,
0,0,0,0,0,0,0,0,0,0,0,0,0,0,0,0,1176,1203,1203,1203,1203,1203,1203,1203,1203,1203,1203,1203,1203,1203,1203,1203,1203,1203,1155,1128,1129,1128,1129,1128,1128,1129,1130,0,0,0,0,0,0,0,0,0,0,0,0,0,0,0,0,0,0,0,0,0,0,0,0,0,0,0,0,0,0,0,0,0,0,0,0,0,0,0,0,0,0,0,0,0,0,0,0,0,0,0,0,0,0,0,0,0,0,0,0,0,0,0,0,0,0,0,0,0,0,0,0,0,0,0,0,0,0,0,0,0,0,0,0,0,0,0,0,0,0,0,0,0,0,0,0,0,0,0,0,0,0,0,0,0,0,0,0,0,0,0,0,0,0,0,0,0,0,0,0,0,0,0,0,0,0,0,0,0,0,0,0,0,0,0,0,0,0,0,0,0,0,0,0,0,0,0,0,0,0,0,0,0,0,0,0,0,
0,0,0,0,0,0,0,0,0,0,0,0,0,0,0,0,1201,1203,1203,1203,1203,1203,1203,1203,1203,1203,1203,1203,1203,1203,1203,1203,1203,1203,1203,1153,1154,1153,1154,1153,1153,1154,1181,0,0,0,0,0,0,0,0,0,0,0,0,0,0,0,0,0,0,0,0,0,0,0,0,0,0,0,0,0,0,0,0,0,0,0,0,0,0,0,0,0,0,0,0,0,0,0,0,0,0,0,0,0,0,0,0,0,0,0,0,0,0,0,0,0,0,0,0,0,0,0,0,0,0,0,0,0,0,0,0,0,0,0,0,0,0,0,0,0,0,0,0,0,0,0,0,0,0,0,0,0,0,0,0,0,0,0,0,0,0,0,0,0,0,0,0,0,0,0,0,0,0,0,0,0,0,0,0,0,0,0,0,0,0,0,0,0,0,0,0,0,0,0,0,0,0,0,0,0,0,0,0,0,0,0,0,0,
0,0,0,0,0,0,0,0,0,0,0,0,0,0,0,0,1226,1253,1253,1254,1227,1203,1203,1203,1203,1203,1203,1203,1203,1203,1203,1203,1203,1203,1203,1203,1203,1203,1203,1203,1203,1203,1206,0,0,0,0,0,0,0,0,0,0,0,0,0,0,0,0,0,0,0,0,0,0,0,0,0,0,0,0,0,0,0,0,0,0,0,0,0,0,0,0,0,0,0,0,0,0,0,0,0,0,0,0,0,0,0,0,0,0,0,0,0,0,0,0,0,0,0,0,0,0,0,0,0,0,0,0,0,0,0,0,0,0,0,0,0,0,0,0,0,0,0,0,0,0,0,0,0,0,0,0,0,0,0,0,0,0,0,0,0,0,0,0,0,0,0,0,0,0,0,0,0,0,0,0,0,0,0,0,0,0,0,0,0,0,0,0,0,0,0,0,0,0,0,0,0,0,0,0,0,0,0,0,0,0,0,0,0,
0,0,0,0,0,0,0,0,0,0,0,0,0,0,0,0,776,802,803,804,1252,1253,1254,1253,1254,1227,1203,1203,1203,1203,1203,1203,1203,1203,1203,1203,1203,1203,1203,1203,1203,1203,1155,1128,1128,1129,1130,0,0,0,0,0,0,0,0,0,0,0,0,0,0,0,0,0,0,0,0,0,0,0,0,0,0,0,0,0,0,0,0,0,0,0,0,0,0,0,0,0,0,0,0,0,0,0,0,0,0,0,0,0,0,0,0,0,0,0,0,0,0,0,0,0,0,0,0,0,0,0,0,0,0,0,0,0,0,0,0,0,0,0,0,0,0,0,0,0,0,0,0,0,0,0,0,0,0,0,0,0,0,0,0,0,0,0,0,0,0,0,0,0,0,0,0,0,0,0,0,0,0,0,0,0,0,0,0,0,0,0,0,0,0,0,0,0,0,0,0,0,0,0,0,0,0,0,0,0,0,0,0,0,
0,0,0,0,0,0,0,0,0,0,0,0,0,0,0,0,801,828,828,829,802,803,804,803,804,1252,1227,1203,1203,1203,1203,1203,1203,1203,1203,1203,1203,1203,1203,1203,1203,1203,1203,1153,1153,1154,1181,0,0,0,0,0,0,0,0,0,0,0,0,0,0,0,0,0,0,0,0,0,0,0,0,0,0,0,0,0,0,0,0,0,0,0,0,0,0,0,0,0,0,0,0,0,0,0,0,0,0,0,0,0,0,0,0,0,0,0,0,0,0,0,0,0,0,0,0,0,0,0,0,0,0,0,0,0,0,0,0,0,0,0,0,0,0,0,0,0,0,0,0,0,0,0,0,0,0,0,0,0,0,0,0,0,0,0,0,0,0,0,0,0,0,0,0,0,0,0,0,0,0,0,0,0,0,0,0,0,0,0,0,0,0,0,0,0,0,0,0,0,0,0,0,0,0,0,0,0,0,0,0,0,
0,0,0,0,0,0,0,0,0,0,0,0,0,0,0,0,826,853,853,854,827,828,829,828,829,802,1252,1227,1203,1203,1203,1203,1203,1203,1203,1203,1203,1203,1203,1203,1203,1203,1203,1203,1203,1203,1206,0,0,0,0,0,0,0,0,0,0,0,0,0,0,0,0,0,0,0,0,0,0,0,0,0,0,0,0,0,0,0,0,0,0,0,0,0,0,0,0,0,0,0,0,0,0,0,0,0,0,0,0,0,0,0,0,0,0,0,0,0,0,0,0,0,0,0,0,0,0,0,0,0,0,0,0,0,0,0,0,0,0,0,0,0,0,0,0,0,0,0,0,0,0,0,0,0,0,0,0,0,0,0,0,0,0,0,0,0,0,0,0,0,0,0,0,0,0,0,0,0,0,0,0,0,0,0,0,0,0,0,0,0,0,0,0,0,0,0,0,0,0,0,0,0,0,0,0,0,0,0,0,0,
0,0,0,0,0,0,0,0,0,0,0,0,0,0,0,0,851,878,878,879,852,853,854,853,854,827,802,1252,1253,1254,1253,1254,1227,1203,1203,1203,1203,1203,1203,1203,1203,1203,1203,1203,1203,1203,1206,0,0,0,0,0,0,0,0,0,0,0,0,0,0,0,0,0,0,0,0,0,0,0,0,0,0,0,0,0,0,0,0,0,0,0,0,0,0,0,0,0,0,0,0,0,0,0,0,0,0,0,0,0,0,0,0,0,0,0,0,0,0,0,0,0,0,0,0,0,0,0,0,0,0,0,0,0,0,0,0,0,0,0,0,0,0,0,0,0,0,0,0,0,0,0,0,0,0,0,0,0,0,0,0,0,0,0,0,0,0,0,0,0,0,0,0,0,0,0,0,0,0,0,0,0,0,0,0,0,0,0,0,0,0,0,0,0,0,0,0,0,0,0,0,0,0,0,0,0,0,0,0,0,
0,0,0,0,0,0,0,0,0,0,0,0,0,0,0,0,0,0,0,0,877,878,879,878,879,852,827,802,804,803,804,804,1252,1253,1253,1253,1253,1253,1253,1253,1253,1253,1253,1254,1253,1254,1255,0,0,0,0,0,0,0,0,0,0,0,0,0,0,0,0,0,0,0,0,0,0,0,0,0,0,0,0,0,0,0,0,0,0,0,0,0,0,0,0,0,0,0,0,0,0,0,0,0,0,0,0,0,0,0,0,0,0,0,0,0,0,0,0,0,0,0,0,0,0,0,0,0,0,0,0,0,0,0,0,0,0,0,0,0,0,0,0,0,0,0,0,0,0,0,0,0,0,0,0,0,0,0,0,0,0,0,0,0,0,0,0,0,0,0,0,0,0,0,0,0,0,0,0,0,0,0,0,0,0,0,0,0,0,0,0,0,0,0,0,0,0,0,0,0,0,0,0,0,0,0,0,0,
0,0,0,0,0,0,0,0,0,0,0,0,0,0,0,0,0,0,0,0,0,0,0,0,0,877,852,827,829,828,829,829,802,803,803,803,803,803,803,803,803,803,803,803,803,804,805,0,0,0,0,0,0,0,0,0,0,0,0,0,0,0,0,0,0,0,0,0,0,0,0,0,0,0,0,0,0,0,0,0,0,0,0,0,0,0,0,0,0,0,0,0,0,0,0,0,0,0,0,0,0,0,0,0,0,0,0,0,0,0,0,0,0,0,0,0,0,0,0,0,0,0,0,0,0,0,0,0,0,0,0,0,0,0,0,0,0,0,0,0,0,0,0,0,0,0,0,0,0,0,0,0,0,0,0,0,0,0,0,0,0,0,0,0,0,0,0,0,0,0,0,0,0,0,0,0,0,0,0,0,0,0,0,0,0,0,0,0,0,0,0,0,0,0,0,0,0,0,0,0,
0,0,0,0,0,0,0,0,0,0,0,0,0,0,0,0,0,0,0,0,0,0,0,0,0,0,877,852,854,853,854,854,827,828,828,828,828,828,828,828,828,828,828,828,828,829,830,0,0,0,0,0,0,0,0,0,0,0,0,0,0,0,0,0,0,0,0,0,0,0,0,0,0,0,0,0,0,0,0,0,0,0,0,0,0,0,0,0,0,0,0,0,0,0,0,0,0,0,0,0,0,0,0,0,0,0,0,0,0,0,0,0,0,0,0,0,0,0,0,0,0,0,0,0,0,0,0,0,0,0,0,0,0,0,0,0,0,0,0,0,0,0,0,0,0,0,0,0,0,0,0,0,0,0,0,0,0,0,0,0,0,0,0,0,0,0,0,0,0,0,0,0,0,0,0,0,0,0,0,0,0,0,0,0,0,0,0,0,0,0,0,0,0,0,0,0,0,0,0,0,
0,0,0,0,0,0,0,0,0,0,0,0,0,0,0,0,0,0,0,0,0,0,0,0,0,0,0,877,879,878,879,879,852,853,853,853,853,853,853,853,853,853,853,853,853,854,855,0,0,0,0,0,0,0,0,0,0,0,0,0,0,0,0,0,0,0,0,0,0,0,0,0,0,0,0,0,0,0,0,0,0,0,0,0,0,0,0,0,0,0,0,0,0,0,0,0,0,0,0,0,0,0,0,0,0,0,0,0,0,0,0,0,0,0,0,0,0,0,0,0,0,0,0,0,0,0,0,0,0,0,0,0,0,0,0,0,0,0,0,0,0,0,0,0,0,0,0,0,0,0,0,0,0,0,0,0,0,0,0,0,0,0,0,0,0,0,0,0,0,0,0,0,0,0,0,0,0,0,0,0,0,0,0,0,0,0,0,0,0,0,0,0,0,0,0,0,0,0,0,0,
0,0,0,0,0,0,0,0,0,0,0,0,0,0,0,0,0,0,0,0,0,0,0,0,0,0,0,0,0,0,0,0,877,878,878,878,878,878,878,878,878,878,878,878,878,879,880,0,0,0,0,0,0,0,0,0,0,0,0,0,0,0,0,0,0,0,0,0,0,0,0,0,0,0,0,0,0,0,0,0,0,0,0,0,0,0,0,0,0,0,0,0,0,0,0,0,0,0,0,0,0,0,0,0,0,0,0,0,0,0,0,0,0,0,0,0,0,0,0,0,0,0,0,0,0,0,0,0,0,0,0,0,0,0,0,0,0,0,0,0,0,0,0,0,0,0,0,0,0,0,0,0,0,0,0,0,0,0,0,0,0,0,0,0,0,0,0,0,0,0,0,0,0,0,0,0,0,0,0,0,0,0,0,0,0,0,0,0,0,0,0,0,0,0,0,0,0,0,0,0,
0,0,0,0,0,0,0,0,0,0,0,0,0,0,0,0,0,0,0,0,0,0,0,0,0,0,0,0,0,0,0,0,0,0,0,0,0,0,0,0,0,0,0,0,0,0,0,0,0,0,0,0,0,0,0,0,0,0,0,0,0,0,0,0,0,0,0,0,0,0,0,0,0,0,0,0,0,0,0,0,0,0,0,0,0,0,0,0,0,0,0,0,0,0,0,0,0,0,0,0,0,0,0,0,0,0,0,0,0,0,0,0,0,0,0,0,0,0,0,0,0,0,0,0,0,0,0,0,0,0,0,0,0,0,0,0,0,0,0,0,0,0,0,0,0,0,0,0,0,0,0,0,0,0,0,0,0,0,0,0,0,0,0,0,0,0,0,0,0,0,0,0,0,0,0,0,0,0,0,0,0,0,0,0,0,0,0,0,0,0,0,0,0,0,0,0,0,0,0,0,
0,0,0,0,0,0,0,0,0,0,0,0,0,0,0,0,0,0,0,0,0,0,0,0,0,0,0,0,0,0,0,0,0,0,0,0,0,0,0,0,0,0,0,0,0,0,0,0,0,0,0,0,0,0,0,0,0,0,0,0,0,0,0,0,0,0,0,0,0,0,0,0,0,0,0,0,0,0,0,0,0,0,0,0,0,0,0,0,0,0,0,0,0,0,0,0,0,0,0,0,0,0,0,0,0,0,0,0,0,0,0,0,0,0,0,0,0,0,0,0,0,0,0,0,0,0,0,0,0,0,0,0,0,0,0,652,653,654,653,653,654,655,0,0,0,0,0,0,0,0,0,0,0,0,0,0,0,0,0,0,0,0,0,0,0,0,0,0,0,0,0,0,0,0,0,0,0,0,0,0,0,0,0,0,0,0,0,0,0,0,0,0,0,0,0,0,0,0,0,0,
0,0,0,0,0,0,0,0,0,0,0,0,0,0,0,0,0,0,0,0,0,0,0,0,0,0,0,0,0,0,0,0,0,0,0,0,0,0,0,0,0,0,0,0,0,0,0,0,0,0,0,0,0,0,0,0,0,0,0,0,0,0,0,0,0,0,0,0,0,0,0,0,0,0,0,0,0,0,0,0,0,0,0,0,0,0,0,0,0,0,0,0,0,0,0,0,0,0,0,0,0,0,0,0,0,0,0,0,0,0,0,0,0,0,0,0,0,0,0,0,0,0,0,0,0,0,0,0,0,0,0,0,652,653,654,677,678,728,728,728,728,680,681,0,0,0,0,0,0,0,0,0,0,0,0,0,0,0,0,0,0,0,0,0,0,0,0,0,0,0,0,0,0,0,0,0,0,0,0,0,0,0,0,0,0,0,0,0,0,0,0,0,0,0,0,0,0,0,0,0,
0,0,0,0,0,0,0,0,0,0,0,0,0,0,0,0,0,0,0,0,0,0,0,0,0,0,0,0,0,0,0,0,0,0,0,0,0,0,0,0,0,0,0,0,0,0,0,0,0,0,0,0,0,0,0,0,0,0,0,0,0,0,0,0,0,0,0,0,0,0,0,0,0,0,0,0,0,0,0,0,0,0,0,0,0,0,0,0,0,0,0,0,0,0,0,0,0,0,0,0,0,0,0,0,0,0,0,0,0,0,0,0,0,0,0,0,0,0,0,0,0,0,0,0,0,0,0,0,0,0,0,652,677,728,728,728,728,678,678,678,679,705,680,681,0,0,0,0,0,0,0,0,0,0,0,0,0,0,0,0,0,0,0,0,0,0,0,0,0,0,0,0,0,0,0,0,0,0,0,0,0,0,0,0,0,0,0,0,0,0,0,0,0,0,0,0,0,0,0,0,
0,0,0,0,0,0,0,0,0,0,0,0,0,0,0,0,0,0,0,0,0,0,0,0,0,0,0,0,0,0,0,0,0,0,0,0,0,0,0,0,0,0,0,0,0,0,0,0,0,0,0,0,0,0,0,0,0,0,0,0,0,0,0,0,0,0,0,0,0,0,0,0,0,0,0,0,0,0,0,0,0,0,0,0,652,653,653,654,653,653,653,654,653,655,0,0,0,0,0,0,652,653,654,653,653,654,653,653,654,653,653,654,655,0,0,0,0,0,0,0,0,0,0,0,0,0,0,0,0,0,652,677,728,728,728,728,728,728,728,728,728,728,705,680,681,0,0,0,0,0,0,0,0,0,0,0,0,0,0,0,0,0,0,0,0,0,0,0,0,0,0,0,0,0,0,0,0,0,0,0,0,0,0,0,0,0,0,0,0,0,0,0,0,0,0,0,0,0,0,0,
0,0,0,0,0,0,0,0,0,0,0,0,0,0,0,0,0,0,0,0,0,0,0,0,0,0,0,0,0,0,0,0,0,0,0,0,0,0,0,0,0,0,0,0,0,0,0,0,0,0,0,0,0,0,0,652,1128,1128,1128,1128,1128,1128,1129,655,0,0,0,0,0,0,0,0,0,0,0,0,0,0,0,0,0,0,652,653,677,678,678,679,678,678,678,678,678,680,681,0,0,0,0,652,677,678,678,678,678,679,679,678,679,678,679,678,680,681,0,0,652,653,653,654,653,653,653,654,653,654,653,654,653,654,677,728,728,728,728,728,728,728,728,728,728,728,728,705,706,0,0,0,0,0,0,0,0,0,0,0,0,0,0,0,0,0,0,0,0,0,0,0,0,0,0,0,0,0,0,0,0,0,0,0,0,0,0,0,0,0,0,0,0,0,0,0,0,0,0,0,0,0,0,0,
0,0,0,0,0,0,0,0,0,0,0,0,0,0,0,0,0,0,0,0,0,0,0,0,0,0,0,0,0,0,0,0,0,0,0,0,0,0,0,0,0,0,0,0,0,0,0,0,0,0,0,0,0,0,676,1152,1203,1203,1203,1203,1203,1203,1203,1155,681,0,0,0,0,0,0,0,0,0,0,0,0,0,0,0,0,652,677,678,704,703,704,703,704,703,704,703,704,703,706,0,0,0,652,677,704,703,704,703,704,703,704,703,704,703,704,703,704,680,681,676,677,703,728,728,728,728,728,728,728,728,728,728,728,728,728,728,728,728,728,728,728,728,728,728,728,728,728,728,680,681,0,0,0,0,0,0,0,0,0,0,0,0,0,0,0,0,0,0,0,0,0,0,0,0,0,0,0,0,0,0,0,0,0,0,0,0,0,0,0,0,0,0,0,0,0,0,0,0,0,0,0,0,0,0,
0,0,0,0,0,0,0,0,0,0,0,0,0,0,0,0,0,0,0,0,0,0,0,0,0,0,0,0,0,0,0,0,0,0,0,0,0,0,0,0,0,0,0,0,0,0,0,0,0,0,0,0,0,676,1152,1203,1203,1203,1203,1203,1203,1203,1203,1203,1155,655,0,0,0,0,0,0,0,0,0,0,0,0,0,0,676,677,729,728,729,728,729,728,729,728,729,728,729,728,680,653,653,654,677,678,729,728,729,728,729,728,729,728,729,728,729,728,729,728,729,728,729,728,728,728,728,728,728,728,728,728,728,728,728,728,728,728,728,728,728,728,728,728,728,728,728,728,728,728,705,706,0,0,0,0,0,0,0,0,0,0,0,0,0,0,0,0,0,0,0,0,0,0,0,0,0,0,0,0,0,0,0,0,0,0,0,0,0,0,0,0,0,0,0,0,0,0,0,0,0,0,0,0,0,0,
0,0,0,0,0,0,0,0,0,0,0,0,0,0,0,0,0,0,0,0,0,0,0,0,0,0,0,0,0,0,0,0,0,0,0,0,0,0,0,0,0,0,0,0,0,0,652,1128,1129,655,0,0,676,1152,1203,1203,1203,1203,1203,1203,1203,1203,1203,1203,1203,1155,681,0,0,0,0,0,0,0,0,0,0,0,0,0,701,753,754,753,754,753,754,753,754,753,754,753,754,753,678,679,754,753,754,753,754,753,754,753,754,753,754,753,754,753,754,753,754,753,754,753,754,753,728,728,728,728,728,728,728,728,728,728,728,728,728,728,728,728,728,728,728,728,728,728,728,728,728,728,728,680,681,0,0,0,0,0,0,0,0,0,0,0,0,0,0,0,0,0,0,0,0,0,0,0,0,0,0,0,0,0,0,0,0,0,0,0,0,0,0,0,0,0,0,0,0,0,0,0,0,0,0,0,0,0,
0,0,0,0,0,0,0,0,0,0,0,0,0,0,0,0,0,0,0,0,0,0,0,0,0,0,0,0,0,0,0,0,0,0,0,0,0,0,0,0,0,0,0,0,0,676,1152,1179,1179,1155,1128,1129,1152,1203,1203,1203,1203,1203,1203,1203,1203,1203,1203,1203,1203,1203,1181,0,0,0,0,0,0,0,0,0,0,0,0,0,701,678,679,678,679,678,679,678,679,678,679,678,679,678,703,704,679,678,679,678,679,678,679,678,679,678,679,678,679,678,679,678,679,678,679,678,679,678,728,728,728,728,728,728,728,728,728,728,728,728,728,728,728,728,728,728,728,728,728,728,728,728,728,728,728,705,706,0,0,0,0,0,0,0,0,0,0,0,0,0,0,0,0,0,0,0,0,0,0,0,0,0,0,0,0,0,0,0,0,0,0,0,0,0,0,0,0,0,0,0,0,0,0,0,0,0,0,0,0,0,
0,0,0,0,0,0,0,0,0,0,0,0,0,0,0,0,0,0,0,0,0,0,0,0,0,0,0,0,0,0,0,0,0,0,0,0,0,0,0,0,0,0,0,0,0,1176,1203,1203,1203,1203,1203,1203,1203,1203,1203,1203,1203,1203,1203,1203,1203,1203,1203,1203,1203,1203,1206,0,0,0,0,0,0,0,0,0,0,0,0,0,701,703,704,703,704,703,704,703,704,703,704,703,704,703,728,729,704,703,704,703,704,703,704,703,704,703,704,703,704,703,704,703,704,703,704,703,704,703,728,728,728,728,728,728,728,728,728,728,728,728,728,728,728,728,728,728,705,705,705,705,705,705,705,705,705,728,680,681,0,0,0,0,0,0,0,0,0,0,0,0,0,0,0,0,0,0,0,0,0,0,0,0,0,0,0,0,0,0,0,0,0,0,0,0,0,0,0,0,0,0,0,0,0,0,0,0,0,0,0,0,
0,0,0,0,0,0,0,0,0,0,0,0,0,0,0,0,0,0,0,0,0,0,0,0,0,0,0,0,0,0,0,0,0,0,0,0,0,0,0,0,0,0,0,0,0,1176,1203,1203,1203,1203,1203,1203,1203,1203,1203,1203,1203,1203,1203,1203,1203,1203,1203,1203,1203,1204,1206,0,0,0,0,0,0,0,0,0,0,0,0,0,701,728,729,728,729,728,729,728,729,728,729,728,729,728,753,754,729,728,729,728,729,728,729,728,729,728,729,728,729,728,729,728,729,728,729,728,729,728,728,728,728,728,728,728,728,728,728,728,728,728,728,728,728,728,728,728,705,705,705,705,705,705,705,705,705,728,728,706,0,0,0,0,0,0,0,0,0,0,0,0,0,0,0,0,0,0,0,0,0,0,0,0,0,0,0,0,0,0,0,0,0,0,0,0,0,0,0,0,0,0,0,0,0,0,0,0,0,0,0,0,
0,0,0,0,0,0,0,0,0,0,0,0,0,0,0,0,0,0,0,0,0,0,0,0,0,0,0,0,0,0,0,0,0,0,0,0,0,0,0,0,0,0,0,0,0,1176,1203,1203,1203,1203,1203,1203,1203,1203,1203,1203,1203,1203,1203,1203,1203,1203,1203,1203,1203,1230,1231,0,0,0,0,0,0,0,0,0,0,0,0,0,701,753,754,753,754,753,754,753,754,753,754,753,754,753,754,753,754,753,754,753,754,753,754,753,754,753,754,753,754,753,754,753,754,753,754,753,754,753,728,728,728,728,728,728,728,728,728,728,728,728,728,728,728,728,728,728,705,705,705,705,705,705,705,705,705,728,728,731,0,0,0,0,0,0,0,0,0,0,0,0,0,0,0,0,0,0,0,0,0,0,0,0,0,0,0,0,0,0,0,0,0,0,0,0,0,0,0,0,0,0,0,0,0,0,0,0,0,0,0,0,
0,0,0,0,0,0,0,0,0,0,0,0,0,0,0,0,0,0,0,0,0,0,0,0,0,0,0,0,0,0,0,0,0,0,0,0,0,0,0,0,0,0,0,0,0,1201,1203,1203,1203,1203,1203,1203,1203,1203,1203,1203,1203,1203,1230,1253,1253,1253,1254,1253,1254,1255,781,0,0,0,0,0,0,0,0,0,0,0,0,0,701,678,679,678,679,678,679,678,679,678,679,678,679,678,679,678,679,678,679,678,679,678,679,678,679,678,679,678,679,678,679,678,679,678,679,678,679,678,728,728,728,728,728,728,728,728,728,728,728,728,728,728,728,728,728,728,705,705,705,705,705,705,705,705,705,728,728,706,0,0,0,0,0,0,0,0,0,0,0,0,0,0,0,0,0,0,0,0,0,0,0,0,0,0,0,0,0,0,0,0,0,0,0,0,0,0,0,0,0,0,0,0,0,0,0,0,0,0,0,0,
0,0,0,0,0,0,0,0,0,0,0,0,0,0,0,0,0,0,0,0,0,0,0,0,0,0,0,0,0,0,0,0,0,0,0,0,0,0,0,0,0,0,0,0,0,1252,1227,1203,1203,1203,1203,1203,1203,1203,1203,1203,1203,1230,1255,803,804,803,804,803,804,805,806,0,0,0,0,0,0,0,0,0,0,0,0,0,701,703,704,703,704,703,704,703,704,703,704,703,704,703,704,703,704,703,704,703,704,703,704,703,704,703,704,703,704,703,704,703,704,703,704,703,704,703,728,728,728,728,728,728,728,728,728,728,728,728,728,728,728,728,728,728,705,705,705,705,705,705,705,705,705,728,728,731,0,0,0,0,0,0,0,0,0,0,0,0,0,0,0,0,0,0,0,0,0,0,0,0,0,0,0,0,0,0,0,0,0,0,0,0,0,0,0,0,0,0,0,0,0,0,0,0,0,0,0,0,
0,0,0,0,0,0,0,0,0,0,0,0,0,0,0,0,0,0,0,0,0,0,0,0,0,0,0,0,0,0,0,0,0,0,0,0,0,0,0,0,0,0,0,0,0,776,1252,1253,1227,1203,1203,1203,1203,1203,1203,1203,1230,1255,805,853,854,853,853,853,854,830,831,0,0,0,0,0,0,0,0,0,0,0,0,0,701,728,729,728,729,728,729,728,729,728,729,728,729,728,729,728,729,728,729,728,729,728,729,728,729,728,729,728,729,728,729,728,729,728,729,728,729,728,728,728,728,728,728,728,728,728,728,728,728,728,728,728,728,728,728,728,705,705,705,705,705,705,705,705,705,728,728,731,0,0,0,0,0,0,0,0,0,0,0,0,0,0,0,0,0,0,0,0,0,0,0,0,0,0,0,0,0,0,0,0,0,0,0,0,0,0,0,0,0,0,0,0,0,0,0,0,0,0,0,0,
0,0,0,0,0,0,0,0,0,0,0,0,0,0,0,0,0,0,0,0,0,0,0,0,0,0,0,0,0,0,0,0,0,0,0,0,0,0,0,0,0,0,0,0,0,801,802,803,1176,1179,1203,1203,1203,1203,1203,1230,1255,805,830,878,879,878,878,878,879,880,856,0,0,0,0,0,0,0,0,0,0,0,0,0,701,753,754,753,754,753,754,753,754,753,754,753,754,753,754,753,754,753,754,753,754,753,754,753,754,753,754,753,754,753,754,753,754,753,754,753,754,753,728,728,728,728,728,728,728,728,728,728,728,728,728,728,728,728,728,728,705,705,705,705,705,705,705,705,705,728,755,756,0,0,0,0,0,0,0,0,0,0,0,0,0,0,0,0,0,0,0,0,0,0,0,0,0,0,0,0,0,0,0,0,0,0,0,0,0,0,0,0,0,0,0,0,0,0,0,0,0,0,0,0,
0,0,0,0,0,0,0,0,0,0,0,0,0,0,0,0,0,0,0,0,0,0,0,0,0,0,0,0,0,0,0,0,0,0,0,0,0,0,0,0,0,0,0,0,0,826,827,828,1252,1253,1254,1227,1179,1203,1230,1255,805,830,855,0,0,0,0,0,0,0,0,0,0,0,0,0,0,0,0,0,0,0,0,0,726,678,679,678,679,678,679,678,679,678,679,678,679,678,679,678,679,678,679,678,679,678,679,678,679,678,679,678,679,678,679,678,679,678,679,678,679,678,728,728,728,728,728,728,754,755,778,778,778,778,778,778,779,752,753,728,705,705,705,705,705,705,705,705,705,729,780,781,0,0,0,0,0,0,0,0,0,0,0,0,0,0,0,0,0,0,0,0,0,0,0,0,0,0,0,0,0,0,0,0,0,0,0,0,0,0,0,0,0,0,0,0,0,0,0,0,0,0,0,0,
0,0,0,0,0,0,0,0,0,0,0,0,0,0,0,0,0,0,0,0,0,0,0,0,0,0,0,0,0,0,0,0,0,0,0,0,0,0,0,0,0,0,0,0,0,851,852,853,802,803,804,777,1253,1254,1255,805,830,855,880,0,0,0,0,0,0,0,0,0,0,0,0,0,0,0,0,0,0,0,0,0,701,703,704,703,704,703,704,703,704,703,704,703,704,703,704,703,704,703,704,703,704,703,704,703,704,703,704,703,704,703,704,703,704,703,704,703,704,703,728,728,728,728,754,755,779,780,803,803,803,803,803,803,804,777,778,752,705,705,705,705,705,705,705,705,705,755,805,806,0,0,0,0,0,0,0,0,0,0,0,0,0,0,0,0,0,0,0,0,0,0,0,0,0,0,0,0,0,0,0,0,0,0,0,0,0,0,0,0,0,0,0,0,0,0,0,0,0,0,0,0,
0,0,0,0,0,0,0,0,0,0,0,0,0,0,0,0,0,0,0,0,0,0,0,0,0,0,0,0,0,0,0,0,0,0,0,0,0,0,0,0,0,0,0,0,0,0,877,878,827,828,829,802,803,804,805,830,855,880,0,0,0,0,0,0,0,0,0,0,0,0,0,0,0,0,0,0,0,0,0,0,726,728,729,728,729,728,729,728,729,728,729,728,729,728,729,728,729,728,729,728,729,728,729,728,729,728,729,728,729,728,729,728,729,728,729,728,729,728,728,728,755,779,779,780,804,805,828,828,828,828,828,828,829,802,803,777,778,752,728,728,728,728,728,755,755,780,830,831,0,0,0,0,0,0,0,0,0,0,0,0,0,0,0,0,0,0,0,0,0,0,0,0,0,0,0,0,0,0,0,0,0,0,0,0,0,0,0,0,0,0,0,0,0,0,0,0,0,0,0,0,
0,0,0,0,0,0,0,0,0,0,0,0,0,0,0,0,0,0,0,0,0,0,0,0,0,0,0,0,0,0,0,0,0,0,0,0,0,0,0,0,0,0,0,0,0,0,0,0,852,853,854,827,828,829,830,855,880,0,0,0,0,0,0,0,0,0,0,0,0,0,0,0,0,0,0,0,0,0,0,0,751,752,753,754,754,753,754,753,754,753,754,753,754,753,754,753,754,753,754,753,754,753,754,753,754,753,754,753,754,753,754,753,754,753,754,753,754,755,778,779,780,804,804,805,829,830,853,853,853,853,853,853,854,827,828,802,803,777,752,728,728,755,779,780,804,805,855,856,0,0,0,0,0,0,0,0,0,0,0,0,0,0,0,0,0,0,0,0,0,0,0,0,0,0,0,0,0,0,0,0,0,0,0,0,0,0,0,0,0,0,0,0,0,0,0,0,0,0,0,0,
0,0,0,0,0,0,0,0,0,0,0,0,0,0,0,0,0,0,0,0,0,0,0,0,0,0,0,0,0,0,0,0,0,0,0,0,0,0,0,0,0,0,0,0,0,0,0,0,877,878,879,852,853,854,855,880,0,0,0,0,0,0,0,0,0,0,0,0,0,0,0,0,0,0,0,0,0,0,0,0,776,777,778,779,752,753,754,678,679,678,679,678,679,678,679,678,679,678,679,678,679,678,679,678,679,678,679,678,679,678,679,678,679,678,779,778,779,780,803,804,805,829,829,830,854,855,878,878,878,878,878,878,879,852,853,827,828,802,777,778,779,780,804,805,829,830,880,0,0,0,0,0,0,0,0,0,0,0,0,0,0,0,0,0,0,0,0,0,0,0,0,0,0,0,0,0,0,0,0,0,0,0,0,0,0,0,0,0,0,0,0,0,0,0,0,0,0,0,0,0,
0,0,0,0,0,0,0,0,0,0,0,0,0,0,0,0,0,0,0,0,0,0,0,0,0,0,0,0,0,0,0,0,0,0,0,0,0,0,0,0,0,0,0,0,0,0,0,0,0,0,0,877,878,879,880,0,0,0,0,0,0,0,0,0,0,0,0,0,0,0,0,0,0,0,0,0,0,0,0,0,801,802,803,804,777,778,779,752,753,754,704,703,704,703,704,703,704,703,704,703,704,703,704,703,704,703,704,703,704,703,704,779,778,779,780,803,804,805,828,829,830,854,854,855,879,880,0,0,0,0,0,0,0,877,878,852,853,827,802,803,804,805,829,830,854,855,0,0,0,0,0,0,0,0,0,0,0,0,0,0,0,0,0,0,0,0,0,0,0,0,0,0,0,0,0,0,0,0,0,0,0,0,0,0,0,0,0,0,0,0,0,0,0,0,0,0,0,0,0,0,
0,0,0,0,0,0,0,0,0,0,0,0,0,0,0,0,0,0,0,0,0,0,0,0,0,0,0,0,0,0,0,0,0,0,0,0,0,0,0,0,0,0,0,0,0,0,0,0,0,0,0,0,0,0,0,0,0,0,0,0,0,0,0,0,0,0,0,0,0,0,0,0,0,0,0,0,0,0,0,0,826,827,828,829,802,803,804,777,778,779,752,728,729,728,729,728,729,728,729,728,729,728,729,728,729,728,729,754,755,778,779,780,803,804,805,828,829,830,853,854,855,879,879,880,0,0,0,0,0,0,0,0,0,0,0,877,878,852,827,828,829,830,854,855,879,880,0,0,0,0,0,0,0,0,0,0,0,0,0,0,0,0,0,0,0,0,0,0,0,0,0,0,0,0,0,0,0,0,0,0,0,0,0,0,0,0,0,0,0,0,0,0,0,0,0,0,0,0,0,0,
0,0,0,0,0,0,0,0,0,0,0,0,0,0,0,0,0,0,0,0,0,0,0,0,0,0,0,0,0,0,0,0,0,0,0,0,0,0,0,0,0,0,0,0,0,0,0,0,0,0,0,0,0,0,0,0,0,0,0,0,0,0,0,0,0,0,0,0,0,0,0,0,0,0,0,0,0,0,0,0,851,852,853,854,827,828,829,802,803,804,777,778,779,778,778,778,778,1051,1052,1052,1052,1052,1053,778,778,778,779,779,780,803,804,805,828,829,830,853,854,855,878,879,880,0,0,0,0,0,0,0,0,0,0,0,0,0,0,0,0,877,852,853,854,855,879,880,0,0,0,0,0,0,0,0,0,0,0,0,0,0,0,0,0,0,0,0,0,0,0,0,0,0,0,0,0,0,0,0,0,0,0,0,0,0,0,0,0,0,0,0,0,0,0,0,0,0,0,0,0,0,0,0,
0,0,0,0,0,0,0,0,0,0,0,0,0,0,0,0,0,0,0,0,0,0,0,0,0,0,0,0,0,0,0,0,0,0,0,0,0,0,0,0,0,0,0,0,0,0,0,0,0,0,0,0,0,0,0,0,0,0,0,0,0,0,0,0,0,0,0,0,0,0,0,0,0,0,0,0,0,0,0,0,0,877,878,879,852,853,854,827,828,829,802,803,804,803,803,803,803,1076,1077,1077,1052,1052,1053,803,803,803,804,804,805,828,829,830,853,854,855,878,879,880,0,0,0,0,0,0,0,0,0,0,0,0,0,0,0,0,0,0,0,0,877,878,879,880,0,0,0,0,0,0,0,0,0,0,0,0,0,0,0,0,0,0,0,0,0,0,0,0,0,0,0,0,0,0,0,0,0,0,0,0,0,0,0,0,0,0,0,0,0,0,0,0,0,0,0,0,0,0,0,0,0,0,
0,0,0,0,0,0,0,0,0,0,0,0,0,0,0,0,0,0,0,0,0,0,0,0,0,0,0,0,0,0,0,0,0,0,0,0,0,0,0,0,0,0,0,0,0,0,0,0,0,0,0,0,0,0,0,0,0,0,0,0,0,0,0,0,0,0,0,0,0,0,0,0,0,0,0,0,0,0,0,0,0,0,0,0,877,878,879,852,853,854,827,828,829,828,828,828,828,1076,1077,1077,1077,1077,1078,828,828,828,829,829,830,853,854,855,878,879,880,0,0,0,0,0,0,0,0,0,0,0,0,0,0,0,0,0,0,0,0,0,0,0,0,0,0,0,0,0,0,0,0,0,0,0,0,0,0,0,0,0,0,0,0,0,0,0,0,0,0,0,0,0,0,0,0,0,0,0,0,0,0,0,0,0,0,0,0,0,0,0,0,0,0,0,0,0,0,0,0,0,0,0,0,0,
0,0,0,0,0,0,0,0,0,0,0,0,0,0,0,0,0,0,0,0,0,0,0,0,0,0,0,0,0,0,0,0,0,0,0,0,0,0,0,0,0,0,0,0,0,0,0,0,0,0,0,0,0,0,0,0,0,0,0,0,0,0,0,0,0,0,0,0,0,0,0,0,0,0,0,0,0,0,0,0,0,0,0,0,0,0,0,877,878,879,852,853,854,853,853,853,854,1076,1077,1077,1077,1077,1078,853,853,853,854,854,855,878,879,880,0,0,0,0,0,0,0,0,0,0,0,0,0,0,0,0,0,0,0,0,0,0,0,0,0,0,0,0,0,0,0,0,0,0,0,0,0,0,0,0,0,0,0,0,0,0,0,0,0,0,0,0,0,0,0,0,0,0,0,0,0,0,0,0,0,0,0,0,0,0,0,0,0,0,0,0,0,0,0,0,0,0,0,0,0,0,0,0,
0,0,0,0,0,0,0,0,0,0,0,0,0,0,0,0,0,0,0,0,0,0,0,0,0,0,0,0,0,0,0,0,0,0,0,0,0,0,0,0,0,0,0,0,0,0,0,0,0,0,0,0,0,0,0,0,0,0,0,0,0,0,0,0,0,0,0,0,0,0,0,0,0,0,0,0,0,0,0,0,0,0,0,0,0,0,0,0,0,0,877,878,879,878,878,878,879,1076,1077,1077,1077,1077,1078,878,878,878,879,879,880,0,0,0,0,0,0,0,0,0,0,0,0,0,0,0,0,0,0,0,0,0,0,0,0,0,0,0,0,0,0,0,0,0,0,0,0,0,0,0,0,0,0,0,0,0,0,0,0,0,0,0,0,0,0,0,0,0,0,0,0,0,0,0,0,0,0,0,0,0,0,0,0,0,0,0,0,0,0,0,0,0,0,0,0,0,0,0,0,0,0,0,
0,0,0,0,0,0,0,0,0,0,0,0,0,0,0,0,0,0,0,0,0,0,0,0,0,0,0,0,0,0,0,0,0,0,0,0,0,0,0,0,0,0,0,0,0,0,0,0,0,0,0,0,0,0,0,0,0,0,0,0,0,0,0,0,0,0,0,0,0,0,0,0,0,0,0,0,0,0,0,0,0,0,0,0,0,0,0,0,0,0,0,0,0,0,0,0,0,1101,1102,1102,1102,1102,1103,0,0,0,0,0,0,0,0,0,0,0,0,0,0,0,0,0,0,0,0,0,0,0,0,0,0,0,0,0,0,0,0,0,0,0,0,0,0,0,0,0,0,0,0,0,0,0,0,0,0,0,0,0,0,0,0,0,0,0,0,0,0,0,0,0,0,0,0,0,0,0,0,0,0,0,0,0,0,0,0,0,0,0,0,0,0,0,0,0,0,0,0,0,0,0,0,0,
0,0,0,0,0,0,0,0,0,0,0,0,0,0,0,0,0,0,0,0,0,0,0,0,0,0,0,0,0,0,0,0,0,0,0,0,0,0,0,0,0,0,0,0,0,0,0,0,1127,1128,1129,1128,1128,1129,1130,0,0,0,0,0,0,0,0,0,0,0,0,0,0,0,0,0,0,0,0,0,0,0,0,0,0,0,0,0,0,0,0,0,0,0,0,0,0,0,0,0,0,0,0,0,0,0,0,0,0,0,0,0,0,0,0,0,0,0,0,0,0,0,0,0,0,0,0,0,0,0,0,0,0,0,0,0,0,0,0,0,0,0,0,0,0,0,0,0,0,0,0,0,0,0,0,0,0,0,0,0,0,0,0,0,0,0,0,0,0,0,0,0,0,0,0,0,0,0,0,0,0,0,0,0,0,0,0,0,0,0,0,0,0,0,0,0,0,0,0,0,0,0,0,0,
0,0,0,0,0,0,0,0,0,0,0,0,0,0,0,0,0,0,0,0,0,0,0,0,0,0,0,0,0,0,0,0,0,0,0,0,0,0,0,0,0,0,0,0,0,0,0,1151,1152,1154,1154,1154,1154,1154,1155,1130,0,0,0,0,0,0,0,0,0,0,0,0,0,0,0,0,0,0,0,0,0,0,0,0,0,0,0,0,0,0,0,0,0,0,0,0,0,0,0,0,0,0,0,0,0,0,0,0,0,0,0,0,0,0,0,0,0,0,0,0,0,0,0,0,0,0,0,0,0,0,0,0,0,0,0,0,0,0,0,0,0,0,0,0,0,0,0,0,0,0,0,0,0,0,0,0,0,0,0,0,0,0,0,0,0,0,0,0,0,0,0,0,0,0,0,0,0,0,0,0,0,0,0,0,0,0,0,0,0,0,0,0,0,0,0,0,0,0,0,0,0,0,0,0,
0,0,0,0,0,0,0,0,0,0,0,0,0,0,0,0,0,0,0,0,0,0,0,0,0,0,1151,1128,1129,1128,1130,0,0,0,0,0,0,0,0,0,0,0,0,0,0,0,0,1176,1177,1154,1154,1154,1154,1154,1154,1155,1130,0,0,0,0,0,0,0,0,0,0,0,0,0,0,0,0,0,0,0,0,0,0,0,0,0,0,0,0,0,0,0,0,0,0,0,0,0,0,0,0,0,0,0,0,0,0,0,0,0,0,0,0,0,0,0,0,0,0,0,0,0,0,0,0,0,0,0,0,0,0,0,0,0,0,0,0,0,0,0,0,0,0,0,0,0,0,0,0,0,0,0,0,0,0,0,0,0,0,0,0,0,0,0,0,0,0,0,0,0,0,0,0,0,0,0,0,0,0,0,0,0,0,0,0,0,0,0,0,0,0,0,0,0,0,0,0,0,0,0,0,0,0,0,
0,0,0,0,0,0,0,0,0,0,0,0,0,0,0,0,0,0,0,0,0,0,0,0,0,0,1176,1154,1154,1154,1155,1128,1129,1128,1128,1130,0,0,0,0,0,0,0,0,0,0,0,1201,1202,1154,1154,1154,1154,1154,1154,1154,1155,1130,0,0,0,0,0,0,0,0,0,0,0,0,0,0,0,0,0,0,0,0,0,0,0,0,0,0,0,0,0,0,0,0,0,0,0,0,0,0,0,0,0,0,0,0,0,0,0,0,0,0,0,0,0,0,0,0,0,0,0,0,0,0,0,0,0,0,0,0,0,0,0,0,0,0,0,0,0,0,0,0,0,0,0,0,0,0,0,0,0,0,0,0,0,0,0,0,0,0,0,0,0,0,0,0,0,0,0,0,0,0,0,0,0,0,0,0,0,0,0,0,0,0,0,0,0,0,0,0,0,0,0,0,0,0,0,0,0,0,0,0,0,0,
0,0,0,0,0,0,0,0,0,0,0,0,0,0,0,0,0,0,0,0,0,0,0,0,0,0,1201,1154,1154,1154,1154,1154,1154,1154,1154,1155,1130,0,0,0,0,0,0,0,0,0,0,1201,1202,1154,1154,1154,1154,1154,1154,1154,1154,1155,1156,0,0,0,0,0,0,0,0,0,0,0,0,0,0,0,0,0,0,0,0,0,0,0,0,0,0,0,0,0,0,0,0,0,0,0,0,0,0,0,0,0,0,0,0,0,0,0,0,0,0,0,0,0,0,0,0,0,0,0,0,0,0,0,0,0,0,0,0,0,0,0,0,0,0,0,0,0,0,0,0,0,0,0,0,0,0,0,0,0,0,0,0,0,0,0,0,0,0,0,0,0,0,0,0,0,0,0,0,0,0,0,0,0,0,0,0,0,0,0,0,0,0,0,0,0,0,0,0,0,0,0,0,0,0,0,0,0,0,0,0,0,
0,0,0,0,0,0,0,0,0,0,0,0,0,0,0,0,0,0,0,0,0,0,0,0,0,1151,1152,1153,1154,1154,1154,1154,1154,1154,1154,1154,1155,1130,0,0,0,0,0,0,0,0,0,1201,1202,1154,1154,1154,1154,1154,1154,1154,1154,1154,1181,0,0,0,0,0,0,0,0,0,0,0,0,0,0,0,0,0,0,0,0,0,0,0,0,0,0,0,0,0,0,0,0,0,0,0,0,0,0,0,0,0,0,0,0,0,0,0,0,0,0,0,0,0,0,0,0,0,0,0,0,0,0,0,0,0,0,0,0,0,0,0,0,0,0,0,0,0,0,0,0,0,0,0,0,0,0,0,0,0,0,0,0,0,0,0,0,0,0,0,0,0,0,0,0,0,0,0,0,0,0,0,0,0,0,0,0,0,0,0,0,0,0,0,0,0,0,0,0,0,0,0,0,0,0,0,0,0,0,0,0,0,
0,0,0,0,0,0,0,0,0,0,0,0,0,0,0,0,0,0,0,0,0,0,0,0,0,1176,1154,1154,1154,1154,1154,1154,1154,1154,1154,1154,1154,1155,1128,1128,1129,1128,1129,1128,1129,1128,1129,1152,1154,1154,1154,1154,1154,1154,1154,1154,1154,1154,1155,1156,0,0,0,0,0,0,0,0,0,0,0,0,0,0,0,0,0,0,0,0,0,0,0,0,0,0,0,0,0,0,0,0,0,0,0,0,0,0,0,0,0,0,0,0,0,0,0,0,0,0,0,0,0,0,0,0,0,0,0,0,0,0,0,0,0,0,0,0,0,0,0,0,0,0,0,0,0,0,0,0,0,0,0,0,0,0,0,0,0,0,0,0,0,0,0,0,0,0,0,0,0,0,0,0,0,0,0,0,0,0,0,0,0,0,0,0,0,0,0,0,0,0,0,0,0,0,0,0,0,0,0,0,0,0,0,0,0,0,0,0,
0,0,0,0,0,0,0,0,0,0,0,0,0,0,0,0,0,0,0,0,0,0,0,0,0,1201,1154,1154,1154,1154,1154,1154,1154,1154,1154,1154,1154,1154,1154,1154,1154,1154,1154,1154,1154,1154,1154,1154,1154,1154,1154,1154,1154,1154,1154,1154,1154,1154,1180,1181,0,0,0,0,0,0,0,0,0,0,0,0,0,0,0,0,0,0,0,0,0,0,0,0,0,0,0,0,0,0,0,0,0,0,0,0,0,0,0,0,0,0,0,0,0,0,0,0,0,0,0,0,0,0,0,0,0,0,0,0,0,0,0,0,0,0,0,0,0,0,0,0,0,0,0,0,0,0,0,0,0,0,0,0,0,0,0,0,0,0,0,0,0,0,0,0,0,0,0,0,0,0,0,0,0,0,0,0,0,0,0,0,0,0,0,0,0,0,0,0,0,0,0,0,0,0,0,0,0,0,0,0,0,0,0,0,0,0,0,0,
0,0,0,0,0,0,0,0,0,0,0,0,0,0,0,0,0,0,0,0,0,0,0,0,0,1176,1154,1154,1154,1154,1154,1154,1154,1154,1154,1154,1154,1154,1154,1154,1154,1154,1154,1154,1154,1154,1154,1154,1154,1154,1154,1154,1154,1154,1154,1154,1154,1154,1154,1155,1128,1129,1130,0,0,0,0,0,0,0,0,0,0,0,0,0,0,0,0,0,0,0,0,0,0,0,0,0,0,0,0,0,0,0,0,0,0,0,0,0,0,0,0,0,0,0,0,0,0,0,0,0,0,0,0,0,0,0,0,0,0,0,0,0,0,0,0,0,0,0,0,0,0,0,0,0,0,0,0,0,0,0,0,0,0,0,0,0,0,0,0,0,0,0,0,0,0,0,0,0,0,0,0,0,0,0,0,0,0,0,0,0,0,0,0,0,0,0,0,0,0,0,0,0,0,0,0,0,0,0,0,0,0,0,0,0,0,0,0,0,
0,0,0,0,0,0,0,0,0,0,0,0,0,0,0,0,0,0,0,0,0,0,0,0,0,1201,1154,1154,1154,1154,1154,1154,1154,1154,1154,1154,1154,1154,1154,1154,1154,1154,1154,1154,1154,1154,1154,1154,1154,1154,1154,1154,1154,1154,1154,1154,1154,1154,1154,1154,1153,1154,1181,0,0,0,0,0,0,0,0,0,0,0,0,0,0,0,0,0,0,0,0,0,0,0,0,0,0,0,0,0,0,0,0,0,0,0,0,0,0,0,0,0,0,0,0,0,0,0,0,0,0,0,0,0,0,0,0,0,0,0,0,0,0,0,0,0,0,0,0,0,0,0,0,0,0,0,0,0,0,0,0,0,0,0,0,0,0,0,0,0,0,0,0,0,0,0,0,0,0,0,0,0,0,0,0,0,0,0,0,0,0,0,0,0,0,0,0,0,0,0,0,0,0,0,0,0,0,0,0,0,0,0,0,0,0,0,0,0,
0,0,0,0,0,0,0,0,0,0,0,0,0,0,0,0,0,0,0,0,0,0,0,0,0,1226,1253,1227,1228,1154,1154,1154,1154,1154,1154,1154,1154,1154,1154,1154,1154,1154,1154,1154,1154,1154,1154,1154,1154,1154,1154,1154,1154,1154,1154,1154,1154,1154,1154,1154,1154,1154,1155,1128,1128,1129,1129,1129,1128,1129,1129,1130,0,0,0,0,0,0,0,0,0,0,0,0,0,0,0,0,0,0,0,0,0,0,0,0,0,0,0,0,0,0,0,0,0,0,0,0,0,0,0,0,0,0,0,0,0,0,0,0,0,0,0,0,0,0,0,0,0,0,0,0,0,0,0,0,0,0,0,0,0,0,0,0,0,0,0,0,0,0,0,0,0,0,0,0,0,0,0,0,0,0,0,0,0,0,0,0,0,0,0,0,0,0,0,0,0,0,0,0,0,0,0,0,0,0,0,0,0,0,0,0,0,0,0,0,0,0,0,0,
0,0,0,0,0,0,0,0,0,0,0,0,0,0,0,0,0,0,0,0,0,0,0,0,0,776,804,1252,1253,1227,1228,1154,1154,1154,1154,1154,1154,1154,1154,1154,1154,1154,1154,1154,1154,1154,1154,1230,1227,1154,1154,1154,1154,1154,1154,1154,1154,1154,1154,1154,1154,1154,1154,1154,1154,1154,1154,1154,1154,1154,1154,1155,1129,1130,0,0,0,0,0,0,0,0,0,0,0,0,0,0,0,0,0,0,0,0,0,0,0,0,0,0,0,0,0,0,0,0,0,0,0,0,0,0,0,0,0,0,0,0,0,0,0,0,0,0,0,0,0,0,0,0,0,0,0,0,0,0,0,0,0,0,0,0,0,0,0,0,0,0,0,0,0,0,0,0,0,0,0,0,0,0,0,0,0,0,0,0,0,0,0,0,0,0,0,0,0,0,0,0,0,0,0,0,0,0,0,0,0,0,0,0,0,0,0,0,0,0,0,0,0,0,
0,0,0,0,0,0,0,0,0,0,0,0,0,0,0,0,0,0,0,0,0,0,0,0,0,801,829,803,804,1252,1227,1154,1154,1154,1154,1154,1154,1154,1154,1154,1154,1154,1154,1154,1230,1253,1254,1255,1252,1227,1228,1154,1154,1154,1154,1154,1154,1154,1154,1154,1154,1154,1154,1154,1154,1154,1154,1154,1154,1154,1154,1154,1154,1181,0,0,0,0,0,0,0,0,0,0,0,0,0,0,0,0,0,0,0,0,0,0,0,0,0,0,0,0,0,0,0,0,0,0,0,0,0,0,0,0,0,0,0,0,0,0,0,0,0,0,0,0,0,0,0,0,0,0,0,0,0,0,0,0,0,0,0,0,0,0,0,0,0,0,0,0,0,0,0,0,0,0,0,0,0,0,0,0,0,0,0,0,0,0,0,0,0,0,0,0,0,0,0,0,0,0,0,0,0,0,0,0,0,0,0,0,0,0,0,0,0,0,0,1127,1128,1129,
0,0,0,0,0,0,0,0,0,0,0,0,0,0,0,0,0,0,0,0,0,0,0,0,0,826,854,828,829,802,1252,1253,1227,1154,1154,1154,1154,1154,1154,1230,1253,1254,1253,1254,1255,828,803,804,802,1252,1253,1253,1254,1227,1154,1154,1154,1154,1154,1154,1154,1154,1154,1154,1154,1154,1154,1154,1154,1154,1154,1154,1154,1155,1156,0,0,0,0,0,0,0,0,0,0,0,0,0,0,0,0,0,0,0,0,0,0,0,0,0,0,0,0,0,0,0,0,0,0,0,0,0,0,0,0,0,0,0,0,0,0,0,0,0,0,0,0,0,0,0,0,0,0,0,0,0,0,0,0,0,0,0,0,0,0,0,0,0,0,0,0,0,0,0,0,0,0,0,0,0,0,0,0,0,0,0,0,0,0,0,0,0,0,0,0,0,0,0,0,0,0,0,0,0,0,0,0,0,0,0,0,0,0,0,0,0,1127,1152,1153,1154,
0,0,0,0,0,0,0,0,0,0,0,0,0,0,0,0,0,0,0,0,0,0,0,0,0,851,879,853,854,827,802,802,1252,1253,1253,1253,1254,1253,1254,1255,803,804,803,804,805,828,828,829,827,802,803,803,804,1252,1227,1154,1154,1154,1154,1154,1154,1154,1154,1154,1154,1154,1154,1154,1154,1154,1154,1154,1154,1180,1181,0,0,0,0,0,0,0,0,0,0,0,0,0,0,0,0,0,0,0,0,0,0,0,0,0,0,0,0,0,0,0,0,0,0,0,0,0,0,0,0,0,0,0,0,0,0,0,0,0,0,0,0,0,0,0,0,0,0,0,0,1127,1128,1128,1128,1130,0,0,0,0,0,0,0,0,0,0,0,0,0,0,0,0,0,0,0,0,0,0,0,0,0,0,0,0,0,0,0,0,0,0,0,0,0,0,0,0,0,0,0,0,0,0,0,0,0,0,0,0,0,0,0,1127,1152,1178,1178,1178,
0,0,0,0,0,0,0,0,0,0,0,0,0,0,0,0,0,0,0,0,0,0,0,0,0,0,0,878,879,852,827,827,802,828,829,828,829,828,829,805,828,829,828,829,830,853,853,854,853,827,828,828,802,803,1252,1253,1254,1227,1154,1154,1154,1154,1154,1154,1154,1154,1154,1154,1154,1154,1154,1154,1154,1205,1206,0,0,0,0,0,0,0,0,0,0,0,0,0,0,0,0,0,0,0,0,0,0,0,0,0,0,0,0,0,0,0,0,0,0,0,0,0,0,1127,1129,1130,0,0,0,0,0,0,0,0,0,0,0,0,0,0,0,0,0,0,0,1176,1153,1154,1178,1155,1156,0,0,0,0,0,0,0,0,0,0,0,0,0,0,0,0,0,0,0,0,0,0,0,0,0,0,0,0,0,0,0,0,0,0,0,0,0,0,0,0,0,0,0,0,0,0,0,0,0,1127,1128,1129,1128,1129,1152,1178,1178,1178,1178,
0,0,0,0,0,0,0,0,0,0,0,0,0,0,0,0,0,0,0,0,0,0,0,0,0,0,0,0,0,877,852,852,827,853,854,853,854,853,854,830,853,854,853,854,855,878,878,879,878,852,853,853,827,828,802,803,803,1252,1253,1254,1227,1228,1154,1154,1154,1154,1154,1154,1154,1154,1154,1154,1154,1230,1231,0,0,0,0,0,0,0,0,0,0,0,0,0,0,0,0,0,0,0,0,0,0,0,0,0,0,0,0,0,0,0,0,0,0,0,0,0,1127,1152,1178,1155,1129,1130,0,0,0,0,0,0,0,1127,1128,1130,0,0,0,0,0,0,0,1201,1178,1178,1178,1178,1155,1156,0,0,0,0,0,0,0,0,0,0,0,0,0,0,0,0,0,0,0,0,0,0,0,0,0,0,0,0,0,0,0,0,0,0,0,0,0,0,0,0,0,0,0,0,0,0,0,1127,1152,1153,1154,1153,1154,1178,1178,1178,1178,1178,
0,0,1127,1128,1129,1128,1129,1130,0,0,0,0,0,0,0,0,0,0,0,0,0,0,0,0,0,0,0,0,0,0,877,877,852,953,853,854,953,828,829,855,878,879,878,879,880,0,0,0,0,877,878,878,852,853,827,828,828,802,803,804,1252,1253,1227,1228,1154,1154,1154,1154,1154,1154,1154,1154,1154,1181,0,0,0,0,0,0,0,0,0,0,0,0,0,0,0,0,0,0,0,0,0,0,0,0,0,0,0,0,0,0,0,0,0,0,0,0,0,1127,1152,1178,1178,1178,1178,1155,1130,0,0,0,0,0,1127,1152,1178,1155,1130,0,0,0,1127,1128,1129,1152,1178,1178,1178,1178,1178,1155,1128,1129,1128,1129,1128,1129,1128,1129,1128,1129,1128,1129,1128,1128,1128,1128,1128,1128,1128,1128,1129,1130,0,0,0,0,0,0,0,0,0,0,0,0,0,0,0,0,0,0,1127,1128,1129,1128,1129,1128,1129,1152,1178,1178,1178,1178,1178,1178,1178,1178,1178,1178,
0,0,1176,1203,1203,1203,1203,1181,0,0,0,0,0,0,0,0,0,0,0,0,0,0,0,0,0,0,0,0,0,0,0,0,877,877,878,877,878,879,880,856,0,0,0,0,0,0,0,0,0,0,0,0,877,878,852,853,853,827,828,829,802,803,1252,1253,1227,1228,1154,1154,1154,1154,1154,1154,1154,1206,0,0,0,0,0,0,0,0,0,0,0,0,0,0,0,0,0,0,0,0,0,0,0,0,0,0,0,0,0,0,0,0,0,0,0,0,1151,1152,1178,1178,1178,1178,1178,1178,1155,1128,1129,1128,1128,1129,1152,1178,1178,1178,1155,1130,0,0,1176,1153,1154,1178,1178,1178,1178,1178,1178,1178,1153,1154,1153,1154,1153,1154,1153,1154,1153,1154,1153,1154,1153,1153,1153,1153,1153,1153,1153,1153,1154,1155,1128,1129,1130,0,0,0,0,0,0,0,0,0,0,0,0,0,0,1127,1152,1153,1154,1153,1154,1153,1154,1178,1178,1178,1178,1178,1178,1178,1178,1178,1178,1178,
1128,1129,1152,1203,1203,1203,1203,1206,0,0,0,0,0,0,0,0,0,0,0,0,0,0,0,0,0,0,0,0,0,0,0,0,0,0,0,0,0,0,0,0,0,0,0,0,0,0,0,0,0,0,0,0,0,0,877,878,878,852,853,854,827,828,802,803,1252,1253,1227,1228,1154,1154,1154,1154,1178,1155,1128,1129,1129,1130,0,0,0,0,0,0,0,0,0,0,0,0,0,0,0,0,0,0,0,0,0,0,0,0,0,0,0,0,0,0,0,1151,1152,1178,1178,1178,1178,1178,1178,1178,1178,1153,1154,1153,1153,1154,1178,1178,1178,1178,1178,1155,1128,1129,1152,1178,1178,1178,1178,1178,1178,1178,1178,1178,1178,1178,1178,1178,1178,1178,1178,1178,1178,1178,1178,1178,1178,1178,1178,1178,1178,1178,1178,1178,1178,1178,1153,1154,1155,1156,0,0,0,0,0,0,0,0,0,0,0,0,1127,1152,1178,1178,1178,1178,1178,1178,1178,1178,1178,1178,1178,1178,1178,1178,1178,1178,1178,1178,
1203,1203,1203,1203,1203,1203,1203,1155,1128,1129,1130,0,0,0,0,0,0,0,0,0,0,0,0,0,0,0,0,0,0,0,0,0,0,0,0,0,0,0,0,0,0,0,0,0,0,0,0,0,0,0,0,0,0,0,0,0,0,877,878,879,852,853,827,828,802,803,1252,1253,1227,1228,1154,1154,1178,1178,1153,1154,1154,1181,0,0,0,0,0,0,0,0,0,1127,1128,1129,1130,0,0,0,0,0,0,0,0,0,0,0,0,0,0,0,0,0,1151,1152,1178,1178,1178,1178,1178,1178,1178,1178,1178,1178,1178,1178,1178,1178,1178,1178,1178,1178,1178,1178,1153,1154,1178,1178,1178,1178,1178,1178,1178,1178,1178,1178,1178,1178,1178,1178,1178,1178,1178,1178,1178,1178,1178,1178,1178,1178,1178,1178,1178,1178,1178,1178,1178,1178,1178,1178,1178,1181,0,0,0,0,0,0,0,0,0,0,0,1127,1152,1178,1178,1178,1178,1178,1178,1178,1178,1178,1178,1178,1178,1178,1178,1178,1178,1178,1178,1178,
1203,1203,1203,1203,1203,1203,1203,1203,1203,1203,1155,1128,1129,1128,1129,1128,1129,1128,1129,1156,0,0,0,0,0,0,0,0,0,0,0,0,0,0,0,0,0,0,0,0,0,0,0,0,0,0,0,0,0,0,0,0,0,0,0,0,0,0,0,0,877,878,852,853,827,828,802,803,1252,1253,1254,1227,1178,1178,1178,1178,1178,1206,0,0,0,0,0,0,0,1151,1128,1152,1153,1154,1181,0,0,0,0,0,0,0,0,0,0,0,0,1127,1130,0,0,0,1201,1202,1178,1178,1178,1178,1178,1178,1178,1178,1178,1178,1178,1178,1178,1178,1178,1178,1178,1178,1178,1178,1178,1178,1178,1178,1178,1178,1178,1178,1178,1178,1178,1178,1178,1178,1178,1178,1178,1178,1178,1178,1178,1178,1178,1178,1178,1178,1178,1178,1178,1178,1178,1178,1178,1178,1178,1178,1178,1206,0,0,0,0,0,0,0,0,0,0,1127,1152,1178,1178,1178,1178,1178,1178,1178,1178,1178,1178,1178,1178,1178,1178,1178,1178,1178,1178,1178,1178,
1203,1203,1203,1203,1203,1203,1203,1203,1203,1203,1203,1203,1203,1203,1203,1203,1203,1203,1203,1181,0,0,0,0,0,0,0,0,0,0,0,0,0,0,0,0,0,0,0,0,0,0,0,0,0,0,0,0,0,0,0,0,0,0,0,0,0,0,0,0,0,0,877,878,852,853,827,828,802,803,804,1252,1227,1154,1154,1154,1154,1155,1130,0,0,0,0,0,0,1201,1178,1178,1178,1178,1206,0,0,0,0,0,0,0,0,0,1127,1128,1129,1152,1155,1128,1128,1129,1152,1178,1178,1178,1178,1178,1178,1178,1178,1178,1178,1178,1178,1178,1178,1178,1178,1178,1178,1178,1178,1178,1178,1178,1178,1178,1178,1178,1178,1178,1178,1178,1178,1178,1178,1178,1178,1178,1178,1178,1178,1178,1178,1178,1178,1178,1178,1178,1178,1178,1178,1178,1178,1178,1178,1178,1178,1178,1178,1155,1156,0,0,0,0,0,0,1127,1128,1129,1152,1178,1178,1178,1178,1178,1178,1178,1178,1178,1178,1178,1178,1178,1178,1178,1178,1178,1178,1178,1178,1178,
1203,1203,1203,1203,1203,1203,1203,1203,1203,1203,1203,1203,1203,1203,1203,1203,1203,1203,1203,1206,0,0,0,0,0,0,0,0,0,0,0,0,0,0,0,0,0,0,0,0,0,0,0,0,0,0,0,0,0,0,0,0,0,0,0,0,0,0,0,0,0,0,0,0,877,878,852,853,827,828,829,804,1252,1227,1154,1154,1154,1154,1155,1156,0,0,0,0,0,1176,1178,1178,1178,1178,1155,1128,1129,1128,1129,1128,1128,1129,1128,1129,1152,1153,1154,1178,1178,1153,1153,1154,1178,1178,1178,1178,1178,1178,1178,1178,1178,1178,1178,1178,1178,1178,1178,1178,1178,1178,1178,1178,1178,1178,1178,1178,1178,1178,1178,1178,1178,1178,1178,1178,1178,1178,1178,1178,1178,1178,1178,1178,1178,1178,1178,1178,1178,1178,1178,1178,1178,1178,1178,1178,1178,1178,1178,1178,1178,1178,1178,1178,1155,1128,1129,1128,1128,1128,1129,1152,1178,1178,1178,1178,1178,1178,1178,1178,1178,1178,1178,1178,1178,1178,1178,1178,1178,1178,1178,1178,1178,1178,1178,1178,
1203,1203,1203,1203,1203,1203,1203,1203,1203,1203,1203,1203,1203,1203,1203,1203,1203,1203,1203,1181,0,0,0,0,0,0,0,0,0,0,0,0,0,0,0,0,0,0,0,0,0,0,0,0,0,0,0,0,0,0,0,0,0,0,0,0,0,0,0,0,0,0,0,0,0,0,877,878,852,853,854,802,804,1252,1227,1228,1154,1154,1154,1181,0,0,0,0,0,1201,1178,1178,1178,1178,1178,1153,1154,1153,1154,1153,1153,1154,1153,1154,1178,1178,1178,1178,1178,1178,1178,1178,1178,1178,1178,1178,1178,1178,1178,1178,1178,1178,1178,1178,1178,1178,1178,1178,1178,1178,1178,1178,1178,1178,1178,1178,1178,1178,1178,1178,1178,1178,1178,1178,1178,1178,1178,1178,1178,1178,1178,1178,1178,1178,1178,1178,1178,1178,1178,1178,1178,1178,1178,1178,1178,1178,1178,1178,1178,1178,1178,1178,1178,1153,1154,1153,1153,1153,1154,1178,1178,1178,1178,1178,1178,1178,1178,1178,1178,1178,1178,1178,1178,1178,1178,1178,1178,1178,1178,1178,1178,1178,1178,1178,
1203,1203,1203,1203,1203,1203,1203,1203,1203,1203,1203,1203,1203,1203,1203,1203,1203,1203,1203,1155,1128,1129,1130,0,0,0,0,0,0,0,0,0,0,0,0,0,0,0,0,0,0,0,0,0,0,0,0,0,0,0,0,0,0,0,0,0,0,0,0,0,0,0,0,0,0,0,0,0,877,878,879,802,829,829,1252,1227,1228,1154,1154,1155,1128,1128,1129,1128,1129,1152,1178,1178,1178,1178,1178,1178,1178,1178,1178,1178,1178,1178,1178,1178,1178,1178,1178,1178,1178,1178,1178,1178,1178,1178,1178,1178,1178,1178,1178,1178,1178,1178,1178,1178,1178,1178,1178,1178,1178,1178,1178,1178,1178,1178,1178,1178,1178,1178,1178,1178,1178,1178,1178,1178,1178,1178,1178,1178,1178,1178,1178,1178,1178,1178,1178,1178,1178,1178,1178,1178,1178,1178,1178,1178,1178,1178,1178,1178,1178,1178,1178,1178,1178,1178,1178,1178,1178,1178,1178,1178,1178,1178,1178,1178,1178,1178,1178,1178,1178,1178,1178,1178,1178,1178,1178,1178,1178,1178,1178,1178,1178,1178,1178,1178,
1203,1203,1203,1203,1203,1203,1203,1203,1203,1203,1203,1203,1203,1203,1203,1203,1203,1203,1203,1178,1178,1178,1181,0,0,0,0,0,0,0,0,0,0,0,0,0,0,0,0,0,0,0,0,0,0,0,0,0,0,0,0,0,0,0,0,0,0,0,0,0,0,0,0,0,0,0,0,0,0,0,0,877,829,828,829,1252,1227,1228,1154,1204,1153,1153,1154,1153,1154,1178,1178,1178,1178,1178,1178,1178,1178,1178,1178,1178,1178,1178,1178,1178,1178,1178,1178,1178,1178,1178,1178,1178,1178,1178,1178,1178,1178,1178,1178,1178,1178,1178,1178,1178,1178,1178,1178,1178,1178,1178,1178,1178,1178,1178,1178,1178,1178,1178,1178,1178,1178,1178,1178,1178,1178,1178,1178,1178,1178,1178,1178,1178,1178,1178,1178,1178,1178,1178,1178,1178,1178,1178,1178,1178,1178,1178,1178,1178,1178,1178,1178,1178,1178,1178,1178,1178,1178,1178,1178,1178,1178,1178,1178,1178,1178,1178,1178,1178,1178,1178,1178,1178,1178,1178,1178,1178,1178,1178,1178,1178,1178,1178,1178,1178,
1203,1203,1203,1203,1203,1203,1203,1203,1203,1203,1203,1203,1203,1203,1203,1203,1203,1203,1203,1203,1203,1203,1206,0,0,0,0,0,0,0,0,0,0,0,0,0,0,0,0,0,0,0,0,0,0,0,0,0,0,0,0,0,0,0,0,0,0,0,0,0,0,0,0,0,0,0,0,0,0,0,0,0,877,853,854,830,1252,1253,1154,1154,1204,1178,1178,1178,1178,1178,1178,1178,1178,1178,1178,1178,1178,1178,1178,1178,1178,1178,1178,1178,1178,1178,1178,1178,1178,1178,1178,1178,1178,1178,1178,1178,1178,1178,1178,1178,1178,1178,1178,1178,1178,1178,1178,1178,1178,1178,1178,1178,1178,1178,1178,1178,1178,1178,1178,1178,1178,1178,1178,1178,1178,1178,1178,1178,1178,1178,1178,1178,1178,1178,1178,1178,1178,1178,1178,1178,1178,1178,1178,1178,1178,1178,1178,1178,1178,1178,1178,1178,1178,1178,1178,1178,1178,1178,1178,1178,1178,1178,1178,1178,1178,1178,1178,1178,1178,1178,1178,1178,1178,1178,1178,1178,1178,1178,1178,1178,1178,1178,1178,1178
</data>
 </layer>
 <objectgroup id="8" name="Trees">
  <object id="55" gid="1278" x="46.5" y="75.3333" width="48" height="80"/>
  <object id="56" gid="1278" x="101.167" y="56.5" width="48" height="80"/>
  <object id="57" gid="1278" x="3" y="90.333" width="54.6667" height="91.1111"/>
  <object id="58" gid="1278" x="7.83333" y="52.0556" width="75.3333" height="125.556"/>
  <object id="59" gid="1278" x="67.1667" y="38.5" width="48" height="80"/>
  <object id="60" gid="1278" x="150.933" y="47.3333" width="52.4" height="87.3333"/>
  <object id="61" gid="1278" x="194.667" y="111.333" width="48" height="80"/>
  <object id="80" gid="1278" x="318" y="71.9997" width="48" height="80"/>
  <object id="81" gid="1278" x="342.667" y="55.333" width="48" height="80"/>
  <object id="224" gid="1278" x="278.667" y="102" width="66.8" height="111.333"/>
  <object id="225" gid="1278" x="246" y="34.6663" width="66.8" height="111.333"/>
  <object id="82" gid="1278" x="497.334" y="57.9997" width="48" height="80"/>
  <object id="84" gid="1278" x="547.334" y="45.4997" width="48" height="80"/>
  <object id="83" gid="1278" x="516.267" y="44.6663" width="56.4" height="94"/>
  <object id="85" gid="1278" x="605.267" y="36.6663" width="56.4" height="94"/>
  <object id="87" gid="1278" x="784.267" y="74.6663" width="56.4" height="94"/>
  <object id="88" gid="1278" x="728.267" y="36.6663" width="56.4" height="94"/>
  <object id="62" gid="1278" x="164" y="88" width="48" height="80"/>
  <object id="63" gid="1278" x="188.667" y="36.2222" width="52.9333" height="88.2222"/>
  <object id="64" gid="1278" x="140.667" y="75.7778" width="36.6667" height="61.1111"/>
  <object id="65" gid="1278" x="224.667" y="94" width="63.2" height="105.333"/>
  <object id="66" gid="1278" x="220.667" y="56" width="48" height="80"/>
  <object id="67" gid="1278" x="244.667" y="123.333" width="48" height="80"/>
  <object id="68" gid="1276" x="708.201" y="172.667" width="96.5999" height="161">
   <properties>
    <property name="collider" type="object" value="76"/>
   </properties>
  </object>
  <object id="69" gid="1276" x="367" y="168.667" width="57.3333" height="95.5556">
   <properties>
    <property name="collider" type="object" value="78"/>
   </properties>
  </object>
  <object id="70" gid="1276" x="438.567" y="155.5" width="69.3" height="115.5">
   <properties>
    <property name="collider" type="object" value="75"/>
   </properties>
  </object>
  <object id="71" gid="1276" x="384.067" y="162.833" width="95.8" height="159.667">
   <properties>
    <property name="collider" type="object" value="73"/>
   </properties>
  </object>
  <object id="72" gid="1276" x="677.2" y="149" width="77" height="128.333">
   <properties>
    <property name="collider" type="object" value="74"/>
   </properties>
  </object>
  <object id="73" x="408.333" y="150.667" width="47.3333" height="21">
   <ellipse/>
  </object>
  <object id="74" x="698.666" y="137.834" width="34.3333" height="24.5795">
   <ellipse/>
  </object>
  <object id="75" x="451" y="142" width="43.6667" height="23.3333">
   <ellipse/>
  </object>
  <object id="76" x="733.999" y="156.103" width="46.1667" height="30.2472">
   <ellipse/>
  </object>
  <object id="78" x="382" y="157.333" width="26.6667" height="15.3333">
   <ellipse/>
  </object>
  <object id="89" gid="1280" x="902.133" y="292.667" width="61.2" height="102">
   <properties>
    <property name="collider" type="object" value="92"/>
   </properties>
  </object>
  <object id="93" gid="1280" x="696.133" y="504.667" width="61.2" height="102">
   <properties>
    <property name="collider" type="object" value="94"/>
   </properties>
  </object>
  <object id="95" gid="1280" x="729.467" y="518" width="76.5333" height="127.556">
   <properties>
    <property name="collider" type="object" value="96"/>
   </properties>
  </object>
  <object id="97" gid="1280" x="767.467" y="548.667" width="61.2" height="102">
   <properties>
    <property name="collider" type="object" value="98"/>
   </properties>
  </object>
  <object id="90" gid="1280" x="858.267" y="270" width="82.4" height="137.333">
   <properties>
    <property name="collider" type="object" value="91"/>
   </properties>
  </object>
  <object id="91" x="876" y="252.667" width="46.6667" height="23.7158">
   <ellipse/>
  </object>
  <object id="92" x="913.333" y="275.333" width="37.3333" height="28">
   <ellipse/>
  </object>
  <object id="94" x="707.333" y="487.333" width="37.3333" height="28">
   <ellipse/>
  </object>
  <object id="96" x="743.333" y="492.667" width="48.6667" height="36.5">
   <ellipse/>
  </object>
  <object id="98" x="778.667" y="533.333" width="37.3333" height="28">
   <ellipse/>
  </object>
  <object id="99" gid="1279" x="268" y="625.333" width="73.6" height="122.667">
   <properties>
    <property name="collider" type="object" value="100"/>
   </properties>
  </object>
  <object id="105" gid="1279" x="472.667" y="680.667" width="73.6" height="122.667">
   <properties>
    <property name="collider" type="object" value="106"/>
   </properties>
  </object>
  <object id="107" gid="1279" x="510.667" y="700" width="73.6" height="122.667">
   <properties>
    <property name="collider" type="object" value="108"/>
   </properties>
  </object>
  <object id="101" gid="1279" x="308" y="640.301" width="91.7806" height="152.968">
   <properties>
    <property name="collider" type="object" value="102"/>
   </properties>
  </object>
  <object id="103" gid="1279" x="370.667" y="660.745" width="66.4473" height="110.745">
   <properties>
    <property name="collider" type="object" value="104"/>
   </properties>
  </object>
  <object id="100" x="277.333" y="602" width="55.3333" height="38.3077">
   <ellipse/>
  </object>
  <object id="106" x="482" y="657.333" width="55.3333" height="38.3077">
   <ellipse/>
  </object>
  <object id="108" x="520" y="676.667" width="55.3333" height="38.3077">
   <ellipse/>
  </object>
  <object id="102" x="319.639" y="611.204" width="69.0017" height="47.7704">
   <ellipse/>
  </object>
  <object id="104" x="379.093" y="639.68" width="49.9558" height="34.5848">
   <ellipse/>
  </object>
  <object id="109" gid="1278" x="710.667" y="1449.67" width="90.8" height="151.333">
   <properties>
    <property name="collider" type="object" value="110"/>
   </properties>
  </object>
  <object id="112" gid="1278" x="799.333" y="1479.67" width="90.8" height="151.333">
   <properties>
    <property name="collider" type="object" value="113"/>
   </properties>
  </object>
  <object id="114" gid="1278" x="980.167" y="1551.83" width="90.8" height="151.333">
   <properties>
    <property name="collider" type="object" value="115"/>
   </properties>
  </object>
  <object id="118" gid="1278" x="927.333" y="1529" width="90.8" height="151.333">
   <properties>
    <property name="collider" type="object" value="119"/>
   </properties>
  </object>
  <object id="120" gid="1278" x="890.667" y="1504.78" width="69.4667" height="115.778">
   <properties>
    <property name="collider" type="object" value="121"/>
   </properties>
  </object>
  <object id="128" gid="1278" x="852.667" y="1492.61" width="76.1635" height="126.939">
   <properties>
    <property name="collider" type="object" value="129"/>
   </properties>
  </object>
  <object id="122" gid="1278" x="764.667" y="1457.44" width="69.4667" height="115.778">
   <properties>
    <property name="collider" type="object" value="123"/>
   </properties>
  </object>
  <object id="124" gid="1278" x="1040.35" y="1565.47" width="59.2797" height="98.7995">
   <properties>
    <property name="collider" type="object" value="125"/>
   </properties>
  </object>
  <object id="132" gid="1278" x="1078.35" y="1581.82" width="72.3944" height="120.657">
   <properties>
    <property name="collider" type="object" value="133"/>
   </properties>
  </object>
  <object id="126" gid="1278" x="765.52" y="1505.8" width="77.2797" height="128.799">
   <properties>
    <property name="collider" type="object" value="127"/>
   </properties>
  </object>
  <object id="134" gid="1278" x="956.02" y="1582.3" width="77.2797" height="128.799">
   <properties>
    <property name="collider" type="object" value="135"/>
   </properties>
  </object>
  <object id="110" x="729.333" y="1431.33" width="54.7852" height="29.7028">
   <ellipse/>
  </object>
  <object id="113" x="818" y="1461.33" width="54.7852" height="29.7028">
   <ellipse/>
  </object>
  <object id="115" x="998.833" y="1533.5" width="54.7852" height="29.7028">
   <ellipse/>
  </object>
  <object id="119" x="946" y="1510.67" width="54.7852" height="29.7028">
   <ellipse/>
  </object>
  <object id="121" x="904.948" y="1490.75" width="41.9135" height="22.7242">
   <ellipse/>
  </object>
  <object id="129" x="868.324" y="1477.23" width="45.9541" height="24.9149">
   <ellipse/>
  </object>
  <object id="123" x="778.948" y="1443.42" width="41.9135" height="22.7242">
   <ellipse/>
  </object>
  <object id="125" x="1052.54" y="1553.5" width="35.7671" height="19.3918">
   <ellipse/>
  </object>
  <object id="133" x="1093.24" y="1567.21" width="43.68" height="23.6819">
   <ellipse/>
  </object>
  <object id="127" x="781.407" y="1490.2" width="46.6276" height="25.28">
   <ellipse/>
  </object>
  <object id="135" x="971.907" y="1566.7" width="46.6276" height="25.28">
   <ellipse/>
  </object>
  <object id="140" gid="1282" x="990.667" y="370.667" width="96" height="160">
   <properties>
    <property name="collider" type="object" value="141"/>
   </properties>
  </object>
  <object id="143" gid="1282" x="1349.33" y="367.667" width="96" height="160">
   <properties>
    <property name="collider" type="object" value="144"/>
   </properties>
  </object>
  <object id="145" gid="1282" x="1413.67" y="353" width="80" height="133.333">
   <properties>
    <property name="collider" type="object" value="146"/>
   </properties>
  </object>
  <object id="147" gid="1282" x="1489.67" y="296.333" width="80" height="133.333">
   <properties>
    <property name="collider" type="object" value="148"/>
   </properties>
  </object>
  <object id="149" gid="1282" x="1531.67" y="271.833" width="93.6997" height="156.166">
   <properties>
    <property name="collider" type="object" value="150"/>
   </properties>
  </object>
  <object id="151" gid="1282" x="1601" y="235.78" width="64.068" height="106.78">
   <properties>
    <property name="collider" type="object" value="152"/>
   </properties>
  </object>
  <object id="141" x="999.333" y="332.667" width="76.6667" height="50.8503">
   <ellipse/>
  </object>
  <object id="144" x="1358" y="329.667" width="76.6667" height="50.8503">
   <ellipse/>
  </object>
  <object id="146" x="1420.89" y="321.333" width="63.8889" height="42.3753">
   <ellipse/>
  </object>
  <object id="148" x="1496.89" y="264.667" width="63.8889" height="42.3753">
   <ellipse/>
  </object>
  <object id="150" x="1540.13" y="234.743" width="74.8296" height="49.6319">
   <ellipse/>
  </object>
  <object id="152" x="1606.78" y="210.42" width="51.1654" height="33.9363">
   <ellipse/>
  </object>
  <object id="153" gid="1284" x="832" y="120" width="96" height="160"/>
  <object id="154" gid="1284" x="970.667" y="60.6667" width="103.6" height="172.667"/>
  <object id="156" gid="1284" x="924.667" y="112" width="103.6" height="172.667"/>
  <object id="157" gid="1284" x="914.667" y="186.667" width="77.6" height="129.333"/>
  <object id="158" gid="1284" x="1003.33" y="152" width="77.6" height="129.333"/>
  <object id="159" gid="1284" x="958.667" y="150" width="77.6" height="129.333"/>
  <object id="160" gid="1284" x="981.333" y="232.667" width="77.6" height="129.333"/>
  <object id="161" gid="1284" x="1055" y="162.5" width="90" height="150"/>
  <object id="162" gid="1284" x="1168.33" y="101.167" width="104.4" height="174"/>
  <object id="163" gid="1284" x="1222.33" y="186.5" width="104.4" height="174"/>
  <object id="171" gid="1284" x="1267.67" y="241.167" width="104.4" height="174"/>
  <object id="172" gid="1284" x="1353.67" y="223.833" width="104.4" height="174"/>
  <object id="173" gid="1284" x="1165" y="197.611" width="81.0667" height="135.111"/>
  <object id="174" gid="1284" x="1043" y="208.944" width="81.0667" height="135.111"/>
  <object id="175" gid="1284" x="1204.33" y="246.278" width="81.0667" height="135.111"/>
  <object id="176" gid="1284" x="1096.33" y="238.278" width="81.0667" height="135.111"/>
  <object id="164" gid="1284" x="1117" y="64.5" width="115.6" height="192.667"/>
  <object id="165" gid="1284" x="1206.33" y="59.8333" width="115.6" height="192.667"/>
  <object id="166" gid="1284" x="1274.33" y="103.833" width="91.6" height="152.667"/>
  <object id="167" gid="1284" x="1307" y="161.167" width="115.6" height="192.667"/>
  <object id="168" gid="1284" x="1325.67" y="88.5" width="115.6" height="192.667"/>
  <object id="169" gid="1284" x="1383.67" y="67.8333" width="115.6" height="192.667"/>
  <object id="170" gid="1284" x="1380.33" y="135.833" width="97.2" height="162"/>
  <object id="155" gid="1284" x="1010" y="74" width="116.8" height="194.667"/>
  <object id="177" gid="1287" x="1116" y="153.333" width="96" height="160"/>
  <object id="179" gid="1284" x="1462" y="128" width="96" height="160"/>
  <object id="180" gid="1284" x="1527" y="140" width="106.8" height="178"/>
  <object id="182" gid="1284" x="1488" y="63" width="106.8" height="178"/>
  <object id="183" gid="1284" x="1680" y="125" width="106.8" height="178"/>
  <object id="186" gid="1284" x="1622" y="80" width="106.8" height="178"/>
  <object id="184" gid="1284" x="1735" y="68" width="85.8" height="143"/>
  <object id="185" gid="1284" x="1771" y="105" width="85.8" height="143"/>
  <object id="187" gid="1284" x="1828" y="131" width="85.8" height="143"/>
  <object id="188" gid="1284" x="1808" y="61" width="85.8" height="143"/>
  <object id="189" gid="1284" x="1866" y="91" width="101.4" height="169"/>
  <object id="190" gid="1284" x="1949" y="142" width="101.4" height="169"/>
  <object id="194" gid="1284" x="2025.67" y="100" width="101.4" height="169"/>
  <object id="198" gid="1284" x="2152.67" y="111" width="101.4" height="169"/>
  <object id="199" gid="1284" x="2192.67" y="185" width="101.4" height="169"/>
  <object id="191" gid="1284" x="1928" y="77" width="101.4" height="169"/>
  <object id="192" gid="1284" x="1996" y="187.333" width="119.8" height="199.667"/>
  <object id="193" gid="1284" x="2079.33" y="84" width="119.8" height="199.667"/>
  <object id="195" gid="1284" x="2204.33" y="109" width="119.8" height="199.667"/>
  <object id="197" gid="1284" x="2304.33" y="56" width="119.8" height="199.667"/>
  <object id="206" gid="1284" x="2391.33" y="292" width="119.8" height="199.667"/>
  <object id="207" gid="1284" x="2449.33" y="176" width="119.8" height="199.667"/>
  <object id="208" gid="1284" x="2556.33" y="293" width="119.8" height="199.667"/>
  <object id="212" gid="1284" x="2575.33" y="127" width="119.8" height="199.667"/>
  <object id="217" gid="1284" x="2757.33" y="264" width="119.8" height="199.667"/>
  <object id="218" gid="1284" x="2665.33" y="81" width="119.8" height="199.667"/>
  <object id="219" gid="1284" x="2905.33" y="150" width="119.8" height="199.667"/>
  <object id="220" gid="1284" x="2811.33" y="115" width="119.8" height="199.667"/>
  <object id="221" gid="1284" x="2855.33" y="224" width="119.8" height="199.667"/>
  <object id="222" gid="1284" x="3058.33" y="132" width="119.8" height="199.667"/>
  <object id="213" gid="1284" x="2598.33" y="348" width="119.8" height="199.667"/>
  <object id="209" gid="1284" x="2487.33" y="251" width="86.8" height="144.667"/>
  <object id="210" gid="1284" x="2499.33" y="334" width="86.8" height="144.667"/>
  <object id="211" gid="1284" x="2542.33" y="169" width="86.8" height="144.667"/>
  <object id="214" gid="1284" x="2647.33" y="191" width="86.8" height="144.667"/>
  <object id="215" gid="1284" x="2685.33" y="287" width="86.8" height="144.667"/>
  <object id="216" gid="1284" x="2716.33" y="184" width="109" height="181.667"/>
  <object id="223" gid="1284" x="3017.33" y="228" width="109" height="181.667"/>
  <object id="196" gid="1284" x="2102.33" y="224" width="119.8" height="199.667"/>
  <object id="200" gid="1284" x="2236.33" y="264" width="119.8" height="199.667"/>
  <object id="201" gid="1284" x="2273.33" y="132.667" width="99.8" height="166.333"/>
  <object id="202" gid="1284" x="2338.33" y="220.667" width="99.8" height="166.333"/>
  <object id="203" gid="1284" x="2390.33" y="92.6667" width="99.8" height="166.333"/>
  <object id="204" gid="1284" x="2341.33" y="114.667" width="99.8" height="166.333"/>
  <object id="205" gid="1284" x="2487.33" y="71.6667" width="99.8" height="166.333"/>
  <object id="181" gid="1284" x="1432" y="189" width="96" height="160"/>
  <object id="226" gid="1286" x="2004" y="1092" width="96" height="160">
   <properties>
    <property name="collider" type="object" value="227"/>
   </properties>
  </object>
  <object id="228" gid="1286" x="2080.24" y="1100.04" width="119.423" height="199.038">
   <properties>
    <property name="collider" type="object" value="229"/>
   </properties>
  </object>
  <object id="230" gid="1286" x="1783.24" y="1151.04" width="119.423" height="199.038">
   <properties>
    <property name="collider" type="object" value="231"/>
   </properties>
  </object>
  <object id="234" gid="1286" x="1258.24" y="1141.04" width="119.423" height="199.038">
   <properties>
    <property name="collider" type="object" value="235"/>
   </properties>
  </object>
  <object id="266" gid="1286" x="1478.24" y="1497.04" width="119.423" height="199.038">
   <properties>
    <property name="collider" type="object" value="267"/>
   </properties>
  </object>
  <object id="272" gid="1286" x="1391.89" y="1468.51" width="83.1082" height="138.514">
   <properties>
    <property name="collider" type="object" value="273"/>
   </properties>
  </object>
  <object id="274" gid="1286" x="1435.58" y="1461.04" width="119.423" height="199.038">
   <properties>
    <property name="collider" type="object" value="275"/>
   </properties>
  </object>
  <object id="268" gid="1286" x="1544.11" y="1504.6" width="153.559" height="255.932">
   <properties>
    <property name="collider" type="object" value="269"/>
   </properties>
  </object>
  <object id="270" gid="1286" x="1644.91" y="1467.71" width="119.423" height="199.038">
   <properties>
    <property name="collider" type="object" value="271"/>
   </properties>
  </object>
  <object id="236" gid="1286" x="1488.58" y="755.038" width="119.423" height="199.038">
   <properties>
    <property name="collider" type="object" value="237"/>
   </properties>
  </object>
  <object id="238" gid="1286" x="1575.58" y="734.038" width="119.423" height="199.038">
   <properties>
    <property name="collider" type="object" value="239"/>
   </properties>
  </object>
  <object id="241" gid="1286" x="2345.58" y="827.372" width="119.423" height="199.038">
   <properties>
    <property name="collider" type="object" value="240"/>
   </properties>
  </object>
  <object id="243" gid="1286" x="2364.91" y="914.559" width="142.536" height="237.559">
   <properties>
    <property name="collider" type="object" value="242"/>
   </properties>
  </object>
  <object id="232" gid="1286" x="1880.72" y="1124.92" width="131.952" height="219.919">
   <properties>
    <property name="collider" type="object" value="233"/>
   </properties>
  </object>
  <object id="227" x="2003" y="1054" width="97" height="54.2366">
   <ellipse/>
  </object>
  <object id="229" x="2079" y="1052.77" width="120.667" height="67.4698">
   <ellipse/>
  </object>
  <object id="231" x="1782" y="1103.77" width="120.667" height="67.4698">
   <ellipse/>
  </object>
  <object id="235" x="1257" y="1093.77" width="120.667" height="67.4698">
   <ellipse/>
  </object>
  <object id="267" x="1477" y="1449.77" width="120.667" height="67.4698">
   <ellipse/>
  </object>
  <object id="273" x="1391.03" y="1435.62" width="83.9739" height="46.9532">
   <ellipse/>
  </object>
  <object id="275" x="1434.33" y="1413.77" width="120.667" height="67.4698">
   <ellipse/>
  </object>
  <object id="269" x="1542.51" y="1443.81" width="155.159" height="86.7553">
   <ellipse/>
  </object>
  <object id="271" x="1643.67" y="1420.43" width="120.667" height="67.4698">
   <ellipse/>
  </object>
  <object id="237" x="1487.33" y="697.767" width="120.667" height="67.4698">
   <ellipse/>
  </object>
  <object id="239" x="1577.33" y="670.767" width="120.667" height="67.4698">
   <ellipse/>
  </object>
  <object id="240" x="2347.33" y="764.1" width="120.667" height="67.4698">
   <ellipse/>
  </object>
  <object id="242" x="2367.01" y="839.042" width="144.02" height="80.5275">
   <ellipse/>
  </object>
  <object id="233" x="1879.34" y="1072.69" width="133.326" height="74.548">
   <ellipse/>
  </object>
  <object id="244" gid="1285" x="1959.33" y="315.333" width="96" height="160">
   <properties>
    <property name="collider" type="object" value="245"/>
   </properties>
  </object>
  <object id="249" gid="1285" x="1906.67" y="269.333" width="96" height="160">
   <properties>
    <property name="collider" type="object" value="248"/>
   </properties>
  </object>
  <object id="251" gid="1285" x="1794.67" y="246.667" width="96" height="160">
   <properties>
    <property name="collider" type="object" value="250"/>
   </properties>
  </object>
  <object id="246" gid="1285" x="2045.33" y="342.14" width="113.684" height="189.474">
   <properties>
    <property name="collider" type="object" value="247"/>
   </properties>
  </object>
  <object id="252" gid="1285" x="2182.33" y="397.14" width="113.684" height="189.474">
   <properties>
    <property name="collider" type="object" value="253"/>
   </properties>
  </object>
  <object id="254" gid="1285" x="2339.33" y="426.14" width="113.684" height="189.474">
   <properties>
    <property name="collider" type="object" value="255"/>
   </properties>
  </object>
  <object id="258" gid="1285" x="2947.33" y="384.807" width="113.684" height="189.474">
   <properties>
    <property name="collider" type="object" value="259"/>
   </properties>
  </object>
  <object id="260" gid="1285" x="2815.33" y="428.276" width="146.165" height="243.609">
   <properties>
    <property name="collider" type="object" value="261"/>
   </properties>
  </object>
  <object id="262" gid="1285" x="2708.67" y="469.609" width="146.165" height="243.609">
   <properties>
    <property name="collider" type="object" value="263"/>
   </properties>
  </object>
  <object id="264" gid="1285" x="3046" y="425.609" width="146.165" height="243.609">
   <properties>
    <property name="collider" type="object" value="265"/>
   </properties>
  </object>
  <object id="256" gid="1285" x="2281.83" y="382.307" width="93.6842" height="156.14">
   <properties>
    <property name="collider" type="object" value="257"/>
   </properties>
  </object>
  <object id="245" x="1959.33" y="276.667" width="94" height="56">
   <ellipse/>
  </object>
  <object id="248" x="1906.67" y="230.667" width="94" height="56">
   <ellipse/>
  </object>
  <object id="250" x="1794.67" y="208" width="94" height="56">
   <ellipse/>
  </object>
  <object id="247" x="2045.33" y="296.351" width="111.316" height="66.3158">
   <ellipse/>
  </object>
  <object id="253" x="2182.33" y="351.351" width="111.316" height="66.3158">
   <ellipse/>
  </object>
  <object id="255" x="2339.33" y="380.351" width="111.316" height="66.3158">
   <ellipse/>
  </object>
  <object id="259" x="2947.33" y="339.018" width="111.316" height="66.3158">
   <ellipse/>
  </object>
  <object id="261" x="2815.33" y="369.404" width="143.12" height="85.2632">
   <ellipse/>
  </object>
  <object id="263" x="2708.67" y="410.737" width="143.12" height="85.2632">
   <ellipse/>
  </object>
  <object id="265" x="3046" y="366.737" width="143.12" height="85.2632">
   <ellipse/>
  </object>
  <object id="257" x="2281.83" y="344.573" width="91.7325" height="54.6491">
   <ellipse/>
  </object>
  <object id="276" gid="1283" x="2292.67" y="1409.33" width="96" height="160">
   <properties>
    <property name="collider" type="object" value="277"/>
   </properties>
  </object>
  <object id="280" gid="1283" x="2358.67" y="1404.83" width="84" height="140">
   <properties>
    <property name="collider" type="object" value="281"/>
   </properties>
  </object>
  <object id="282" gid="1283" x="2530.67" y="1409.5" width="84" height="140">
   <properties>
    <property name="collider" type="object" value="283"/>
   </properties>
  </object>
  <object id="284" gid="1283" x="2584.67" y="1433.66" width="114.698" height="191.163">
   <properties>
    <property name="collider" type="object" value="285"/>
   </properties>
  </object>
  <object id="286" gid="1283" x="2665.67" y="1452" width="71.6977" height="119.496">
   <properties>
    <property name="collider" type="object" value="287"/>
   </properties>
  </object>
  <object id="288" gid="1283" x="2704.67" y="1485" width="71.6977" height="119.496">
   <properties>
    <property name="collider" type="object" value="289"/>
   </properties>
  </object>
  <object id="290" gid="1283" x="2751.13" y="1489.55" width="91.2326" height="152.054">
   <properties>
    <property name="collider" type="object" value="291"/>
   </properties>
  </object>
  <object id="292" gid="1283" x="2813.67" y="1465" width="71.6977" height="119.496">
   <properties>
    <property name="collider" type="object" value="293"/>
   </properties>
  </object>
  <object id="294" gid="1283" x="2854.32" y="1415.58" width="99.0465" height="165.078">
   <properties>
    <property name="collider" type="object" value="295"/>
   </properties>
  </object>
  <object id="296" gid="1283" x="2924.32" y="1411.58" width="99.0465" height="165.078">
   <properties>
    <property name="collider" type="object" value="297"/>
   </properties>
  </object>
  <object id="298" gid="1283" x="2999.83" y="1385.39" width="108.535" height="180.891">
   <properties>
    <property name="collider" type="object" value="299"/>
   </properties>
  </object>
  <object id="300" gid="1283" x="3120.83" y="1335.39" width="108.535" height="180.891">
   <properties>
    <property name="collider" type="object" value="301"/>
   </properties>
  </object>
  <object id="302" gid="1283" x="3080.83" y="1352.02" width="63.5349" height="105.891">
   <properties>
    <property name="collider" type="object" value="303"/>
   </properties>
  </object>
  <object id="278" gid="1283" x="2254.67" y="1405.33" width="64" height="106.667">
   <properties>
    <property name="collider" type="object" value="279"/>
   </properties>
  </object>
  <object id="277" x="2298.67" y="1380.67" width="82.6667" height="40.6667">
   <ellipse/>
  </object>
  <object id="281" x="2363.92" y="1379.75" width="72.3333" height="35.5833">
   <ellipse/>
  </object>
  <object id="283" x="2535.92" y="1384.42" width="72.3333" height="35.5833">
   <ellipse/>
  </object>
  <object id="285" x="2591.84" y="1399.41" width="98.7674" height="48.5872">
   <ellipse/>
  </object>
  <object id="287" x="2670.15" y="1430.59" width="61.7397" height="30.3719">
   <ellipse/>
  </object>
  <object id="289" x="2709.15" y="1463.59" width="61.7397" height="30.3719">
   <ellipse/>
  </object>
  <object id="291" x="2756.83" y="1462.31" width="78.5614" height="38.6471">
   <ellipse/>
  </object>
  <object id="293" x="2818.15" y="1443.59" width="61.7397" height="30.3719">
   <ellipse/>
  </object>
  <object id="295" x="2860.51" y="1386" width="85.2901" height="41.9572">
   <ellipse/>
  </object>
  <object id="297" x="2930.51" y="1382" width="85.2901" height="41.9572">
   <ellipse/>
  </object>
  <object id="299" x="3006.61" y="1352.98" width="93.4606" height="45.9766">
   <ellipse/>
  </object>
  <object id="301" x="3127.61" y="1302.98" width="93.4606" height="45.9766">
   <ellipse/>
  </object>
  <object id="303" x="3084.8" y="1333.04" width="54.7106" height="26.9141">
   <ellipse/>
  </object>
  <object id="279" x="2258.67" y="1386.22" width="55.1111" height="27.1111">
   <ellipse/>
  </object>
 </objectgroup>
</map>
